/* XPM */
static char * brazos_xpm[] = {
"384 256 7532 2",
"  	c None",
". 	c #ECB798",
"+ 	c #EFC0A2",
"@ 	c #F8CFB1",
"# 	c #F6CFB1",
"$ 	c #EFC3A3",
"% 	c #EEBE9F",
"& 	c #F3C5A8",
"* 	c #F1C5AA",
"= 	c #F2C6AC",
"- 	c #F3C6AB",
"; 	c #F1AD8D",
"> 	c #FBBD9E",
", 	c #FBC3A5",
"' 	c #FFC5A5",
") 	c #FDC6A7",
"! 	c #FCCAAC",
"~ 	c #F6C7A8",
"{ 	c #F2C5A9",
"] 	c #E6A081",
"^ 	c #F1B392",
"/ 	c #F4B899",
"( 	c #F6C0A3",
"_ 	c #F7C2A6",
": 	c #F9C4A9",
"< 	c #F9C0A4",
"[ 	c #F5BA9C",
"} 	c #EEB495",
"| 	c #E8A787",
"1 	c #E8B090",
"2 	c #F0B998",
"3 	c #EEBD9C",
"4 	c #F0BB9A",
"5 	c #FEC9AB",
"6 	c #FCC9AB",
"7 	c #F5C3A5",
"8 	c #E3B094",
"9 	c #E79778",
"0 	c #F5AD8E",
"a 	c #F7B191",
"b 	c #FAB594",
"c 	c #F7A785",
"d 	c #F7AD8C",
"e 	c #F7B08F",
"f 	c #F9BC9F",
"g 	c #F9BEA0",
"h 	c #FCC4A4",
"i 	c #E9AE90",
"j 	c #D28668",
"k 	c #E5A181",
"l 	c #EDB193",
"m 	c #F1B698",
"n 	c #F4B495",
"o 	c #F2AD8D",
"p 	c #F2B194",
"q 	c #F1B295",
"r 	c #EFAF91",
"s 	c #EAA887",
"t 	c #DF9978",
"u 	c #F3B492",
"v 	c #F5B998",
"w 	c #F6BD9D",
"x 	c #F4BC9B",
"y 	c #DFA88B",
"z 	c #F3AF8F",
"A 	c #FCBE9F",
"B 	c #FDC3A5",
"C 	c #FCC1A2",
"D 	c #FCC8AB",
"E 	c #F2BD9F",
"F 	c #DE9E81",
"G 	c #E09F7F",
"H 	c #F0B696",
"I 	c #F1BC9C",
"J 	c #ECB99B",
"K 	c #E9B899",
"L 	c #BA6A54",
"M 	c #DF8B6C",
"N 	c #E69375",
"O 	c #EE9A78",
"P 	c #F09976",
"Q 	c #EE9D7B",
"R 	c #F4AB8A",
"S 	c #F6B396",
"T 	c #F3AF90",
"U 	c #F7B898",
"V 	c #F9BD9E",
"W 	c #E3A88B",
"X 	c #BF7358",
"Y 	c #E09B7B",
"Z 	c #E8A788",
"` 	c #EDA887",
" .	c #F4B99C",
"..	c #F4BA9E",
"+.	c #F2B799",
"@.	c #EDAD8E",
"#.	c #EAA988",
"$.	c #D4896A",
"%.	c #EFAA87",
"&.	c #F3B291",
"*.	c #F4B595",
"=.	c #F3B394",
"-.	c #EFB18E",
";.	c #E39677",
">.	c #F3AC8B",
",.	c #F9BC9C",
"'.	c #FABEA0",
").	c #FBC2A5",
"!.	c #FBC2A4",
"~.	c #EAB194",
"{.	c #DF9577",
"].	c #F2B392",
"^.	c #F5B99B",
"/.	c #F6BB9E",
"(.	c #F8C5A8",
"_.	c #E9B99E",
":.	c #C8917B",
"<.	c #A45C47",
"[.	c #CA7459",
"}.	c #D47C5F",
"|.	c #DC8465",
"1.	c #EA9A79",
"2.	c #EEA281",
"3.	c #ECA081",
"4.	c #EDA485",
"5.	c #F5B393",
"6.	c #F8BA9B",
"7.	c #F2B395",
"8.	c #D29779",
"9.	c #B1624A",
"0.	c #D88A6C",
"a.	c #E69D7D",
"b.	c #ECAB8C",
"c.	c #F5B99D",
"d.	c #F8BEA2",
"e.	c #F7BEA0",
"f.	c #F7BC9E",
"g.	c #F4B99B",
"h.	c #DE9F81",
"i.	c #CB8062",
"j.	c #EBA887",
"k.	c #F1B394",
"l.	c #EEB091",
"m.	c #EBA786",
"n.	c #E49E7E",
"o.	c #CA8467",
"p.	c #C07057",
"q.	c #EAA181",
"r.	c #F5B697",
"s.	c #F8BA9C",
"t.	c #FBBEA1",
"u.	c #FABC9E",
"v.	c #FBBFA2",
"w.	c #F6BB9C",
"x.	c #EAB195",
"y.	c #D58869",
"z.	c #E9A483",
"A.	c #EFB091",
"B.	c #F2B698",
"C.	c #F2B496",
"D.	c #EDAF92",
"E.	c #E6AC8C",
"F.	c #CB8E73",
"G.	c #88483A",
"H.	c #B66049",
"I.	c #CB7256",
"J.	c #D88365",
"K.	c #ECA282",
"L.	c #F1AE8F",
"M.	c #F6B89A",
"N.	c #F8BDA0",
"O.	c #FAC0A3",
"P.	c #F6BB9F",
"Q.	c #F0B293",
"R.	c #C78C6F",
"S.	c #AA5640",
"T.	c #D98A6B",
"U.	c #ECAC8C",
"V.	c #F4B89B",
"W.	c #F7BEA1",
"X.	c #F5B99A",
"Y.	c #F8BD9F",
"Z.	c #F9C1A4",
"`.	c #C8866A",
" +	c #D88C6C",
".+	c #EDAC8C",
"++	c #F1B597",
"@+	c #EBA787",
"#+	c #E29B7A",
"$+	c #DC9373",
"%+	c #BC785E",
"&+	c #D08366",
"*+	c #EFAB8D",
"=+	c #F2AE90",
"-+	c #F4AE8F",
";+	c #F7B394",
">+	c #F4B092",
",+	c #F5B191",
"'+	c #F4B191",
")+	c #DFA487",
"!+	c #CD8163",
"~+	c #E2997A",
"{+	c #E9A688",
"]+	c #ECAB8D",
"^+	c #E7A386",
"/+	c #E6A789",
"(+	c #E4A284",
"_+	c #CB876D",
":+	c #984939",
"<+	c #B6624A",
"[+	c #E19373",
"}+	c #F7B99C",
"|+	c #FABFA1",
"1+	c #F6BA9C",
"2+	c #F0B292",
"3+	c #B6785D",
"4+	c #B56047",
"5+	c #DD9473",
"6+	c #EFAF8E",
"7+	c #F3B697",
"8+	c #F9BEA2",
"9+	c #FAC1A3",
"0+	c #F9BFA0",
"a+	c #F0B190",
"b+	c #B36D53",
"c+	c #E39A78",
"d+	c #EFB293",
"e+	c #ECAA8B",
"f+	c #E09A7B",
"g+	c #CF8769",
"h+	c #9C5745",
"i+	c #D98B6D",
"j+	c #E49779",
"k+	c #EB9E80",
"l+	c #EB9A7A",
"m+	c #EEA181",
"n+	c #F2AB8B",
"o+	c #F0B394",
"p+	c #CC957C",
"q+	c #CA7A5C",
"r+	c #E1987A",
"s+	c #EBA88B",
"t+	c #F1B599",
"u+	c #EDB194",
"v+	c #EEB397",
"w+	c #E8A88A",
"x+	c #D38F73",
"y+	c #EDB799",
"z+	c #EDB898",
"A+	c #E9AD8B",
"B+	c #A45C48",
"C+	c #D78465",
"D+	c #EAA281",
"E+	c #F4B395",
"F+	c #F7BA9C",
"G+	c #FABFA2",
"H+	c #F8BEA0",
"I+	c #F9BEA1",
"J+	c #F4BA9D",
"K+	c #EFB08F",
"L+	c #AA6B51",
"M+	c #BE674C",
"N+	c #E29674",
"O+	c #EEAD8C",
"P+	c #F5B898",
"Q+	c #F8BB9D",
"R+	c #FABFA0",
"S+	c #FBC0A1",
"T+	c #F7BC9C",
"U+	c #DFA281",
"V+	c #BB6E51",
"W+	c #E5A07E",
"X+	c #F0B191",
"Y+	c #EFAF90",
"Z+	c #E6A485",
"`+	c #D99474",
" @	c #BF7B5F",
".@	c #DDA080",
"+@	c #A25B46",
"@@	c #C87358",
"#@	c #D98769",
"$@	c #EEA080",
"%@	c #F3AD8F",
"&@	c #F7B99A",
"*@	c #F8C2A7",
"=@	c #F6C0A4",
"-@	c #AE6D56",
";@	c #DD9274",
">@	c #F7BFA4",
",@	c #F5BDA2",
"'@	c #F4BBA1",
")@	c #F3B79A",
"!@	c #DF9E7F",
"~@	c #E49C7C",
"{@	c #EEAD8D",
"]@	c #EDAD8D",
"^@	c #EAA888",
"/@	c #DD9879",
"(@	c #AF5F49",
"_@	c #D78767",
":@	c #E89E7C",
"<@	c #F3AE8D",
"[@	c #F7B798",
"}@	c #F6B696",
"|@	c #F8BC9E",
"1@	c #F5B899",
"2@	c #F0AF8F",
"3@	c #B5775C",
"4@	c #B9654A",
"5@	c #DE9372",
"6@	c #F1AF8D",
"7@	c #F8BC9D",
"8@	c #FCBFA0",
"9@	c #FABC9B",
"0@	c #FABC9A",
"a@	c #F8BA98",
"b@	c #D89B7B",
"c@	c #BF7051",
"d@	c #E89F7C",
"e@	c #F0AF8E",
"f@	c #ECAD8D",
"g@	c #E09C7D",
"h@	c #C78164",
"i@	c #E7A786",
"j@	c #F3B594",
"k@	c #ECAF90",
"l@	c #D29172",
"m@	c #AB5B47",
"n@	c #DF9174",
"o@	c #F2AD8E",
"p@	c #F7B89A",
"q@	c #F9BB9E",
"r@	c #FABDA1",
"s@	c #F8C1A6",
"t@	c #F7BDA2",
"u@	c #D79D7F",
"v@	c #BE6C52",
"w@	c #EFAD8E",
"x@	c #F4BB9F",
"y@	c #F6BDA3",
"z@	c #F7BDA1",
"A@	c #F0B395",
"B@	c #BF775B",
"C@	c #E8A281",
"D@	c #EDAB8C",
"E@	c #EAA686",
"F@	c #EAA584",
"G@	c #D89273",
"H@	c #BB6C52",
"I@	c #DB8B6A",
"J@	c #E99C7A",
"K@	c #F2AC8C",
"L@	c #F8BB9C",
"M@	c #F9C0A2",
"N@	c #F5BB9C",
"O@	c #D9A383",
"P@	c #BF6F54",
"Q@	c #E08E6A",
"R@	c #F1AB8A",
"S@	c #FBBC9B",
"T@	c #FCBD9C",
"U@	c #FABA97",
"V@	c #FAB997",
"W@	c #F7B997",
"X@	c #E5A382",
"Y@	c #D88866",
"Z@	c #EAA480",
"`@	c #EEAF8F",
" #	c #EAAB8C",
".#	c #D89374",
"+#	c #C78061",
"@#	c #E8A483",
"##	c #E8A484",
"$#	c #E6A27E",
"%#	c #C98869",
"&#	c #D18063",
"*#	c #EEA687",
"=#	c #F4B294",
"-#	c #F8B698",
";#	c #F9B89A",
">#	c #F7BC9F",
",#	c #F3B698",
"'#	c #A96852",
")#	c #E09272",
"!#	c #F2B597",
"~#	c #F6BEA2",
"{#	c #F7C0A5",
"]#	c #F8BFA3",
"^#	c #CB8F71",
"/#	c #CE7F61",
"(#	c #EDAD8F",
"_#	c #EBA98A",
":#	c #C98465",
"<#	c #995442",
"[#	c #C9765A",
"}#	c #DA8665",
"|#	c #E69471",
"1#	c #EFA787",
"2#	c #F6B495",
"3#	c #F7B494",
"4#	c #F8B99A",
"5#	c #FCC2A3",
"6#	c #FCC3A5",
"7#	c #FCBE9E",
"8#	c #FABD9C",
"9#	c #F7B795",
"0#	c #F8B897",
"a#	c #FBBD9D",
"b#	c #F3AC89",
"c#	c #F0A985",
"d#	c #EFA885",
"e#	c #F0AA88",
"f#	c #F1AD8A",
"g#	c #E19875",
"h#	c #EBA986",
"i#	c #E2A07E",
"j#	c #C07A5D",
"k#	c #D38B69",
"l#	c #E29D7A",
"m#	c #E7A482",
"n#	c #DF9A79",
"o#	c #BB7B60",
"p#	c #AF624D",
"q#	c #DF8C6E",
"r#	c #EFA686",
"s#	c #F7B293",
"t#	c #F7B091",
"u#	c #F7B899",
"v#	c #F9BDA0",
"w#	c #F6BC9F",
"x#	c #DDA587",
"y#	c #B8654A",
"z#	c #EBA485",
"A#	c #F6BA9D",
"B#	c #F7BD9F",
"C#	c #F6B99D",
"D#	c #E9A786",
"E#	c #A96249",
"F#	c #E9A382",
"G#	c #E39D7D",
"H#	c #D48D6D",
"I#	c #DB9473",
"J#	c #DE9C7C",
"K#	c #AD624C",
"L#	c #C97054",
"M#	c #D87E5F",
"N#	c #E99B7A",
"O#	c #F6B596",
"P#	c #F6B090",
"Q#	c #F4A583",
"R#	c #F9AE8C",
"S#	c #FAB494",
"T#	c #F7AD8D",
"U#	c #F7AF8E",
"V#	c #F7AE8D",
"W#	c #F8B999",
"X#	c #F8B899",
"Y#	c #F0A987",
"Z#	c #E69574",
"`#	c #E28E6D",
" $	c #E39270",
".$	c #F0AB88",
"+$	c #E8A27F",
"@$	c #E7A280",
"#$	c #E9A785",
"$$	c #E8A685",
"%$	c #DC9776",
"&$	c #BE785A",
"*$	c #DB9370",
"=$	c #E39E7B",
"-$	c #DE9977",
";$	c #D18E6C",
">$	c #965646",
",$	c #CB765A",
"'$	c #E89B7B",
")$	c #F4AE8E",
"!$	c #F5AE90",
"~$	c #F3AD8D",
"{$	c #F6B496",
"]$	c #F6B799",
"^$	c #C79073",
"/$	c #CD7659",
"($	c #E89D7A",
"_$	c #F3B191",
":$	c #F6B898",
"<$	c #DA9E81",
"[$	c #D08566",
"}$	c #E9A685",
"|$	c #EDAC8D",
"1$	c #EBA989",
"2$	c #DE9776",
"3$	c #C37B5E",
"4$	c #E8A583",
"5$	c #D08D6E",
"6$	c #734236",
"7$	c #B25E48",
"8$	c #D98364",
"9$	c #E79A79",
"0$	c #EFA584",
"a$	c #F2AC8D",
"b$	c #F0A282",
"c$	c #EF9776",
"d$	c #F19776",
"e$	c #F5A787",
"f$	c #F2AA8A",
"g$	c #E89676",
"h$	c #E38E6E",
"i$	c #E59475",
"j$	c #F1AF91",
"k$	c #EFAB8B",
"l$	c #E79979",
"m$	c #E59877",
"n$	c #E49977",
"o$	c #EDA784",
"p$	c #DF9473",
"q$	c #D48667",
"r$	c #E49D7B",
"s$	c #E9A583",
"t$	c #E6A17F",
"u$	c #DA9371",
"v$	c #C37A5C",
"w$	c #DF9A78",
"x$	c #E09C79",
"y$	c #DB9775",
"z$	c #B7775C",
"A$	c #B2614B",
"B$	c #DE8A6B",
"C$	c #EEA584",
"D$	c #F4AA8B",
"E$	c #F0A685",
"F$	c #F3AA89",
"G$	c #F6B797",
"H$	c #F8BD9C",
"I$	c #DAA68A",
"J$	c #DF9879",
"K$	c #F0A988",
"L$	c #F6B391",
"M$	c #F7B595",
"N$	c #F7BA9A",
"O$	c #E2A081",
"P$	c #E29876",
"Q$	c #EDAA8A",
"R$	c #E6A383",
"S$	c #C37E61",
"T$	c #D9906F",
"U$	c #E09774",
"V$	c #C78262",
"W$	c #9E5541",
"X$	c #D78263",
"Y$	c #E08F6E",
"Z$	c #EBA180",
"`$	c #EEA183",
" %	c #EC9779",
".%	c #E78165",
"+%	c #EC9173",
"@%	c #EFA587",
"#%	c #E9A386",
"$%	c #DD8E71",
"%%	c #DC8E70",
"&%	c #E19678",
"*%	c #EDAA8B",
"=%	c #EDAA8C",
"-%	c #E49A7A",
";%	c #E8A282",
">%	c #DD9576",
",%	c #C6785C",
"'%	c #D58A69",
")%	c #E29B78",
"!%	c #E4A07D",
"~%	c #CB8465",
"{%	c #D28C6B",
"]%	c #E19E7D",
"^%	c #DE9D7B",
"/%	c #CA8768",
"(%	c #915241",
"_%	c #DA886A",
":%	c #E79675",
"<%	c #ED9D7D",
"[%	c #EFA383",
"}%	c #F0A383",
"|%	c #F1A786",
"1%	c #F9B999",
"2%	c #FABB9B",
"3%	c #FABF9F",
"4%	c #FCBD9E",
"5%	c #FBBA9B",
"6%	c #FBBA9A",
"7%	c #F7B694",
"8%	c #E49E7C",
"9%	c #E7A17D",
"0%	c #EAA683",
"a%	c #E29E7D",
"b%	c #B4694E",
"c%	c #D88D6A",
"d%	c #DF9673",
"e%	c #DA916F",
"f%	c #B47155",
"g%	c #975644",
"h%	c #C9785B",
"i%	c #DB8969",
"j%	c #E29271",
"k%	c #EB9E7F",
"l%	c #E99475",
"m%	c #E18064",
"n%	c #DE755A",
"o%	c #EA977A",
"p%	c #ECA78A",
"q%	c #E6A185",
"r%	c #DD8F72",
"s%	c #DE9173",
"t%	c #E29979",
"u%	c #E7A483",
"v%	c #ECAC8E",
"w%	c #E19C7E",
"x%	c #C1755A",
"y%	c #C3785B",
"z%	c #D78E6C",
"A%	c #DE9774",
"B%	c #D99270",
"C%	c #BA7155",
"D%	c #C1795C",
"E%	c #D18B6A",
"F%	c #D79371",
"G%	c #D08D6C",
"H%	c #A3674E",
"I%	c #EFBA9B",
"J%	c #EBAD8D",
"K%	c #CA7C60",
"L%	c #E39170",
"M%	c #EDA181",
"N%	c #EEA283",
"O%	c #EEA182",
"P%	c #F0A081",
"Q%	c #F5AA8C",
"R%	c #F6AE90",
"S%	c #F5A788",
"T%	c #F4A888",
"U%	c #F5AB8B",
"V%	c #F9AE8F",
"W%	c #F9AD8D",
"X%	c #F8AC8B",
"Y%	c #F6B08D",
"Z%	c #F4B18E",
"`%	c #E69F7C",
" &	c #EDAA88",
".&	c #ECA987",
"+&	c #D28E6E",
"@&	c #BF7455",
"#&	c #D88B68",
"$&	c #CE8766",
"%&	c #B66A52",
"&&	c #D27F61",
"*&	c #DA8768",
"=&	c #DE8B6D",
"-&	c #E28F72",
";&	c #E49173",
">&	c #DF876B",
",&	c #DD8167",
"'&	c #DC7F63",
")&	c #E79D7E",
"!&	c #EBA88C",
"~&	c #E5A285",
"{&	c #DE9375",
"]&	c #DD9375",
"^&	c #E19979",
"/&	c #EBA988",
"(&	c #EFB090",
"_&	c #EBAA8B",
":&	c #D58E6F",
"<&	c #BC7055",
"[&	c #CC8363",
"}&	c #DB9674",
"|&	c #DA9674",
"1&	c #C27A5C",
"2&	c #B26B51",
"3&	c #C47E60",
"4&	c #CD8967",
"5&	c #B97557",
"6&	c #AF6D51",
"7&	c #EBBA9F",
"8&	c #FBC6A9",
"9&	c #FBB999",
"0&	c #D6876C",
"a&	c #BD735B",
"b&	c #E49474",
"c&	c #EDA182",
"d&	c #EFA687",
"e&	c #EFA182",
"f&	c #ED997B",
"g&	c #EE9677",
"h&	c #F4A385",
"i&	c #F1A285",
"j&	c #EC9B7D",
"k&	c #EC977A",
"l&	c #EF9A7B",
"m&	c #F09F80",
"n&	c #F2A584",
"o&	c #EFA280",
"p&	c #EFA481",
"q&	c #EDA583",
"r&	c #ECA786",
"s&	c #D28767",
"t&	c #E49B78",
"u&	c #E9A27E",
"v&	c #E8A37E",
"w&	c #C78263",
"x&	c #D18664",
"y&	c #D9906D",
"z&	c #D68F6B",
"A&	c #BB795B",
"B&	c #A85D49",
"C&	c #C87357",
"D&	c #D37C5E",
"E&	c #D37D5F",
"F&	c #D98568",
"G&	c #DE8D6F",
"H&	c #DF8F70",
"I&	c #DF9274",
"J&	c #DD8D70",
"K&	c #DA8869",
"L&	c #E69C7E",
"M&	c #EDAC8E",
"N&	c #E4A081",
"O&	c #DC9574",
"P&	c #DA9270",
"Q&	c #E09977",
"R&	c #EEAD8B",
"S&	c #EEAE8E",
"T&	c #E4A281",
"U&	c #C67E60",
"V&	c #BF7659",
"W&	c #D38D6C",
"X&	c #DB9876",
"Y&	c #CF8B6A",
"Z&	c #B46C52",
"`&	c #BB7557",
" *	c #C88565",
".*	c #B87558",
"+*	c #AE6C51",
"@*	c #8E5744",
"#*	c #F4BFA1",
"$*	c #FDC0A2",
"%*	c #F9B799",
"&*	c #F1A382",
"**	c #E28B6C",
"=*	c #BF6C56",
"-*	c #EA9C7D",
";*	c #ECA182",
">*	c #ED9E80",
",*	c #E7896D",
"'*	c #EC8A6E",
")*	c #F3A68B",
"!*	c #ECA48A",
"~*	c #E5957A",
"{*	c #E59275",
"]*	c #E59274",
"^*	c #E99B7B",
"/*	c #E89A79",
"(*	c #E79B7A",
"_*	c #E9A07F",
":*	c #E6A07E",
"<*	c #D28566",
"[*	c #DE9370",
"}*	c #E49E7A",
"|*	c #DF9A76",
"1*	c #C37A5B",
"2*	c #D78F6C",
"3*	c #D38C69",
"4*	c #BE7959",
"5*	c #9D5946",
"6*	c #C26D52",
"7*	c #C86F53",
"8*	c #CD795C",
"9*	c #D88B6D",
"0*	c #E09677",
"a*	c #E49F81",
"b*	c #E5A183",
"c*	c #E4A082",
"d*	c #E19B7C",
"e*	c #E09676",
"f*	c #ECAB8B",
"g*	c #E4A181",
"h*	c #DC9372",
"i*	c #DD9675",
"j*	c #E29B79",
"k*	c #E9A380",
"l*	c #EAAA89",
"m*	c #DA9574",
"n*	c #BB7256",
"o*	c #CB8464",
"p*	c #D99674",
"q*	c #D89675",
"r*	c #BB7659",
"s*	c #B16C51",
"t*	c #C58364",
"u*	c #C28061",
"v*	c #B06E52",
"w*	c #8F5643",
"x*	c #F1B89A",
"y*	c #FCC0A2",
"z*	c #FBC1A5",
"A*	c #F9B899",
"B*	c #F1A787",
"C*	c #E79777",
"D*	c #C46F55",
"E*	c #D98868",
"F*	c #E79C7C",
"G*	c #E9A081",
"H*	c #EBA184",
"I*	c #E99C7F",
"J*	c #E58A6F",
"K*	c #E78367",
"L*	c #EE9A7C",
"M*	c #F1AE93",
"N*	c #E8A387",
"O*	c #E09679",
"P*	c #DE9174",
"Q*	c #E49776",
"R*	c #E59C7B",
"S*	c #E8A382",
"T*	c #E6A382",
"U*	c #D5896A",
"V*	c #C27457",
"W*	c #D7906C",
"X*	c #E09A76",
"Y*	c #DE9974",
"Z*	c #C27C5F",
"`*	c #C88463",
" =	c #D7916F",
".=	c #A96F55",
"+=	c #B9654D",
"@=	c #D38365",
"#=	c #DE9778",
"$=	c #E29E80",
"%=	c #E7A485",
"&=	c #E9AA8B",
"*=	c #EBAB8D",
"==	c #EBAC8C",
"-=	c #EAAA8B",
";=	c #E4A182",
">=	c #E7A181",
",=	c #EEAE8F",
"'=	c #E3A080",
")=	c #DB9372",
"!=	c #DA916E",
"~=	c #DD926F",
"{=	c #E59F7D",
"]=	c #E8A684",
"^=	c #E4A17E",
"/=	c #D38C6B",
"(=	c #BE7457",
"_=	c #DD9C7A",
":=	c #C68263",
"<=	c #AB664C",
"[=	c #B57356",
"}=	c #CA8868",
"|=	c #B87658",
"1=	c #985C47",
"2=	c #7E4C3C",
"3=	c #EAB092",
"4=	c #EDB496",
"5=	c #EDB597",
"6=	c #F2BEA0",
"7=	c #F9BFA1",
"8=	c #F5B394",
"9=	c #EFA888",
"0=	c #E39272",
"a=	c #CE765A",
"b=	c #994F3D",
"c=	c #CF7F61",
"d=	c #E59B7A",
"e=	c #E59D7F",
"f=	c #E79F82",
"g=	c #E79D80",
"h=	c #E28E72",
"i=	c #E4896E",
"j=	c #E68C70",
"k=	c #EEA589",
"l=	c #EDAF94",
"m=	c #E7A588",
"n=	c #E0997C",
"o=	c #DE9273",
"p=	c #E39978",
"q=	c #E7A281",
"r=	c #DA9272",
"s=	c #C98061",
"t=	c #CA8060",
"u=	c #DF9B79",
"v=	c #DE9B78",
"w=	c #C68161",
"x=	c #A8634A",
"y=	c #D18C6A",
"z=	c #D08B69",
"A=	c #C17F5E",
"B=	c #975F49",
"C=	c #B96E54",
"D=	c #E4A282",
"E=	c #E6A586",
"F=	c #E9AA8A",
"G=	c #EAAB8B",
"H=	c #ECAD8C",
"I=	c #EAA98A",
"J=	c #E6A280",
"K=	c #ECAB89",
"L=	c #ECAC8A",
"M=	c #E4A180",
"N=	c #D98C69",
"O=	c #D68967",
"P=	c #E19A77",
"Q=	c #E6A481",
"R=	c #DF9C78",
"S=	c #CB8261",
"T=	c #C2785A",
"U=	c #D3926F",
"V=	c #B77357",
"W=	c #A9674E",
"X=	c #B97659",
"Y=	c #9E5F48",
"Z=	c #86503D",
"`=	c #EBB293",
" -	c #F5BB9D",
".-	c #F6BDA1",
"+-	c #F7BEA2",
"@-	c #F5B89A",
"#-	c #E0997D",
"$-	c #E8B093",
"%-	c #F3B596",
"&-	c #E59C7C",
"*-	c #D38062",
"=-	c #B4644D",
"--	c #C47457",
";-	c #DF8F6F",
">-	c #E49A7B",
",-	c #E8A083",
"'-	c #E59B7D",
")-	c #E29274",
"!-	c #DF876A",
"~-	c #E28A6F",
"{-	c #E29477",
"]-	c #EBA98C",
"^-	c #EDAD91",
"/-	c #E5A284",
"(-	c #DF9878",
"_-	c #DB9271",
":-	c #DB9272",
"<-	c #E39F7E",
"[-	c #E09D7B",
"}-	c #CE8767",
"|-	c #C4795A",
"1-	c #DF9E7A",
"2-	c #CD8969",
"3-	c #A7644B",
"4-	c #C37F5F",
"5-	c #CD8A67",
"6-	c #B57154",
"7-	c #925843",
"8-	c #C97C5E",
"9-	c #E5A384",
"0-	c #E8A989",
"a-	c #EBAA8A",
"b-	c #EAAA8A",
"c-	c #EBAB8C",
"d-	c #E19B78",
"e-	c #E59F7C",
"f-	c #EBAB8A",
"g-	c #E09A77",
"h-	c #D98F6C",
"i-	c #D78D6A",
"j-	c #E29E7A",
"k-	c #E49F7B",
"l-	c #DE9A76",
"m-	c #CB8262",
"n-	c #C67F5F",
"o-	c #D89775",
"p-	c #B06D52",
"q-	c #B47256",
"r-	c #BF7D5E",
"s-	c #A9694F",
"t-	c #9C6048",
"u-	c #F3B89C",
"v-	c #F2B69A",
"w-	c #C37C63",
"x-	c #F6BEA0",
"y-	c #F6B899",
"z-	c #E59E7F",
"A-	c #C7785D",
"B-	c #8E4B3C",
"C-	c #BD6F54",
"D-	c #D98767",
"E-	c #DA896B",
"F-	c #DE8F70",
"G-	c #E49E80",
"H-	c #E29678",
"I-	c #E09678",
"J-	c #E29A7C",
"K-	c #EDAE8F",
"L-	c #ECAE90",
"M-	c #E6A484",
"N-	c #E09A7A",
"O-	c #DD9777",
"P-	c #E9A886",
"Q-	c #D89371",
"R-	c #C47A5C",
"S-	c #CE8665",
"T-	c #DE9A78",
"U-	c #D28E6D",
"V-	c #B36E54",
"W-	c #B97658",
"X-	c #CB8766",
"Y-	c #C27F5F",
"Z-	c #A5674E",
"`-	c #E8AC8C",
" ;	c #F7BD9E",
".;	c #FDBF9F",
"+;	c #FEC1A2",
"@;	c #FCC4A5",
"#;	c #FBC4A5",
"$;	c #F4BD9C",
"%;	c #EBB494",
"&;	c #E7A787",
"*;	c #EAAB8A",
"=;	c #E9A989",
"-;	c #EAAC8C",
";;	c #E9A887",
">;	c #E09975",
",;	c #E49D79",
"';	c #EBA987",
");	c #EAA785",
"!;	c #E6A27F",
"~;	c #DE9673",
"{;	c #D58968",
"];	c #D88E6A",
"^;	c #DF9974",
"/;	c #E39F7B",
"(;	c #DA9573",
"_;	c #C67E5D",
":;	c #CF8A67",
"<;	c #D3916F",
"[;	c #B97759",
"};	c #B87659",
"|;	c #B67457",
"1;	c #965B44",
"2;	c #96614B",
"3;	c #E3A589",
"4;	c #F5B799",
"5;	c #F3B497",
"6;	c #F1B79B",
"7;	c #E8A78A",
"8;	c #C67A5F",
"9;	c #CFA186",
"0;	c #F8BB9E",
"a;	c #F9BC9D",
"b;	c #F5B595",
"c;	c #EDA98A",
"d;	c #E29B7B",
"e;	c #BC7056",
"f;	c #B96C52",
"g;	c #D48264",
"h;	c #D6886B",
"i;	c #E29C7E",
"j;	c #E8A486",
"k;	c #E9A78A",
"l;	c #E7A586",
"m;	c #E8A688",
"n;	c #E4A183",
"o;	c #E19D7D",
"p;	c #EDAE8E",
"q;	c #E19C7C",
"r;	c #DB9573",
"s;	c #E39D7A",
"t;	c #E29E7B",
"u;	c #C87E5E",
"v;	c #D89572",
"w;	c #DA9775",
"x;	c #BD785B",
"y;	c #C98766",
"z;	c #C17F61",
"A;	c #B37155",
"B;	c #B17054",
"C;	c #D58E71",
"D;	c #F3A989",
"E;	c #F8B191",
"F;	c #F5AC8C",
"G;	c #F9B493",
"H;	c #FDBFA1",
"I;	c #FABA9B",
"J;	c #EDA789",
"K;	c #CB7E60",
"L;	c #DD9573",
"M;	c #E6A584",
"N;	c #EBAB8B",
"O;	c #E9A987",
"P;	c #E8A785",
"Q;	c #E7A683",
"R;	c #E5A17E",
"S;	c #DF9773",
"T;	c #E19975",
"U;	c #E8A480",
"V;	c #EAA581",
"W;	c #E59E7A",
"X;	c #DA906C",
"Y;	c #D38662",
"Z;	c #D68A66",
"`;	c #DD9672",
" >	c #CF8563",
".>	c #C07757",
"+>	c #CF8B68",
"@>	c #C98665",
"#>	c #B87457",
"$>	c #B57456",
"%>	c #B9795B",
"&>	c #AA6C51",
"*>	c #985F48",
"=>	c #EAB091",
"->	c #D08E73",
";>	c #EAA889",
">>	c #F0B294",
",>	c #F3B69A",
"'>	c #F2B89B",
")>	c #ECAA8E",
"!>	c #D3896D",
"~>	c #A76C57",
"{>	c #F7C1A2",
"]>	c #F9BB9D",
"^>	c #F7B797",
"/>	c #F3B292",
"(>	c #EAA483",
"_>	c #D48668",
":>	c #9D5643",
"<>	c #C77B5F",
"[>	c #DC9273",
"}>	c #E3A283",
"|>	c #E8A98C",
"1>	c #EBAC8D",
"2>	c #EBAD90",
"3>	c #EBAD8F",
"4>	c #EBAC8E",
"5>	c #E7A98A",
"6>	c #E4A385",
"7>	c #E5A282",
"8>	c #E09A78",
"9>	c #DF9674",
"0>	c #E8A481",
"a>	c #E6A37F",
"b>	c #CA8162",
"c>	c #D08967",
"d>	c #DE9D7A",
"e>	c #CF8C6B",
"f>	c #AB684E",
"g>	c #C48162",
"h>	c #C48364",
"i>	c #AE6D52",
"j>	c #B06F53",
"k>	c #925B46",
"l>	c #BD6E55",
"m>	c #D38063",
"n>	c #E19172",
"o>	c #EAA080",
"p>	c #E79776",
"q>	c #F5B090",
"r>	c #F6B192",
"s>	c #F3A889",
"t>	c #FEC0A1",
"u>	c #FFC3A2",
"v>	c #F5BA99",
"w>	c #E6A588",
"x>	c #C17256",
"y>	c #D8906E",
"z>	c #DE9876",
"A>	c #E7A684",
"B>	c #E9A988",
"C>	c #E8A886",
"D>	c #E8A987",
"E>	c #E8A683",
"F>	c #DB926E",
"G>	c #DE9470",
"H>	c #E7A07B",
"I>	c #E9A480",
"J>	c #DD936F",
"K>	c #D28461",
"L>	c #D78C68",
"M>	c #DF9973",
"N>	c #D78F6B",
"O>	c #C27A59",
"P>	c #CB8664",
"Q>	c #BF7A5C",
"R>	c #B87456",
"S>	c #B47356",
"T>	c #B07156",
"U>	c #A4674D",
"V>	c #DDA387",
"W>	c #F1B79A",
"X>	c #F2B699",
"Y>	c #EBAA8C",
"Z>	c #F0B698",
"`>	c #EDB093",
" ,	c #DE9879",
".,	c #B6664F",
"+,	c #DCAD8F",
"@,	c #FABE9F",
"#,	c #EDA684",
"$,	c #E39877",
"%,	c #D28265",
"&,	c #995644",
"*,	c #CE8466",
"=,	c #E19A7A",
"-,	c #E5A687",
";,	c #E8AA8C",
">,	c #EAAC8D",
",,	c #EAAB8D",
"',	c #E9AB8D",
"),	c #E8AA8B",
"!,	c #E7A889",
"~,	c #E7A585",
"{,	c #E5A07F",
"],	c #EBA785",
"^,	c #EFB190",
"/,	c #EDAD8B",
"(,	c #E4A07C",
"_,	c #E29A77",
":,	c #E09672",
"<,	c #E8A582",
"[,	c #E3A07D",
"},	c #CC8362",
"|,	c #C67D5C",
"1,	c #DA9672",
"2,	c #DB9B78",
"3,	c #B57256",
"4,	c #CB8A69",
"5,	c #AD6D51",
"6,	c #985E47",
"7,	c #7C4336",
"8,	c #A95D49",
"9,	c #BD6A53",
"0,	c #C06D54",
"a,	c #CF8064",
"b,	c #D28266",
"c,	c #E49577",
"d,	c #FAB694",
"e,	c #FDBE9D",
"f,	c #FEC4A5",
"g,	c #FEC3A3",
"h,	c #F9C0A0",
"i,	c #B1634A",
"j,	c #C87859",
"k,	c #D28462",
"l,	c #DA9370",
"m,	c #E19C7A",
"n,	c #E5A383",
"o,	c #E7A685",
"p,	c #E7A785",
"q,	c #E6A381",
"r,	c #E4A17D",
"s,	c #E7A37F",
"t,	c #E09B77",
"u,	c #DB926D",
"v,	c #E09670",
"w,	c #E29873",
"x,	c #E49E78",
"y,	c #E59F7A",
"z,	c #DB916D",
"A,	c #D38764",
"B,	c #D88D68",
"C,	c #E19D78",
"D,	c #D58F6C",
"E,	c #C27959",
"F,	c #C27B5B",
"G,	c #C27E5E",
"H,	c #BD795A",
"I,	c #B87759",
"J,	c #AE6F53",
"K,	c #A76B51",
"L,	c #8F5944",
"M,	c #E3A587",
"N,	c #F2B598",
"O,	c #F4B99D",
"P,	c #EDAB8E",
"Q,	c #DD9578",
"R,	c #F5BCA0",
"S,	c #F1B395",
"T,	c #C7795D",
"U,	c #BC876C",
"V,	c #F7BC9B",
"W,	c #EDA786",
"X,	c #DE9272",
"Y,	c #C6765B",
"Z,	c #EDB492",
"`,	c #EEB796",
" '	c #F2C0A0",
".'	c #F0C1A2",
"+'	c #D28869",
"@'	c #E19A79",
"#'	c #E5A685",
"$'	c #E8A98A",
"%'	c #EAAC8E",
"&'	c #EAAD8D",
"*'	c #E8AA8A",
"='	c #E9A98A",
"-'	c #F0B08E",
";'	c #EBA885",
">'	c #DB8F6A",
",'	c #E09671",
"''	c #E8A581",
")'	c #DC9976",
"!'	c #C9805F",
"~'	c #CB825F",
"{'	c #DB9975",
"]'	c #C68364",
"^'	c #B16D51",
"/'	c #C88665",
"('	c #C48363",
"_'	c #AD6E51",
":'	c #A3654B",
"<'	c #723B30",
"['	c #934C3D",
"}'	c #9D5240",
"|'	c #A55845",
"1'	c #BD7057",
"2'	c #CF8266",
"3'	c #D68B6E",
"4'	c #E8A181",
"5'	c #F4AE8D",
"6'	c #FBB998",
"7'	c #FDBD9D",
"8'	c #FEC2A1",
"9'	c #FDC2A2",
"0'	c #FEC5A4",
"a'	c #F9BB9A",
"b'	c #CC8465",
"c'	c #B5674B",
"d'	c #C06E50",
"e'	c #CF8361",
"f'	c #D8906D",
"g'	c #E19D7B",
"h'	c #E29E7C",
"i'	c #E29F7C",
"j'	c #E19D7A",
"k'	c #E29A76",
"l'	c #E39E79",
"m'	c #E5A17D",
"n'	c #E5A27E",
"o'	c #E39D78",
"p'	c #E29A74",
"q'	c #E0956F",
"r'	c #E49C76",
"s'	c #E39C78",
"t'	c #E09974",
"u'	c #DA916C",
"v'	c #DB936F",
"w'	c #DB9670",
"x'	c #CF8865",
"y'	c #C37E5C",
"z'	c #C78362",
"A'	c #C07B5B",
"B'	c #B67355",
"C'	c #B57658",
"D'	c #A86B50",
"E'	c #A3664C",
"F'	c #D59477",
"G'	c #DC9677",
"H'	c #E7AB8D",
"I'	c #F8BFA1",
"J'	c #F7BE9F",
"K'	c #F3B799",
"L'	c #D7886B",
"M'	c #B0735B",
"N'	c #F4BD9E",
"O'	c #F9BD9D",
"P'	c #F9BA9A",
"Q'	c #E99B79",
"R'	c #E29573",
"S'	c #DA8E6F",
"T'	c #B2654E",
"U'	c #E19A7C",
"V'	c #FCB694",
"W'	c #FDB594",
"X'	c #FBB391",
"Y'	c #FCB897",
"Z'	c #FDC0A0",
"`'	c #FDCAAB",
" )	c #F5C3A4",
".)	c #EAB99A",
"+)	c #C98364",
"@)	c #DF9776",
"#)	c #E3A181",
"$)	c #E8A888",
"%)	c #E8A889",
"&)	c #E7A989",
"*)	c #EAA987",
"=)	c #E9A582",
"-)	c #EFAE8C",
";)	c #EFAF8D",
">)	c #EAA784",
",)	c #D88864",
"')	c #E19B76",
"))	c #E7A480",
"!)	c #D6916D",
"~)	c #C27857",
"{)	c #D28C6A",
"])	c #D89673",
"^)	c #BF795B",
"/)	c #C07C5D",
"()	c #B37256",
"_)	c #A7694F",
":)	c #945C47",
"<)	c #562C26",
"[)	c #7B3D32",
"})	c #824135",
"|)	c #A05945",
"1)	c #A55C47",
"2)	c #C97D62",
"3)	c #D88D6D",
"4)	c #F4AC8B",
"5)	c #F9B693",
"6)	c #FCBF9E",
"7)	c #FEC1A1",
"8)	c #FFC7A5",
"9)	c #F3B08D",
"0)	c #CD8264",
"a)	c #BB6A4E",
"b)	c #C77859",
"c)	c #D18563",
"d)	c #D8916E",
"e)	c #DB9470",
"f)	c #DC9572",
"g)	c #DB9471",
"h)	c #DA936F",
"i)	c #DC9470",
"j)	c #DF9874",
"k)	c #E7A37E",
"l)	c #E9A27D",
"m)	c #E8A17D",
"n)	c #E49A75",
"o)	c #E29973",
"p)	c #E29B76",
"q)	c #D78E69",
"r)	c #DD9671",
"s)	c #D8926E",
"t)	c #CC8663",
"u)	c #C47E5C",
"v)	c #C07C5A",
"w)	c #B77556",
"x)	c #B37354",
"y)	c #B07154",
"z)	c #AF7152",
"A)	c #AA6F53",
"B)	c #E9A889",
"C)	c #D48E71",
"D)	c #F5BA9B",
"E)	c #F4B998",
"F)	c #EFB292",
"G)	c #E09979",
"H)	c #DC9B7C",
"I)	c #F6BB99",
"J)	c #FABA99",
"K)	c #F9B796",
"L)	c #F6B392",
"M)	c #EDA283",
"N)	c #E29575",
"O)	c #D48567",
"P)	c #AE654E",
"Q)	c #D28267",
"R)	c #EC9575",
"S)	c #F09A7A",
"T)	c #F3A483",
"U)	c #F7AE8F",
"V)	c #EB9A7B",
"W)	c #F9B99A",
"X)	c #FFC1A2",
"Y)	c #FDC1A1",
"Z)	c #F3B695",
"`)	c #DD9B7D",
" !	c #D48A6B",
".!	c #DB906E",
"+!	c #DF9C7A",
"@!	c #E3A282",
"#!	c #E6A887",
"$!	c #E6A785",
"%!	c #E7A686",
"&!	c #E5A584",
"*!	c #E6A684",
"=!	c #E8A380",
"-!	c #ECAA85",
";!	c #EFAF8C",
">!	c #EDAC8A",
",!	c #DF9672",
"'!	c #DA8D68",
")!	c #E5A27F",
"!!	c #D08966",
"~!	c #C47A59",
"{!	c #DA9773",
"]!	c #CE8A68",
"^!	c #C07C5C",
"/!	c #C58261",
"(!	c #BE7C5D",
"_!	c #B17155",
":!	c #A3684E",
"<!	c #62342B",
"[!	c #68342B",
"}!	c #804135",
"|!	c #8B4839",
"1!	c #AB624C",
"2!	c #C1755B",
"3!	c #CF8062",
"4!	c #E39674",
"5!	c #F7B390",
"6!	c #F8B391",
"7!	c #FBB897",
"8!	c #FEC09D",
"9!	c #FEC09E",
"0!	c #F8B693",
"a!	c #F1AB87",
"b!	c #DE916E",
"c!	c #D08462",
"d!	c #D28764",
"e!	c #D38A67",
"f!	c #D8906C",
"g!	c #D9906B",
"h!	c #DB936E",
"i!	c #DE9872",
"j!	c #E29C77",
"k!	c #E8A17C",
"l!	c #E59D78",
"m!	c #E69F7A",
"n!	c #DE926C",
"o!	c #DE946E",
"p!	c #DE9670",
"q!	c #E19A75",
"r!	c #D58A66",
"s!	c #CE835E",
"t!	c #D38E69",
"u!	c #CE8864",
"v!	c #C4815F",
"w!	c #B17354",
"x!	c #9E664C",
"y!	c #976148",
"z!	c #A46A4E",
"A!	c #A2684D",
"B!	c #BB835F",
"C!	c #CC8C70",
"D!	c #EEAF8E",
"E!	c #E5A180",
"F!	c #F5B999",
"G!	c #F2AD8C",
"H!	c #F3AB89",
"I!	c #F3A885",
"J!	c #F6AE8B",
"K!	c #F6A583",
"L!	c #F2A07E",
"M!	c #F2AB8A",
"N!	c #EEA586",
"O!	c #E09574",
"P!	c #D18468",
"Q!	c #AA634D",
"R!	c #A95B48",
"S!	c #CB755A",
"T!	c #D37D62",
"U!	c #D98668",
"V!	c #E1967A",
"W!	c #E79C7E",
"X!	c #FBB898",
"Y!	c #FBBB9B",
"Z!	c #FCBB9A",
"`!	c #FDBD9C",
" ~	c #FDC2A1",
".~	c #F4B796",
"+~	c #C87D5E",
"@~	c #D98F6D",
"#~	c #D89270",
"$~	c #E09E7D",
"%~	c #E4A382",
"&~	c #E6A482",
"*~	c #E3A27F",
"=~	c #EBA985",
"-~	c #E7A27E",
";~	c #E7A17C",
">~	c #EBA783",
",~	c #EDAC88",
"'~	c #E8A27D",
")~	c #DF9571",
"!~	c #E09772",
"~~	c #E6A27D",
"{~	c #DF9A75",
"]~	c #C97E5B",
"^~	c #D38D6A",
"/~	c #C68262",
"(~	c #C17D5D",
"_~	c #C58363",
":~	c #AE7154",
"<~	c #5F2F28",
"[~	c #783C31",
"}~	c #8F4C3C",
"|~	c #B96A50",
"1~	c #CF8161",
"2~	c #D98B69",
"3~	c #EBA07E",
"4~	c #F0A784",
"5~	c #F4A885",
"6~	c #F5AC89",
"7~	c #F2AB86",
"8~	c #F0A783",
"9~	c #E79E7A",
"0~	c #DE936F",
"a~	c #DC936F",
"b~	c #D88F6B",
"c~	c #D68E6A",
"d~	c #D48B67",
"e~	c #D58B67",
"f~	c #D8906B",
"g~	c #DD9570",
"h~	c #E19B77",
"i~	c #E6A07B",
"j~	c #E6A17C",
"k~	c #E59C77",
"l~	c #E6A07C",
"m~	c #E39B76",
"n~	c #E09873",
"o~	c #DC916C",
"p~	c #E29B74",
"q~	c #BE8160",
"r~	c #90664C",
"s~	c #4F3730",
"t~	c #2F2626",
"u~	c #252022",
"v~	c #2C2728",
"w~	c #2A2526",
"x~	c #272325",
"y~	c #2A2527",
"z~	c #302929",
"A~	c #342D2D",
"B~	c #352C2C",
"C~	c #DB9878",
"D~	c #ECAB8A",
"E~	c #F2B08F",
"F~	c #F6B798",
"G~	c #F6BA9B",
"H~	c #F4B798",
"I~	c #EEA585",
"J~	c #E89575",
"K~	c #E89777",
"L~	c #F4AD8F",
"M~	c #F7AB8B",
"N~	c #F19274",
"O~	c #EA8C6E",
"P~	c #EA9174",
"Q~	c #EA9B7D",
"R~	c #E7997B",
"S~	c #DD8F71",
"T~	c #CC7E63",
"U~	c #A5604B",
"V~	c #93493B",
"W~	c #AB5A47",
"X~	c #B4654D",
"Y~	c #AA5D49",
"Z~	c #CD7D63",
"`~	c #DC9174",
" {	c #E89C7C",
".{	c #EFA788",
"+{	c #F1A989",
"@{	c #F5AE8D",
"#{	c #FBBA99",
"${	c #FCBD9D",
"%{	c #FEC1A0",
"&{	c #FCC19F",
"*{	c #F2B694",
"={	c #C17456",
"-{	c #CD7F5E",
";{	c #D08766",
">{	c #DE9C7A",
",{	c #E1A07E",
"'{	c #E3A17E",
"){	c #DF9D7A",
"!{	c #E19F7C",
"~{	c #E7A581",
"{{	c #E9A683",
"]{	c #E49B76",
"^{	c #E69E79",
"/{	c #EBA884",
"({	c #EBA883",
"_{	c #E09872",
":{	c #E19973",
"<{	c #D48C67",
"[{	c #C47B59",
"}{	c #D6926E",
"|{	c #D69471",
"1{	c #C17D5C",
"2{	c #BD7A5B",
"3{	c #B97859",
"4{	c #B27254",
"5{	c #9F674D",
"6{	c #5C2F27",
"7{	c #753C30",
"8{	c #8C4A3A",
"9{	c #974F3C",
"0{	c #B6694E",
"a{	c #C37456",
"b{	c #D28363",
"c{	c #DA8C6B",
"d{	c #DE8F6E",
"e{	c #E59774",
"f{	c #E79B78",
"g{	c #E79B77",
"h{	c #E69B77",
"i{	c #E19874",
"j{	c #DC9571",
"k{	c #DA916D",
"l{	c #D9916D",
"m{	c #D9916C",
"n{	c #D9926E",
"o{	c #DD9470",
"p{	c #E39E7A",
"q{	c #E8A37F",
"r{	c #EAA681",
"s{	c #E9A682",
"t{	c #E6A17D",
"u{	c #E5A07C",
"v{	c #E29D79",
"w{	c #DE9873",
"x{	c #D49875",
"y{	c #694B3C",
"z{	c #352B2C",
"A{	c #332A2C",
"B{	c #30282A",
"C{	c #2C2628",
"D{	c #2C2729",
"E{	c #2D282A",
"F{	c #2E292B",
"G{	c #312C2D",
"H{	c #322D2E",
"I{	c #322B2D",
"J{	c #2E2629",
"K{	c #E1A88B",
"L{	c #ECB091",
"M{	c #E2A588",
"N{	c #E09E7E",
"O{	c #EEAE8C",
"P{	c #DC9170",
"Q{	c #E9A485",
"R{	c #F2B191",
"S{	c #EDA886",
"T{	c #E99B7C",
"U{	c #E49376",
"V{	c #F6B497",
"W{	c #EF9C7F",
"X{	c #EA8E73",
"Y{	c #E78B71",
"Z{	c #E28D72",
"`{	c #DF8B6F",
" ]	c #DD8C6E",
".]	c #D9896C",
"+]	c #CA7B60",
"@]	c #AD6650",
"#]	c #74392F",
"$]	c #884538",
"%]	c #AD604A",
"&]	c #C87B5F",
"*]	c #CA7B5E",
"=]	c #DE9475",
"-]	c #D88A6B",
";]	c #ECA685",
">]	c #F5AF8D",
",]	c #F7B28F",
"']	c #FDBD9A",
")]	c #FFC3A1",
"!]	c #FDC5A5",
"~]	c #F9C09F",
"{]	c #F8C0A0",
"]]	c #B86A4F",
"^]	c #AC5E46",
"/]	c #C77B5B",
"(]	c #D48E6C",
"_]	c #DC9774",
":]	c #DD9A77",
"<]	c #DE9B77",
"[]	c #DF9B78",
"}]	c #DC9773",
"|]	c #E29D78",
"1]	c #E5A17C",
"2]	c #E49D78",
"3]	c #E5A07A",
"4]	c #EAA580",
"5]	c #EAA782",
"6]	c #ECA985",
"7]	c #E49F7A",
"8]	c #DD936D",
"9]	c #D7916D",
"0]	c #D08763",
"a]	c #D08B67",
"b]	c #C78361",
"c]	c #BC7C5C",
"d]	c #B07356",
"e]	c #68362C",
"f]	c #7D4031",
"g]	c #9E5642",
"h]	c #AE634A",
"i]	c #CB7D5E",
"j]	c #D28464",
"k]	c #D38564",
"l]	c #D38260",
"m]	c #D68764",
"n]	c #DA8C6A",
"o]	c #DB8F6C",
"p]	c #D88D6B",
"q]	c #DB926F",
"r]	c #DC9471",
"s]	c #DE9875",
"t]	c #E29C78",
"u]	c #E4A07B",
"v]	c #E39F7A",
"w]	c #EDAD8A",
"x]	c #EDAD89",
"y]	c #EFAE8A",
"z]	c #EEAE8B",
"A]	c #EAA986",
"B]	c #E4A07A",
"C]	c #E29F7A",
"D]	c #B18364",
"E]	c #3E2F2E",
"F]	c #322B2C",
"G]	c #2D2829",
"H]	c #302A2B",
"I]	c #312B2D",
"J]	c #302C2D",
"K]	c #332E2E",
"L]	c #302B2D",
"M]	c #342F30",
"N]	c #322E2F",
"O]	c #363132",
"P]	c #E2A585",
"Q]	c #EBB091",
"R]	c #D18F71",
"S]	c #EDAE8C",
"T]	c #D88F70",
"U]	c #E8A585",
"V]	c #EBA685",
"W]	c #E4997A",
"X]	c #F0A486",
"Y]	c #E68E73",
"Z]	c #E59076",
"`]	c #E19076",
" ^	c #DC8B71",
".^	c #D8866B",
"+^	c #D58468",
"@^	c #C97B61",
"#^	c #A9634E",
"$^	c #6C3A30",
"%^	c #6B352D",
"&^	c #874437",
"*^	c #A35844",
"=^	c #A95E48",
"-^	c #BC6D53",
";^	c #C17459",
">^	c #DC9070",
",^	c #E59A77",
"'^	c #F0A884",
")^	c #FCB793",
"!^	c #FEBE9C",
"~^	c #FBBF9E",
"{^	c #E69A77",
"]^	c #D18363",
"^^	c #CA805F",
"/^	c #D6906C",
"(^	c #D7926E",
"_^	c #D8936F",
":^	c #DA9470",
"<^	c #D7916E",
"[^	c #DE9771",
"}^	c #E19C77",
"|^	c #E49E79",
"1^	c #E49C77",
"2^	c #E59F79",
"3^	c #E9A580",
"4^	c #E9A681",
"5^	c #DF9772",
"6^	c #DB936D",
"7^	c #DD9772",
"8^	c #D58D68",
"9^	c #D48D67",
"0^	c #D38E68",
"a^	c #D08B66",
"b^	c #C7825F",
"c^	c #C58260",
"d^	c #BE7C5C",
"e^	c #AA7153",
"f^	c #5D342A",
"g^	c #6D392C",
"h^	c #9C5642",
"i^	c #BF7054",
"j^	c #C5775A",
"k^	c #C8795D",
"l^	c #C47254",
"m^	c #C77658",
"n^	c #CA7C5C",
"o^	c #C87A5B",
"p^	c #C77A5B",
"q^	c #C67A5B",
"r^	c #C87C5C",
"s^	c #CC8160",
"t^	c #D48A67",
"u^	c #ECAB87",
"v^	c #ECAC88",
"w^	c #EEAD8A",
"x^	c #EDAA87",
"y^	c #E9A47F",
"z^	c #E6A480",
"A^	c #E2A47D",
"B^	c #926B54",
"C^	c #32292B",
"D^	c #342C2E",
"E^	c #2F292B",
"F^	c #302B2C",
"G^	c #332F30",
"H^	c #363031",
"I^	c #362F30",
"J^	c #363032",
"K^	c #353131",
"L^	c #383334",
"M^	c #373233",
"N^	c #383234",
"O^	c #352F31",
"P^	c #352E30",
"Q^	c #D28F72",
"R^	c #E8A98B",
"S^	c #D39375",
"T^	c #D99878",
"U^	c #E6A685",
"V^	c #DF9B7B",
"W^	c #CE8567",
"X^	c #EFAF8F",
"Y^	c #E7A381",
"Z^	c #E7A080",
"`^	c #E5A081",
" /	c #F3B597",
"./	c #F4B496",
"+/	c #E59477",
"@/	c #E08D73",
"#/	c #E19377",
"$/	c #E19779",
"%/	c #DF9377",
"&/	c #DA8D70",
"*/	c #CB7C5F",
"=/	c #C6785D",
"-/	c #AA644D",
";/	c #613027",
">/	c #7A3C30",
",/	c #894737",
"'/	c #9F5542",
")/	c #AC634B",
"!/	c #C6795C",
"~/	c #E59C79",
"{/	c #F1A782",
"]/	c #F7B18C",
"^/	c #F9B895",
"//	c #F9B795",
"(/	c #F0AB87",
"_/	c #DF9975",
":/	c #D58D6A",
"</	c #D18966",
"[/	c #D18965",
"}/	c #CF8662",
"|/	c #D38C68",
"1/	c #D48D69",
"2/	c #D68E69",
"3/	c #DC9570",
"4/	c #E29B75",
"5/	c #E39D77",
"6/	c #E39C77",
"7/	c #DB9671",
"8/	c #DA946D",
"9/	c #CC916C",
"0/	c #AC7657",
"a/	c #8E664C",
"b/	c #815A46",
"c/	c #7C5442",
"d/	c #77513F",
"e/	c #7A5140",
"f/	c #815943",
"g/	c #8E654C",
"h/	c #674A3D",
"i/	c #7F4334",
"j/	c #A85B45",
"k/	c #B6684E",
"l/	c #B96C51",
"m/	c #C37557",
"n/	c #C37657",
"o/	c #C37458",
"p/	c #BE6F54",
"q/	c #B86B50",
"r/	c #B5684D",
"s/	c #B5694D",
"t/	c #B6694C",
"u/	c #B86B4E",
"v/	c #BC6F51",
"w/	c #C47959",
"x/	c #CC815F",
"y/	c #DC9772",
"z/	c #E09A74",
"A/	c #DE9773",
"B/	c #DD9B74",
"C/	c #725541",
"D/	c #30282B",
"E/	c #332C2D",
"F/	c #2E292A",
"G/	c #2F2A2C",
"H/	c #312C2E",
"I/	c #332E2F",
"J/	c #353031",
"K/	c #383233",
"L/	c #3A3536",
"M/	c #393535",
"N/	c #3D3839",
"O/	c #3C3637",
"P/	c #3B3637",
"Q/	c #373334",
"R/	c #353132",
"S/	c #312D2F",
"T/	c #342D2E",
"U/	c #372F31",
"V/	c #D69577",
"W/	c #E09D7C",
"X/	c #BC785D",
"Y/	c #DE9E7F",
"Z/	c #E4A686",
"`/	c #CF896C",
" (	c #CF896B",
".(	c #E2A182",
"+(	c #ECAE8F",
"@(	c #E39E7E",
"#(	c #E5A283",
"$(	c #ECA888",
"%(	c #E1977B",
"&(	c #E0987C",
"*(	c #E29F82",
"=(	c #E4A286",
"-(	c #E39F82",
";(	c #DF9A7D",
">(	c #DA9376",
",(	c #D58C6E",
"'(	c #CB8064",
")(	c #AE6852",
"!(	c #F0B898",
"~(	c #F2BE9F",
"{(	c #5B2D26",
"](	c #6F352A",
"^(	c #803F33",
"/(	c #934F3D",
"((	c #AA5F48",
"_(	c #BD7055",
":(	c #D08262",
"<(	c #E0926E",
"[(	c #E99D79",
"}(	c #EDA481",
"|(	c #ECA380",
"1(	c #ECA581",
"2(	c #EBA480",
"3(	c #E7A07C",
"4(	c #E3A07C",
"5(	c #DF9B77",
"6(	c #D8926F",
"7(	c #D5906D",
"8(	c #D08865",
"9(	c #CF8663",
"0(	c #D18B67",
"a(	c #D28C68",
"b(	c #D18864",
"c(	c #D68D69",
"d(	c #DF9771",
"e(	c #E5A17B",
"f(	c #DF9872",
"g(	c #DC936D",
"h(	c #DB946F",
"i(	c #DA9873",
"j(	c #A06D52",
"k(	c #543A32",
"l(	c #31282A",
"m(	c #31292C",
"n(	c #2E282A",
"o(	c #2D2628",
"p(	c #2F282A",
"q(	c #2B2527",
"r(	c #30292A",
"s(	c #352E2E",
"t(	c #2E2628",
"u(	c #2D2425",
"v(	c #914E3D",
"w(	c #9D5744",
"x(	c #A75C46",
"y(	c #B2674D",
"z(	c #B66B50",
"A(	c #BA6F53",
"B(	c #B66D50",
"C(	c #B56B50",
"D(	c #B46A4F",
"E(	c #B46B4F",
"F(	c #B2694D",
"G(	c #AE654A",
"H(	c #AA6147",
"I(	c #AA6047",
"J(	c #AA6045",
"K(	c #AF6348",
"L(	c #B66B4E",
"M(	c #BF7254",
"N(	c #CA815F",
"O(	c #D38B68",
"P(	c #D9906C",
"Q(	c #D4926D",
"R(	c #664B3D",
"S(	c #2C2527",
"T(	c #322A2C",
"U(	c #2D2929",
"V(	c #353032",
"W(	c #373133",
"X(	c #383335",
"Y(	c #3A3537",
"Z(	c #2C292A",
"`(	c #232020",
" _	c #292727",
"._	c #3E3A3A",
"+_	c #454140",
"@_	c #484444",
"#_	c #494545",
"$_	c #474243",
"%_	c #524D4E",
"&_	c #AE6E55",
"*_	c #CE8B6C",
"=_	c #D99777",
"-_	c #C38164",
";_	c #C38468",
">_	c #E1A383",
",_	c #DB9B7B",
"'_	c #CB8668",
")_	c #D49273",
"!_	c #E6A585",
"~_	c #E29F7F",
"{_	c #F2B595",
"]_	c #EEAE8D",
"^_	c #E3A183",
"/_	c #E9AB8C",
"(_	c #E7A88A",
"__	c #E6A688",
":_	c #E29E7F",
"<_	c #DC9679",
"[_	c #C37C60",
"}_	c #E8AD91",
"|_	c #F2BA9B",
"1_	c #FCC0A1",
"2_	c #FCB997",
"3_	c #FCBA98",
"4_	c #FDBC9B",
"5_	c #FEC0A2",
"6_	c #F6BFA0",
"7_	c #CD9178",
"8_	c #582C24",
"9_	c #69342A",
"0_	c #7F4032",
"a_	c #95503D",
"b_	c #B76B51",
"c_	c #D68664",
"d_	c #D78966",
"e_	c #D78A67",
"f_	c #D78A68",
"g_	c #DE9672",
"h_	c #E09F7B",
"i_	c #DF9C79",
"j_	c #DB9874",
"k_	c #D8916C",
"l_	c #E6A37E",
"m_	c #EAA984",
"n_	c #EBAA87",
"o_	c #E8A885",
"p_	c #E5A37F",
"q_	c #DD9874",
"r_	c #DC9D77",
"s_	c #AF8364",
"t_	c #574238",
"u_	c #2E2829",
"v_	c #2D292A",
"w_	c #312D2D",
"x_	c #2F2A2B",
"y_	c #2E2A2B",
"z_	c #552D26",
"A_	c #783F33",
"B_	c #743C31",
"C_	c #71392E",
"D_	c #844737",
"E_	c #96533F",
"F_	c #A9644A",
"G_	c #B76F52",
"H_	c #BE7758",
"I_	c #C07859",
"J_	c #C1795A",
"K_	c #BC7555",
"L_	c #B66E51",
"M_	c #AE664A",
"N_	c #AE6549",
"O_	c #A96046",
"P_	c #A35D43",
"Q_	c #9F5941",
"R_	c #A45C42",
"S_	c #AC6245",
"T_	c #B76C4E",
"U_	c #CB8360",
"V_	c #73513D",
"W_	c #292426",
"X_	c #2B2627",
"Y_	c #342E2F",
"Z_	c #342E30",
"`_	c #363133",
" :	c #383436",
".:	c #1B191B",
"+:	c #353233",
"@:	c #4A4648",
"#:	c #545052",
"$:	c #595657",
"%:	c #545152",
"&:	c #524F50",
"*:	c #524E50",
"=:	c #4E4B4D",
"-:	c #494749",
";:	c #434143",
">:	c #454446",
",:	c #3D3B3E",
"':	c #373638",
"):	c #393638",
"!:	c #3A3638",
"~:	c #B37358",
"{:	c #C17D60",
"]:	c #C88567",
"^:	c #AC6C53",
"/:	c #CD8E70",
"(:	c #DEA080",
"_:	c #D08E70",
"::	c #C98668",
"<:	c #DD9B7B",
"[:	c #E5A583",
"}:	c #E2A07F",
"|:	c #DE9978",
"1:	c #E29F7E",
"2:	c #EEB191",
"3:	c #E7A382",
"4:	c #E7A98B",
"5:	c #E9AD8F",
"6:	c #EBAE8F",
"7:	c #EAAD8E",
"8:	c #D48E6F",
"9:	c #F4B897",
"0:	c #FDC2A3",
"a:	c #FCBEA0",
"b:	c #FBB696",
"c:	c #F6A987",
"d:	c #F6AC8B",
"e:	c #EFA07E",
"f:	c #F5A98A",
"g:	c #F0A587",
"h:	c #E3987C",
"i:	c #552C24",
"j:	c #67352A",
"k:	c #AF654E",
"l:	c #C97C5D",
"m:	c #C87A5C",
"n:	c #C57759",
"o:	c #C27356",
"p:	c #BE7053",
"q:	c #C77B5A",
"r:	c #C97D5D",
"s:	c #CC8361",
"t:	c #D28A67",
"u:	c #D48D6A",
"v:	c #D99572",
"w:	c #E2A07D",
"x:	c #E4A582",
"y:	c #E5A684",
"z:	c #E6A783",
"A:	c #ECAE8B",
"B:	c #ECAD8A",
"C:	c #EBAB88",
"D:	c #E8A784",
"E:	c #CD9A76",
"F:	c #715947",
"G:	c #302C2E",
"H:	c #332E30",
"I:	c #2F2B2C",
"J:	c #312D2E",
"K:	c #542D25",
"L:	c #603229",
"M:	c #66342B",
"N:	c #67352B",
"O:	c #743D31",
"P:	c #874A39",
"Q:	c #96543F",
"R:	c #A76249",
"S:	c #B46E51",
"T:	c #BF7859",
"U:	c #C37C5C",
"V:	c #C57E5E",
"W:	c #C27C5C",
"X:	c #BF7858",
"Y:	c #B97253",
"Z:	c #B26A4D",
"`:	c #A96247",
" <	c #A35D44",
".<	c #9F5A41",
"+<	c #9B553E",
"@<	c #A55F44",
"#<	c #7B4C39",
"$<	c #221D1F",
"%<	c #241F21",
"&<	c #262123",
"*<	c #252123",
"=<	c #282325",
"-<	c #393435",
";<	c #2D292B",
"><	c #191719",
",<	c #3A3738",
"'<	c #545051",
")<	c #575456",
"!<	c #514E50",
"~<	c #4B484B",
"{<	c #4C4A4C",
"]<	c #4A4849",
"^<	c #3B393C",
"/<	c #2F2F31",
"(<	c #2A2A2D",
"_<	c #29292C",
":<	c #262629",
"<<	c #232427",
"[<	c #222326",
"}<	c #232326",
"|<	c #262529",
"1<	c #29272A",
"2<	c #2A282B",
"3<	c #A96F58",
"4<	c #BD7C5F",
"5<	c #BD7C60",
"6<	c #B5755B",
"7<	c #CE8D6E",
"8<	c #D89878",
"9<	c #CB8A6B",
"0<	c #D28F70",
"a<	c #DF9D7B",
"b<	c #E4A381",
"c<	c #E09C7A",
"d<	c #E09B78",
"e<	c #E39F7C",
"f<	c #EBAC8B",
"g<	c #EEB08F",
"h<	c #E8A381",
"i<	c #E6A483",
"j<	c #E6A686",
"k<	c #EBAD8C",
"l<	c #EBAD8E",
"m<	c #E19E7E",
"n<	c #D79172",
"o<	c #FBC0A0",
"p<	c #FABA9A",
"q<	c #F6B292",
"r<	c #E89C7B",
"s<	c #DB896B",
"t<	c #D17F64",
"u<	c #C2715B",
"v<	c #844838",
"w<	c #B76C50",
"x<	c #B86D52",
"y<	c #BB7255",
"z<	c #BA7054",
"A<	c #B56A4E",
"B<	c #B3694E",
"C<	c #B36A4F",
"D<	c #B86F52",
"E<	c #BB7254",
"F<	c #C37B5B",
"G<	c #CB8564",
"H<	c #D28D6A",
"I<	c #E09E7A",
"J<	c #E6A581",
"K<	c #E4A27F",
"L<	c #E2A07C",
"M<	c #DE9A75",
"N<	c #9D755D",
"O<	c #302829",
"P<	c #322D2F",
"Q<	c #342F31",
"R<	c #353133",
"S<	c #343031",
"T<	c #312E2E",
"U<	c #482821",
"V<	c #5B2F26",
"W<	c #66342A",
"X<	c #69372C",
"Y<	c #713C2F",
"Z<	c #774032",
"`<	c #824837",
" [	c #985741",
".[	c #AA674B",
"+[	c #B77153",
"@[	c #BF7959",
"#[	c #C27C5B",
"$[	c #C47E5D",
"%[	c #B97354",
"&[	c #AF694D",
"*[	c #A86347",
"=[	c #9B5942",
"-[	c #94563F",
";[	c #1E181A",
">[	c #211C1E",
",[	c #1E1A1C",
"'[	c #211D1F",
")[	c #242022",
"![	c #282425",
"~[	c #2C282A",
"{[	c #373234",
"][	c #211F20",
"^[	c #2A2829",
"/[	c #4E4A4C",
"([	c #565354",
"_[	c #575455",
":[	c #4F4C4E",
"<[	c #4F4C4D",
"[[	c #474547",
"}[	c #49484A",
"|[	c #3C3B3D",
"1[	c #28292C",
"2[	c #212325",
"3[	c #202124",
"4[	c #202224",
"5[	c #212225",
"6[	c #1A1B1F",
"7[	c #16181B",
"8[	c #15161A",
"9[	c #141719",
"0[	c #191A1E",
"a[	c #201F22",
"b[	c #272528",
"c[	c #B2765C",
"d[	c #B97A5E",
"e[	c #C18164",
"f[	c #B5765C",
"g[	c #C78567",
"h[	c #D08E6E",
"i[	c #CF8E6E",
"j[	c #C78365",
"k[	c #DB9978",
"l[	c #E2A17E",
"m[	c #DC9674",
"n[	c #DE9975",
"o[	c #E6A582",
"p[	c #ECAD8B",
"q[	c #E6A17E",
"r[	c #E8A988",
"s[	c #E9AB8B",
"t[	c #E09D7D",
"u[	c #FDC8A9",
"v[	c #F9BD9F",
"w[	c #F5B292",
"x[	c #EDA889",
"y[	c #DF9474",
"z[	c #DD9374",
"A[	c #BF7259",
"B[	c #C4755C",
"C[	c #B66650",
"D[	c #AB5C4B",
"E[	c #89453A",
"F[	c #834435",
"G[	c #934F3C",
"H[	c #904E3C",
"I[	c #A66048",
"J[	c #B36C52",
"K[	c #B87155",
"L[	c #B76F53",
"M[	c #B46C51",
"N[	c #B16B4F",
"O[	c #B0694E",
"P[	c #B26B4F",
"Q[	c #AE684D",
"R[	c #AE664B",
"S[	c #AE644A",
"T[	c #AB6349",
"U[	c #AA6248",
"V[	c #B06549",
"W[	c #BF7456",
"X[	c #CC8360",
"Y[	c #D58D69",
"Z[	c #DC9771",
"`[	c #966A52",
" }	c #2F2727",
".}	c #2B2628",
"+}	c #3A3435",
"@}	c #363233",
"#}	c #343132",
"$}	c #322F30",
"%}	c #2E292C",
"&}	c #522B23",
"*}	c #623429",
"=}	c #66362B",
"-}	c #68382D",
";}	c #6E3C2F",
">}	c #794132",
",}	c #864A38",
"'}	c #985841",
")}	c #A66348",
"!}	c #AD694C",
"~}	c #B57052",
"{}	c #BC7756",
"]}	c #BF7857",
"^}	c #C07A59",
"/}	c #BF7958",
"(}	c #B87354",
"_}	c #B67051",
":}	c #482B23",
"<}	c #1A1517",
"[}	c #1B1719",
"}}	c #1F1C1D",
"|}	c #231E20",
"1}	c #262224",
"2}	c #262323",
"3}	c #292526",
"4}	c #302A2C",
"5}	c #2E2B2C",
"6}	c #131214",
"7}	c #524F51",
"8}	c #535052",
"9}	c #484648",
"0}	c #444245",
"a}	c #3B3A3D",
"b}	c #1E2023",
"c}	c #1B1C1F",
"d}	c #181A1D",
"e}	c #17181C",
"f}	c #1D1E21",
"g}	c #18191D",
"h}	c #17181B",
"i}	c #121418",
"j}	c #111216",
"k}	c #141519",
"l}	c #1A191D",
"m}	c #B07358",
"n}	c #B87B5F",
"o}	c #BB7D61",
"p}	c #B5765B",
"q}	c #C48264",
"r}	c #D49372",
"s}	c #DE9976",
"t}	c #EBAD8A",
"u}	c #E4A27E",
"v}	c #EAAC8B",
"w}	c #E9AB89",
"x}	c #E8A887",
"y}	c #E3A281",
"z}	c #DB9777",
"A}	c #D88E6F",
"B}	c #F5BD9D",
"C}	c #FEC6A7",
"D}	c #FDC4A5",
"E}	c #EAA585",
"F}	c #DA9173",
"G}	c #D2876A",
"H}	c #C3775E",
"I}	c #AB614B",
"J}	c #A25A47",
"K}	c #904C3E",
"L}	c #834338",
"M}	c #64372F",
"N}	c #5F3228",
"O}	c #703B2E",
"P}	c #7A4133",
"Q}	c #824636",
"R}	c #93533F",
"S}	c #A9654B",
"T}	c #B77154",
"U}	c #BB7658",
"V}	c #BE795B",
"W}	c #BC7759",
"X}	c #B87355",
"Y}	c #B36D50",
"Z}	c #AD674C",
"`}	c #A76248",
" |	c #A05A43",
".|	c #9D5841",
"+|	c #A15B43",
"@|	c #B0674A",
"#|	c #BA7252",
"$|	c #CA815E",
"%|	c #875943",
"&|	c #282224",
"*|	c #272224",
"=|	c #3C3738",
"-|	c #383435",
";|	c #2F2B2D",
">|	c #252324",
",|	c #2B282A",
"'|	c #3C393B",
")|	c #454244",
"!|	c #423F41",
"~|	c #3F3E3F",
"{|	c #3D3B3D",
"]|	c #464243",
"^|	c #512C23",
"/|	c #5D3127",
"(|	c #60332A",
"_|	c #63362B",
":|	c #69392C",
"<|	c #6F3D30",
"[|	c #774132",
"}|	c #814836",
"||	c #8A4E3A",
"1|	c #965740",
"2|	c #A26045",
"3|	c #AC674A",
"4|	c #B46F50",
"5|	c #BF7A59",
"6|	c #C47F5E",
"7|	c #AD7152",
"8|	c #161213",
"9|	c #1C1719",
"0|	c #1C1819",
"a|	c #1F1B1C",
"b|	c #1D191B",
"c|	c #201C1E",
"d|	c #231F21",
"e|	c #282526",
"f|	c #302C2C",
"g|	c #2A2628",
"h|	c #201D1F",
"i|	c #0F0E10",
"j|	c #373436",
"k|	c #484546",
"l|	c #494748",
"m|	c #434243",
"n|	c #3E3D3F",
"o|	c #39373A",
"p|	c #373639",
"q|	c #39383B",
"r|	c #454345",
"s|	c #323235",
"t|	c #1B1D20",
"u|	c #17191D",
"v|	c #16171B",
"w|	c #15171A",
"x|	c #121317",
"y|	c #111317",
"z|	c #141619",
"A|	c #1B1C1E",
"B|	c #A76E55",
"C|	c #AE7257",
"D|	c #BF8164",
"E|	c #BB7B5E",
"F|	c #C88566",
"G|	c #CC8B6B",
"H|	c #CA8665",
"I|	c #DB9A78",
"J|	c #DA9571",
"K|	c #D7906D",
"L|	c #DA926F",
"M|	c #E9A784",
"N|	c #E7A783",
"O|	c #E8AA88",
"P|	c #E8AB8A",
"Q|	c #E7AA89",
"R|	c #E5A482",
"S|	c #D68F6F",
"T|	c #CD8162",
"U|	c #B77055",
"V|	c #EBB08E",
"W|	c #F5BE9F",
"X|	c #FCC7A7",
"Y|	c #FEC9AA",
"Z|	c #FEC6A8",
"`|	c #FBC1A2",
" 1	c #E5A182",
".1	c #D98F70",
"+1	c #C87C61",
"@1	c #BA6E56",
"#1	c #A45A48",
"$1	c #914D3D",
"%1	c #7E4035",
"&1	c #6B362E",
"*1	c #5F342E",
"=1	c #64342A",
"-1	c #6F3A2F",
";1	c #713C30",
">1	c #814637",
",1	c #975641",
"'1	c #B47154",
")1	c #BE7A5B",
"!1	c #C17E5E",
"~1	c #BF7B5C",
"{1	c #B26D51",
"]1	c #A56148",
"^1	c #9D5942",
"/1	c #A66046",
"(1	c #AC664A",
"_1	c #935B43",
":1	c #251F20",
"<1	c #241F22",
"[1	c #292425",
"}1	c #282527",
"|1	c #343131",
"11	c #4E4949",
"21	c #595656",
"31	c #5C595A",
"41	c #555355",
"51	c #504F51",
"61	c #464547",
"71	c #3A393C",
"81	c #363639",
"91	c #363437",
"01	c #3B3A3C",
"a1	c #373538",
"b1	c #2D2B2E",
"c1	c #562E25",
"d1	c #5C3229",
"e1	c #613429",
"f1	c #64362B",
"g1	c #6D3B2E",
"h1	c #733E30",
"i1	c #7D4533",
"j1	c #884B37",
"k1	c #8E513B",
"l1	c #9B5A42",
"m1	c #B36E50",
"n1	c #5A372A",
"o1	c #191415",
"p1	c #141012",
"q1	c #191517",
"r1	c #1E1A1B",
"s1	c #1D1A1B",
"t1	c #211E1F",
"u1	c #242021",
"v1	c #292527",
"w1	c #1F1D1D",
"x1	c #332F32",
"y1	c #3B393B",
"z1	c #383638",
"A1	c #2C2B2E",
"B1	c #2E2D30",
"C1	c #2D2D30",
"D1	c #2C2B2F",
"E1	c #2C2C2F",
"F1	c #2E2D31",
"G1	c #343437",
"H1	c #434245",
"I1	c #454346",
"J1	c #2F2F32",
"K1	c #252529",
"L1	c #212326",
"M1	c #202125",
"N1	c #1F2023",
"O1	c #1F1F23",
"P1	c #242528",
"Q1	c #252528",
"R1	c #242428",
"S1	c #1D1D21",
"T1	c #B0755A",
"U1	c #B1755A",
"V1	c #C08264",
"W1	c #C38163",
"X1	c #CF8D6C",
"Y1	c #CC8968",
"Z1	c #D99775",
"`1	c #DD9B78",
" 2	c #DA9471",
".2	c #E7A27D",
"+2	c #D48A69",
"@2	c #BC6B4D",
"#2	c #D89574",
"$2	c #FCC4A2",
"%2	c #FEC9A8",
"&2	c #FEC8A8",
"*2	c #FDC5A6",
"=2	c #FCC3A4",
"-2	c #F1B191",
";2	c #D1876A",
">2	c #C3795D",
",2	c #B56B53",
"'2	c #A05946",
")2	c #8D493B",
"!2	c #7D4136",
"~2	c #61322D",
"{2	c #69392E",
"]2	c #6D3B2F",
"^2	c #834937",
"/2	c #955842",
"(2	c #A4644A",
"_2	c #AE6C4F",
":2	c #B77455",
"<2	c #BE7B5B",
"[2	c #C48262",
"}2	c #C17F5F",
"|2	c #BC7758",
"12	c #B06B4F",
"22	c #A76449",
"32	c #9C5D44",
"42	c #251D1D",
"52	c #1F1B1D",
"62	c #221E21",
"72	c #252122",
"82	c #272425",
"92	c #2B2728",
"02	c #343032",
"a2	c #322F2F",
"b2	c #504D4E",
"c2	c #5B5759",
"d2	c #585556",
"e2	c #4D4B4D",
"f2	c #434345",
"g2	c #353538",
"h2	c #2E2E31",
"i2	c #2B2C30",
"j2	c #303034",
"k2	c #37373A",
"l2	c #3D3C3F",
"m2	c #403F41",
"n2	c #3F3D40",
"o2	c #3F3E40",
"p2	c #353537",
"q2	c #512B23",
"r2	c #5A3127",
"s2	c #5D3328",
"t2	c #5F3428",
"u2	c #613529",
"v2	c #623529",
"w2	c #633529",
"x2	c #67362A",
"y2	c #6E3B2D",
"z2	c #794332",
"A2	c #8C513B",
"B2	c #110D0E",
"C2	c #110E0F",
"D2	c #130F11",
"E2	c #171415",
"F2	c #181415",
"G2	c #1B1819",
"H2	c #191617",
"I2	c #221E1F",
"J2	c #211D1E",
"K2	c #282426",
"L2	c #272426",
"M2	c #181618",
"N2	c #4C4849",
"O2	c #3E3B3D",
"P2	c #302F31",
"Q2	c #242427",
"R2	c #27282B",
"S2	c #2A2A2E",
"T2	c #2F2F33",
"U2	c #49474A",
"V2	c #434144",
"W2	c #29292D",
"X2	c #212226",
"Y2	c #222426",
"Z2	c #313234",
"`2	c #3C3B3E",
" 3	c #434244",
".3	c #4A484A",
"+3	c #464647",
"@3	c #414042",
"#3	c #373739",
"$3	c #2B2C2F",
"%3	c #252629",
"&3	c #1E2024",
"*3	c #191A1D",
"=3	c #212123",
"-3	c #A26B54",
";3	c #B4775B",
">3	c #B97B5E",
",3	c #C38466",
"'3	c #C78768",
")3	c #C38162",
"!3	c #CB8866",
"~3	c #CF8C6A",
"{3	c #D6926F",
"]3	c #DA9671",
"^3	c #E19F7B",
"/3	c #E3A17D",
"(3	c #E5A380",
"_3	c #E5A37E",
":3	c #E5A27D",
"<3	c #E29F7B",
"[3	c #E09976",
"}3	c #E8A17F",
"|3	c #FABB97",
"13	c #FDC3A1",
"23	c #FDC3A3",
"33	c #F8BD9E",
"43	c #F2B495",
"53	c #DC9676",
"63	c #CC8366",
"73	c #B97057",
"83	c #A45E49",
"93	c #955141",
"03	c #854538",
"a3	c #753A30",
"b3	c #5A3029",
"c3	c #542D26",
"d3	c #65362C",
"e3	c #6B392D",
"f3	c #6E3B2E",
"g3	c #764234",
"h3	c #834B39",
"i3	c #884D3B",
"j3	c #945640",
"k3	c #A36248",
"l3	c #B16E52",
"m3	c #BA795B",
"n3	c #C07E60",
"o3	c #BB7758",
"p3	c #BC7757",
"q3	c #663E30",
"r3	c #1C191B",
"s3	c #1F1C1E",
"t3	c #222021",
"u3	c #2A2728",
"v3	c #1D1B1C",
"w3	c #484446",
"x3	c #514D4F",
"y3	c #4F4B4E",
"z3	c #3A3A3C",
"A3	c #333336",
"B3	c #303134",
"C3	c #323236",
"D3	c #4A484B",
"E3	c #464447",
"F3	c #444346",
"G3	c #424142",
"H3	c #2F2E32",
"I3	c #242224",
"J3	c #462720",
"K3	c #512C24",
"L3	c #572F25",
"M3	c #593026",
"N3	c #582F25",
"O3	c #592E24",
"P3	c #5A2E24",
"Q3	c #582E24",
"R3	c #5B3025",
"S3	c #542F24",
"T3	c #0F0B0D",
"U3	c #0D0A0B",
"V3	c #100D0E",
"W3	c #141112",
"X3	c #181416",
"Y3	c #1A1719",
"Z3	c #221F21",
"`3	c #100F11",
" 4	c #484445",
".4	c #393739",
"+4	c #2A292C",
"@4	c #242327",
"#4	c #26262A",
"$4	c #2C2C30",
"%4	c #2C2D31",
"&4	c #4B494B",
"*4	c #4E4C4E",
"=4	c #3F3E41",
"-4	c #313135",
";4	c #222327",
">4	c #202225",
",4	c #1D1E22",
"'4	c #1C1E21",
")4	c #191B1F",
"!4	c #16181C",
"~4	c #15171B",
"{4	c #1A1A1D",
"]4	c #AE755A",
"^4	c #B5785B",
"/4	c #C78666",
"(4	c #CD8C6A",
"_4	c #CD8D6C",
":4	c #BF8262",
"<4	c #C88B6A",
"[4	c #C78B6B",
"}4	c #CB8D6A",
"|4	c #D19370",
"14	c #D79875",
"24	c #E3A17A",
"34	c #E6A67E",
"44	c #E4A27D",
"54	c #E19B75",
"64	c #E19C76",
"74	c #E19D79",
"84	c #DF9C77",
"94	c #DF9B76",
"04	c #DE9973",
"a4	c #E09A75",
"b4	c #EAA884",
"c4	c #F3B38F",
"d4	c #F8B995",
"e4	c #FABB9A",
"f4	c #F7B998",
"g4	c #F2B493",
"h4	c #EDAD8C",
"i4	c #D89272",
"j4	c #C88162",
"k4	c #BA7358",
"l4	c #A35F4A",
"m4	c #8A4C3C",
"n4	c #753E34",
"o4	c #6E3930",
"p4	c #592F29",
"q4	c #4D2B23",
"r4	c #69382D",
"s4	c #67382D",
"t4	c #6B3A2E",
"u4	c #764132",
"v4	c #7A4434",
"w4	c #7C4534",
"x4	c #844A38",
"y4	c #8B513C",
"z4	c #A4664B",
"A4	c #AE6D50",
"B4	c #B37153",
"C4	c #A96B4F",
"D4	c #1A1416",
"E4	c #171516",
"F4	c #1B181A",
"G4	c #242122",
"H4	c #2B2729",
"I4	c #2F2C2D",
"J4	c #2D2A2B",
"K4	c #211F21",
"L4	c #464445",
"M4	c #464446",
"N4	c #413F41",
"O4	c #39383A",
"P4	c #3A383B",
"Q4	c #38373A",
"R4	c #403E41",
"S4	c #4F4D4E",
"T4	c #3C3C3E",
"U4	c #202025",
"V4	c #27282C",
"W4	c #46251D",
"X4	c #4D2920",
"Y4	c #532D24",
"Z4	c #552D24",
"`4	c #562D23",
" 5	c #542B22",
".5	c #522B21",
"+5	c #512A20",
"@5	c #341B16",
"#5	c #0B080A",
"$5	c #0C090A",
"%5	c #0F0D0E",
"&5	c #151213",
"*5	c #161414",
"=5	c #1C181A",
"-5	c #221F20",
";5	c #1F1B1E",
">5	c #121113",
",5	c #1D1B1E",
"'5	c #322F31",
")5	c #3A3739",
"!5	c #28272A",
"~5	c #313033",
"{5	c #474548",
"]5	c #4D4C4D",
"^5	c #444345",
"/5	c #414043",
"(5	c #353638",
"_5	c #333436",
":5	c #38393B",
"<5	c #484748",
"[5	c #4B494A",
"}5	c #464546",
"|5	c #484647",
"15	c #AA745D",
"25	c #BD8062",
"35	c #A97157",
"45	c #8F644E",
"55	c #583E35",
"65	c #312626",
"75	c #272123",
"85	c #2A2324",
"95	c #2E2729",
"05	c #2E2526",
"a5	c #40312D",
"b5	c #6C4D3F",
"c5	c #A07458",
"d5	c #CE916D",
"e5	c #E09D77",
"f5	c #D58F6B",
"g5	c #DB9570",
"h5	c #DC9874",
"i5	c #DC9873",
"j5	c #DD9873",
"k5	c #E09C77",
"l5	c #F0B08C",
"m5	c #F2B18E",
"n5	c #F1AF8C",
"o5	c #EFAD8B",
"p5	c #E8A786",
"q5	c #DF9C7C",
"r5	c #D89373",
"s5	c #D08A6B",
"t5	c #C47C60",
"u5	c #B26B52",
"v5	c #9D5B47",
"w5	c #81473A",
"x5	c #66352D",
"y5	c #542C26",
"z5	c #592F27",
"A5	c #5E342A",
"B5	c #60342A",
"C5	c #67382C",
"D5	c #6B3B2E",
"E5	c #6B3A2D",
"F5	c #6C3A2D",
"G5	c #62352A",
"H5	c #66372C",
"I5	c #814A38",
"J5	c #A16047",
"K5	c #5B372B",
"L5	c #131013",
"M5	c #141113",
"N5	c #151214",
"O5	c #1C181B",
"P5	c #1B191A",
"Q5	c #201D1E",
"R5	c #262325",
"S5	c #2C2829",
"T5	c #2B2829",
"U5	c #171618",
"V5	c #262527",
"W5	c #3E3C3E",
"X5	c #3A393D",
"Y5	c #504E50",
"Z5	c #514F50",
"`5	c #555254",
" 6	c #525051",
".6	c #3C3A3D",
"+6	c #242529",
"@6	c #131519",
"#6	c #101317",
"$6	c #0E1014",
"%6	c #0D1013",
"&6	c #0D0F13",
"*6	c #0D1015",
"=6	c #1C1D21",
"-6	c #1D1D20",
";6	c #41261F",
">6	c #452620",
",6	c #49261E",
"'6	c #4B261E",
")6	c #45251C",
"!6	c #4B271E",
"~6	c #160C0C",
"{6	c #0C0809",
"]6	c #0F0C0D",
"^6	c #121011",
"/6	c #1C1919",
"(6	c #1E1B1C",
"_6	c #161516",
":6	c #121012",
"<6	c #1D1C1F",
"[6	c #222124",
"}6	c #2E2C2F",
"|6	c #28282B",
"16	c #4B484A",
"26	c #484749",
"36	c #424144",
"46	c #3E3E41",
"56	c #4E4D4E",
"66	c #494849",
"76	c #474648",
"86	c #464648",
"96	c #4D4B4C",
"06	c #545254",
"a6	c #585456",
"b6	c #565355",
"c6	c #414143",
"d6	c #38383B",
"e6	c #3D3D3F",
"f6	c #403F42",
"g6	c #363539",
"h6	c #8E6651",
"i6	c #543E36",
"j6	c #2F2728",
"k6	c #90684D",
"l6	c #D08F6B",
"m6	c #DA9572",
"n6	c #DB9571",
"o6	c #D9936F",
"p6	c #DD9975",
"q6	c #DD9A76",
"r6	c #E09C78",
"s6	c #E4A37F",
"t6	c #E3A17F",
"u6	c #E49F7D",
"v6	c #D58D6E",
"w6	c #CB8163",
"x6	c #C98163",
"y6	c #C47C5F",
"z6	c #B77056",
"A6	c #9A5845",
"B6	c #7E4338",
"C6	c #60332D",
"D6	c #522D27",
"E6	c #502C24",
"F6	c #5C3128",
"G6	c #5F3429",
"H6	c #603429",
"I6	c #61352A",
"J6	c #5C3329",
"K6	c #5E3429",
"L6	c #6B3C2E",
"M6	c #171213",
"N6	c #131012",
"O6	c #131112",
"P6	c #161415",
"Q6	c #1D1A1C",
"R6	c #151416",
"S6	c #222022",
"T6	c #3C3A3C",
"U6	c #4C4B4D",
"V6	c #2A2C2F",
"W6	c #28292D",
"X6	c #14171B",
"Y6	c #0D1014",
"Z6	c #0C0E12",
"`6	c #0A0D10",
" 7	c #0B0E12",
".7	c #0B0D11",
"+7	c #0C0F13",
"@7	c #0F1116",
"#7	c #191B1E",
"$7	c #3E241F",
"%7	c #0E0A0B",
"&7	c #090809",
"*7	c #0A0808",
"=7	c #0B0809",
"-7	c #0F0C0E",
";7	c #151314",
">7	c #171517",
",7	c #0D0C0E",
"'7	c #201E21",
")7	c #151417",
"!7	c #151518",
"~7	c #1F1E21",
"{7	c #323133",
"]7	c #2F2E31",
"^7	c #333235",
"/7	c #38383A",
"(7	c #454447",
"_7	c #595757",
":7	c #525052",
"<7	c #4D4C4E",
"[7	c #3D3C3E",
"}7	c #27272B",
"|7	c #242629",
"17	c #1F2125",
"27	c #1D1F23",
"37	c #1C1E22",
"47	c #1D1F22",
"57	c #1C1F22",
"67	c #1F2024",
"77	c #1C1F23",
"87	c #2A2529",
"97	c #2F2A2D",
"07	c #2B2528",
"a7	c #302524",
"b7	c #A6795E",
"c7	c #DB9973",
"d7	c #DE9E7A",
"e7	c #E1A07D",
"f7	c #E09F7D",
"g7	c #DD9B77",
"h7	c #D79472",
"i7	c #D08B6A",
"j7	c #CA8261",
"k7	c #C87F5F",
"l7	c #C97F60",
"m7	c #C17759",
"n7	c #BD7156",
"o7	c #BF755A",
"p7	c #C0795E",
"q7	c #BF795E",
"r7	c #B26D55",
"s7	c #80463A",
"t7	c #572F29",
"u7	c #4C2A22",
"v7	c #522C24",
"w7	c #542D24",
"x7	c #572E25",
"y7	c #542E25",
"z7	c #542E26",
"A7	c #552F26",
"B7	c #492721",
"C7	c #131011",
"D7	c #141214",
"E7	c #161416",
"F7	c #1C1A1C",
"G7	c #1E1C1F",
"H7	c #232122",
"I7	c #221F22",
"J7	c #161517",
"K7	c #272527",
"L7	c #343234",
"M7	c #403E40",
"N7	c #494648",
"O7	c #4A4749",
"P7	c #232529",
"Q7	c #1A1C20",
"R7	c #181A1E",
"S7	c #14161A",
"T7	c #101216",
"U7	c #101215",
"V7	c #0E1015",
"W7	c #1C1B1E",
"X7	c #171010",
"Y7	c #080506",
"Z7	c #090708",
"`7	c #0E0B0C",
" 8	c #0F0D0D",
".8	c #100D0F",
"+8	c #141213",
"@8	c #0F0E0F",
"#8	c #1D1B1D",
"$8	c #151517",
"%8	c #101013",
"&8	c #1E1E21",
"*8	c #2D2C2F",
"=8	c #363537",
"-8	c #363538",
";8	c #363438",
">8	c #504E4F",
",8	c #5D5A5B",
"'8	c #555354",
")8	c #484649",
"!8	c #404042",
"~8	c #2E2E32",
"{8	c #2E2F32",
"]8	c #39393C",
"^8	c #424244",
"/8	c #343337",
"(8	c #232327",
"_8	c #1B1D21",
":8	c #1F2124",
"<8	c #222427",
"[8	c #26272A",
"}8	c #292A2C",
"|8	c #232428",
"18	c #262528",
"28	c #2F292A",
"38	c #2E2B2D",
"48	c #332F31",
"58	c #322E30",
"68	c #2E2A2C",
"78	c #855F49",
"88	c #D4936F",
"98	c #DC9975",
"08	c #DD9C79",
"a8	c #DF9F7D",
"b8	c #DC9B78",
"c8	c #D3906D",
"d8	c #CA8565",
"e8	c #C17A5C",
"f8	c #B87256",
"g8	c #B46D52",
"h8	c #BA7156",
"i8	c #BE775A",
"j8	c #BD755A",
"k8	c #BB765A",
"l8	c #B87258",
"m8	c #A6624C",
"n8	c #A15D48",
"o8	c #6F3E34",
"p8	c #47271E",
"q8	c #4C2921",
"r8	c #4A2821",
"s8	c #4B2821",
"t8	c #512D23",
"u8	c #3F211B",
"v8	c #120F11",
"w8	c #110F10",
"x8	c #161315",
"y8	c #191718",
"z8	c #171619",
"A8	c #3E3C3D",
"B8	c #454143",
"C8	c #302F32",
"D8	c #323234",
"E8	c #343538",
"F8	c #2F3033",
"G8	c #2C2D30",
"H8	c #2A2B2E",
"I8	c #2B2B2E",
"J8	c #343436",
"K8	c #18191C",
"L8	c #140D0E",
"M8	c #0A0809",
"N8	c #0A0708",
"O8	c #0A0A0C",
"P8	c #262326",
"Q8	c #1F1E20",
"R8	c #19191C",
"S8	c #141518",
"T8	c #28282C",
"U8	c #424143",
"V8	c #575556",
"W8	c #545253",
"X8	c #464346",
"Y8	c #2C2D2F",
"Z8	c #232328",
"`8	c #1D1E23",
" 9	c #25262A",
".9	c #27292C",
"+9	c #2C2E31",
"@9	c #292A2D",
"#9	c #2D292C",
"$9	c #363235",
"%9	c #3C3739",
"&9	c #3D393A",
"*9	c #3B3638",
"=9	c #3C3839",
"-9	c #2C292B",
";9	c #282627",
">9	c #272326",
",9	c #262225",
"'9	c #282427",
")9	c #2A2325",
"!9	c #5F4437",
"~9	c #D0906B",
"{9	c #D69370",
"]9	c #D18F6D",
"^9	c #C58061",
"/9	c #BC7558",
"(9	c #B2694E",
"_9	c #AB644B",
":9	c #A76049",
"<9	c #A66249",
"[9	c #AA654C",
"}9	c #AF684E",
"|9	c #B46E52",
"19	c #B97459",
"29	c #AE6B52",
"39	c #9E5D48",
"49	c #915240",
"59	c #794135",
"69	c #764036",
"79	c #39211C",
"89	c #3C221C",
"99	c #281514",
"09	c #0E0B0D",
"a9	c #100E0F",
"b9	c #110E10",
"c9	c #1B1A1D",
"d9	c #1E1D1F",
"e9	c #111113",
"f9	c #323031",
"g9	c #312F31",
"h9	c #1E1F22",
"i9	c #363638",
"j9	c #39393B",
"k9	c #070508",
"l9	c #080607",
"m9	c #0C0A0B",
"n9	c #0E0C0D",
"o9	c #110F11",
"p9	c #0D0C0F",
"q9	c #212021",
"r9	c #252427",
"s9	c #242226",
"t9	c #212124",
"u9	c #232225",
"v9	c #222226",
"w9	c #514E51",
"x9	c #17191C",
"y9	c #25272A",
"z9	c #4E4B4E",
"A9	c #444244",
"B9	c #313134",
"C9	c #25272B",
"D9	c #222428",
"E9	c #212327",
"F9	c #535152",
"G9	c #625F5F",
"H9	c #6B6767",
"I9	c #6F6968",
"J9	c #6A6564",
"K9	c #635F5E",
"L9	c #5B5756",
"M9	c #555151",
"N9	c #484545",
"O9	c #292627",
"P9	c #242123",
"Q9	c #232022",
"R9	c #221E20",
"S9	c #241E21",
"T9	c #5E3E32",
"U9	c #B57054",
"V9	c #AA664C",
"W9	c #A15F47",
"X9	c #A6624A",
"Y9	c #A8654B",
"Z9	c #AE6B50",
"`9	c #B26F53",
" 0	c #B77256",
".0	c #B36F53",
"+0	c #AC694F",
"@0	c #9C5C45",
"#0	c #854A3A",
"$0	c #784235",
"%0	c #703D32",
"&0	c #562E28",
"*0	c #1B1212",
"=0	c #0D0A0C",
"-0	c #1C1A1D",
";0	c #111011",
">0	c #252426",
",0	c #1B1B1E",
"'0	c #1B1B1F",
")0	c #1B1C20",
"!0	c #3B3B3E",
"~0	c #585557",
"{0	c #535153",
"]0	c #4F4C4F",
"^0	c #4F4D4F",
"/0	c #38373B",
"(0	c #0B0708",
"_0	c #090607",
":0	c #070405",
"<0	c #0B090A",
"[0	c #100E10",
"}0	c #171719",
"|0	c #201F21",
"10	c #29282B",
"20	c #29292B",
"30	c #272629",
"40	c #262628",
"50	c #202123",
"60	c #1E1F23",
"70	c #424042",
"80	c #111316",
"90	c #0D0F12",
"00	c #0C0F11",
"a0	c #15181B",
"b0	c #1F2224",
"c0	c #232528",
"d0	c #424043",
"e0	c #514F51",
"f0	c #4B4A4B",
"g0	c #424243",
"h0	c #303033",
"i0	c #181A1F",
"j0	c #4A4A4D",
"k0	c #515053",
"l0	c #535254",
"m0	c #5C5B5C",
"n0	c #605E5F",
"o0	c #686465",
"p0	c #6C6767",
"q0	c #6F6969",
"r0	c #6A6666",
"s0	c #666161",
"t0	c #676262",
"u0	c #656161",
"v0	c #625D5C",
"w0	c #54504F",
"x0	c #373434",
"y0	c #292628",
"z0	c #232023",
"A0	c #252224",
"B0	c #211E20",
"C0	c #1F1D1E",
"D0	c #211C1D",
"E0	c #62392C",
"F0	c #9D5C45",
"G0	c #A16149",
"H0	c #A9674D",
"I0	c #B27054",
"J0	c #B47255",
"K0	c #B57257",
"L0	c #B17055",
"M0	c #A8664D",
"N0	c #965742",
"O0	c #8C503E",
"P0	c #7F4738",
"Q0	c #6F3D32",
"R0	c #67382E",
"S0	c #170F10",
"T0	c #0F0D0F",
"U0	c #141416",
"V0	c #292729",
"W0	c #212022",
"X0	c #191A1C",
"Y0	c #1A1B1E",
"Z0	c #1C1D20",
"`0	c #202024",
" a	c #3F3F41",
".a	c #3D3D40",
"+a	c #4D4B4E",
"@a	c #575356",
"#a	c #545153",
"$a	c #4C4B4C",
"%a	c #3E3D40",
"&a	c #3A3B3D",
"*a	c #3A3A3D",
"=a	c #333335",
"-a	c #130D0D",
";a	c #070506",
">a	c #080608",
",a	c #0B090B",
"'a	c #0E0C0E",
")a	c #161417",
"!a	c #121214",
"~a	c #17171A",
"{a	c #282729",
"]a	c #242426",
"^a	c #212125",
"/a	c #3A393B",
"(a	c #090C0E",
"_a	c #070A0C",
":a	c #0B0D10",
"<a	c #0E1013",
"[a	c #181B1E",
"}a	c #4F4F50",
"|a	c #504F50",
"1a	c #414041",
"2a	c #3E3E40",
"3a	c #3B3B3D",
"4a	c #16191C",
"5a	c #36373A",
"6a	c #3F3F42",
"7a	c #4F4E4F",
"8a	c #595859",
"9a	c #575657",
"0a	c #474647",
"aa	c #4B4949",
"ba	c #504D4D",
"ca	c #302D2F",
"da	c #2F2C2E",
"ea	c #262426",
"fa	c #232123",
"ga	c #1E1B1E",
"ha	c #1C1B1C",
"ia	c #1B181B",
"ja	c #171416",
"ka	c #8D5540",
"la	c #AE6D51",
"ma	c #B16E51",
"na	c #B47254",
"oa	c #A8694E",
"pa	c #945943",
"qa	c #834A39",
"ra	c #794334",
"sa	c #723F32",
"ta	c #62352B",
"ua	c #4F2C25",
"va	c #150D0E",
"wa	c #232224",
"xa	c #2B292B",
"ya	c #2A292B",
"za	c #222224",
"Aa	c #1E1E22",
"Ba	c #27272A",
"Ca	c #313235",
"Da	c #2F2F34",
"Ea	c #2F3034",
"Fa	c #2A2B2F",
"Ga	c #100B0B",
"Ha	c #0B080B",
"Ia	c #0C0B0D",
"Ja	c #0D0E10",
"Ka	c #212023",
"La	c #202023",
"Ma	c #07090C",
"Na	c #2D2E31",
"Oa	c #4E4C4F",
"Pa	c #2D2D31",
"Qa	c #1A1D20",
"Ra	c #1B1E21",
"Sa	c #323336",
"Ta	c #343537",
"Ua	c #545354",
"Va	c #515051",
"Wa	c #4A494B",
"Xa	c #3E3D3E",
"Ya	c #424041",
"Za	c #4D4A4B",
"`a	c #3B383A",
" b	c #2A2729",
".b	c #2D2A2C",
"+b	c #272526",
"@b	c #1E1C1E",
"#b	c #503026",
"$b	c #B27052",
"%b	c #AC6B4F",
"&b	c #AC6B50",
"*b	c #A1634A",
"=b	c #8C513E",
"-b	c #7A4535",
";b	c #713E32",
">b	c #5E3329",
",b	c #4A2822",
"'b	c #0D0B0D",
")b	c #131315",
"!b	c #1E1E20",
"~b	c #323032",
"{b	c #2D2C2D",
"]b	c #353437",
"^b	c #444344",
"/b	c #454445",
"(b	c #26272B",
"_b	c #202226",
":b	c #101316",
"<b	c #0E1115",
"[b	c #1C1E23",
"}b	c #0E0809",
"|b	c #0E0D0E",
"1b	c #090A0D",
"2b	c #343336",
"3b	c #2B2A2D",
"4b	c #0D0E12",
"5b	c #07090D",
"6b	c #06080B",
"7b	c #0B0E11",
"8b	c #131518",
"9b	c #464548",
"0b	c #504D4F",
"ab	c #535051",
"bb	c #323436",
"cb	c #4C4A4B",
"db	c #333437",
"eb	c #3C3C3F",
"fb	c #2E2F31",
"gb	c #2D2E30",
"hb	c #313133",
"ib	c #413F40",
"jb	c #201E20",
"kb	c #1A191B",
"lb	c #181718",
"mb	c #151315",
"nb	c #110E11",
"ob	c #90563F",
"pb	c #905641",
"qb	c #7E4937",
"rb	c #6F3E31",
"sb	c #6B3B2F",
"tb	c #683A2D",
"ub	c #66382D",
"vb	c #5B3027",
"wb	c #09080A",
"xb	c #0B0A0C",
"yb	c #070709",
"zb	c #272729",
"Ab	c #323134",
"Bb	c #17181D",
"Cb	c #1F2025",
"Db	c #16181D",
"Eb	c #13161A",
"Fb	c #111418",
"Gb	c #0B090C",
"Hb	c #0C0B0E",
"Ib	c #08090B",
"Jb	c #0C0D0F",
"Kb	c #1E1D20",
"Lb	c #1F1F22",
"Mb	c #090A0E",
"Nb	c #07080C",
"Ob	c #090B0E",
"Pb	c #4F4E50",
"Qb	c #545353",
"Rb	c #535253",
"Sb	c #4E4C4D",
"Tb	c #363739",
"Ub	c #555253",
"Vb	c #303133",
"Wb	c #2B2C2E",
"Xb	c #222528",
"Yb	c #1F2225",
"Zb	c #2D2E32",
"`b	c #37383A",
" c	c #2F3032",
".c	c #2B2B2D",
"+c	c #333234",
"@c	c #454344",
"#c	c #0F0F11",
"$c	c #1B191C",
"%c	c #181719",
"&c	c #1A181A",
"*c	c #151316",
"=c	c #0F0D10",
"-c	c #5B3427",
";c	c #6E3E30",
">c	c #67392D",
",c	c #64372C",
"'c	c #5D3229",
")c	c #582F26",
"!c	c #4F2A23",
"~c	c #462721",
"{c	c #120D0E",
"]c	c #0A080A",
"^c	c #0C0A0C",
"/c	c #0E0D0F",
"(c	c #16181A",
"_c	c #1C1D1F",
":c	c #16171C",
"<c	c #191A1F",
"[c	c #2B2D30",
"}c	c #16191D",
"|c	c #171A1E",
"1c	c #15181C",
"2c	c #0F0E11",
"3c	c #141316",
"4c	c #0F0F12",
"5c	c #07080B",
"6c	c #353336",
"7c	c #0F1114",
"8c	c #090C0F",
"9c	c #26282A",
"0c	c #4B4A4C",
"ac	c #4A494A",
"bc	c #535151",
"cc	c #4C494C",
"dc	c #524F52",
"ec	c #202326",
"fc	c #2F3133",
"gc	c #444446",
"hc	c #515052",
"ic	c #5B595A",
"jc	c #5A5859",
"kc	c #5B5959",
"lc	c #5A5959",
"mc	c #5E5C5C",
"nc	c #5F5C5D",
"oc	c #615E5F",
"pc	c #615F5F",
"qc	c #625F60",
"rc	c #5F5D5D",
"sc	c #28292B",
"tc	c #353335",
"uc	c #343335",
"vc	c #29282A",
"wc	c #111112",
"xc	c #1F1D1F",
"yc	c #19181B",
"zc	c #18171A",
"Ac	c #131215",
"Bc	c #131113",
"Cc	c #231513",
"Dc	c #693C2F",
"Ec	c #5F352A",
"Fc	c #5D3329",
"Gc	c #5B3228",
"Hc	c #573026",
"Ic	c #532C25",
"Jc	c #4A2721",
"Kc	c #0D090A",
"Lc	c #0B0B0C",
"Mc	c #282628",
"Nc	c #1C1C1F",
"Oc	c #303032",
"Pc	c #292A2E",
"Qc	c #191C20",
"Rc	c #191B20",
"Sc	c #1B1E22",
"Tc	c #1E2025",
"Uc	c #24272A",
"Vc	c #292B2E",
"Wc	c #292A2F",
"Xc	c #26282B",
"Yc	c #24262A",
"Zc	c #0E0D10",
"`c	c #060609",
" d	c #1A1A1C",
".d	c #151519",
"+d	c #06070B",
"@d	c #050709",
"#d	c #0A0C0F",
"$d	c #504E4E",
"%d	c #302F33",
"&d	c #454547",
"*d	c #212427",
"=d	c #343438",
"-d	c #555456",
";d	c #5C5A5B",
">d	c #5D5B5C",
",d	c #595758",
"'d	c #5D5B5B",
")d	c #5E5C5D",
"!d	c #626061",
"~d	c #636161",
"{d	c #646162",
"]d	c #656263",
"^d	c #646263",
"/d	c #636162",
"(d	c #636061",
"_d	c #676363",
":d	c #656162",
"<d	c #5E5B5C",
"[d	c #585658",
"}d	c #0A0B0D",
"|d	c #1C1B1D",
"1d	c #141215",
"2d	c #131213",
"3d	c #0A090B",
"4d	c #532F26",
"5d	c #502B23",
"6d	c #482620",
"7d	c #3E231D",
"8d	c #0D0B0C",
"9d	c #0C090B",
"0d	c #0F0C0F",
"ad	c #09080B",
"bd	c #19171A",
"cd	c #2A282A",
"dd	c #19191D",
"ed	c #13151A",
"fd	c #1A1D21",
"gd	c #48474A",
"hd	c #49484B",
"id	c #353639",
"jd	c #121013",
"kd	c #06070A",
"ld	c #08090C",
"md	c #151418",
"nd	c #16161A",
"od	c #101115",
"pd	c #040509",
"qd	c #05070A",
"rd	c #242628",
"sd	c #4A4A4B",
"td	c #525152",
"ud	c #121518",
"vd	c #121519",
"wd	c #2C2E32",
"xd	c #323335",
"yd	c #434346",
"zd	c #4B4B4D",
"Ad	c #4B4B4C",
"Bd	c #525153",
"Cd	c #4F4F4F",
"Dd	c #4D4D4E",
"Ed	c #4E4D4F",
"Fd	c #555455",
"Gd	c #605D5E",
"Hd	c #575555",
"Id	c #575656",
"Jd	c #19181A",
"Kd	c #181619",
"Ld	c #0A080B",
"Md	c #08070A",
"Nd	c #40251E",
"Od	c #42231D",
"Pd	c #391F1A",
"Qd	c #100B0C",
"Rd	c #08080A",
"Sd	c #121215",
"Td	c #1C1C1E",
"Ud	c #252527",
"Vd	c #343235",
"Wd	c #2B2A2C",
"Xd	c #16171A",
"Yd	c #0E0F13",
"Zd	c #4C4C4D",
"`d	c #4C4A4D",
" e	c #4A494C",
".e	c #454648",
"+e	c #404143",
"@e	c #474649",
"#e	c #414142",
"$e	c #0E0E11",
"%e	c #090A0C",
"&e	c #09090D",
"*e	c #222125",
"=e	c #232426",
"-e	c #131517",
";e	c #0C0D11",
">e	c #040508",
",e	c #2B2A2E",
"'e	c #4E4D4D",
")e	c #121417",
"!e	c #080A0D",
"~e	c #0E1113",
"{e	c #111417",
"]e	c #14171A",
"^e	c #2E3033",
"/e	c #464649",
"(e	c #48484A",
"_e	c #49494A",
":e	c #434344",
"<e	c #585757",
"[e	c #17191B",
"}e	c #100F12",
"|e	c #171518",
"1e	c #0B0A0B",
"2e	c #080709",
"3e	c #070608",
"4e	c #070708",
"5e	c #2F1B18",
"6e	c #341E19",
"7e	c #0B0A0D",
"8e	c #0F1013",
"9e	c #101113",
"0e	c #2E2D2F",
"ae	c #28282A",
"be	c #17171B",
"ce	c #0A0B0F",
"de	c #0A0C10",
"ee	c #333337",
"fe	c #514F52",
"ge	c #393A3D",
"he	c #333438",
"ie	c #26292C",
"je	c #27282D",
"ke	c #282A2E",
"le	c #292B2F",
"me	c #2E2F33",
"ne	c #0F0F13",
"oe	c #0B0C0E",
"pe	c #1E1F21",
"qe	c #1C1C20",
"re	c #262729",
"se	c #0B0C10",
"te	c #2C2E30",
"ue	c #4D4D4F",
"ve	c #414144",
"we	c #39393D",
"xe	c #3D3D41",
"ye	c #3D3E41",
"ze	c #333537",
"Ae	c #313335",
"Be	c #36383A",
"Ce	c #3F4042",
"De	c #555454",
"Ee	c #3E3E3F",
"Fe	c #232325",
"Ge	c #08080B",
"He	c #0D0E11",
"Ie	c #07080A",
"Je	c #111114",
"Ke	c #151619",
"Le	c #0B0C0F",
"Me	c #343539",
"Ne	c #23262A",
"Oe	c #212227",
"Pe	c #1E2125",
"Qe	c #0E0E10",
"Re	c #0A0A0D",
"Se	c #09090C",
"Te	c #121316",
"Ue	c #07090B",
"Ve	c #0F1215",
"We	c #040608",
"Xe	c #030406",
"Ye	c #0C0E11",
"Ze	c #191C1F",
"`e	c #3D3E40",
" f	c #303235",
".f	c #38393D",
"+f	c #3A3B3E",
"@f	c #232628",
"#f	c #37393B",
"$f	c #3C3D3F",
"%f	c #060708",
"&f	c #0C0C0E",
"*f	c #060507",
"=f	c #110D0F",
"-f	c #0D0D10",
";f	c #161618",
">f	c #1A1C1F",
",f	c #131418",
"'f	c #424345",
")f	c #38393C",
"!f	c #2F3135",
"~f	c #2B2D31",
"{f	c #282B2E",
"]f	c #25282B",
"^f	c #24262B",
"/f	c #212428",
"(f	c #121315",
"_f	c #0A0B0E",
":f	c #161518",
"<f	c #1F1E22",
"[f	c #1F2022",
"}f	c #18181C",
"|f	c #080A0C",
"1f	c #1E2022",
"2f	c #0F1216",
"3f	c #454546",
"4f	c #37373B",
"5f	c #2F3134",
"6f	c #3B3C3E",
"7f	c #27292D",
"8f	c #282A2D",
"9f	c #2D2F31",
"0f	c #474748",
"af	c #222225",
"bf	c #18191B",
"cf	c #17181A",
"df	c #1D1D1F",
"ef	c #0F1012",
"ff	c #0E0F10",
"gf	c #050506",
"hf	c #060607",
"if	c #0A070A",
"jf	c #120C0D",
"kf	c #0C0C0F",
"lf	c #141417",
"mf	c #161719",
"nf	c #131416",
"of	c #3E3E42",
"pf	c #3F4043",
"qf	c #35363A",
"rf	c #333338",
"sf	c #323337",
"tf	c #36383B",
"uf	c #0E0E12",
"vf	c #121114",
"wf	c #1F1F21",
"xf	c #1C1E20",
"yf	c #06080C",
"zf	c #040507",
"Af	c #121517",
"Bf	c #353539",
"Cf	c #121619",
"Df	c #0E1114",
"Ef	c #0F1115",
"Ff	c #101417",
"Gf	c #101416",
"Hf	c #131619",
"If	c #26282C",
"Jf	c #4A4A4C",
"Kf	c #212224",
"Lf	c #18181B",
"Mf	c #050609",
"Nf	c #101012",
"Of	c #161619",
"Pf	c #49494B",
"Qf	c #1A191C",
"Rf	c #222123",
"Sf	c #1A1B1D",
"Tf	c #1A1C1E",
"Uf	c #27292B",
"Vf	c #040609",
"Wf	c #090B0F",
"Xf	c #232629",
"Yf	c #2D2F32",
"Zf	c #181B1F",
"`f	c #5A585A",
" g	c #5B5A5B",
".g	c #5B5A5A",
"+g	c #5C5A5C",
"@g	c #5F5D5E",
"#g	c #5F5E5E",
"$g	c #626060",
"%g	c #565455",
"&g	c #202022",
"*g	c #0A0C0E",
"=g	c #0B0B0D",
"-g	c #0B0609",
";g	c #0E0F12",
">g	c #06080A",
",g	c #111215",
"'g	c #424245",
")g	c #191B1D",
"!g	c #0F1014",
"~g	c #414244",
"{g	c #1A1E21",
"]g	c #1B1D22",
"^g	c #404043",
"/g	c #48484B",
"(g	c #4F4E51",
"_g	c #535255",
":g	c #565556",
"<g	c #585758",
"[g	c #5D5B5D",
"}g	c #5D5A5C",
"|g	c #474749",
"1g	c #1B1D1F",
"2g	c #181A1C",
"3g	c #0B0E10",
"4g	c #07070A",
"5g	c #050507",
"6g	c #070607",
"7g	c #0B0B0F",
"8g	c #0C0D10",
"9g	c #393A3E",
"0g	c #3B3A3E",
"ag	c #1A171A",
"bg	c #07080D",
"cg	c #18181D",
"dg	c #08090D",
"eg	c #2E3032",
"fg	c #323437",
"gg	c #3B3C3F",
"hg	c #444447",
"ig	c #36373B",
"jg	c #202227",
"kg	c #313236",
"lg	c #0D1012",
"mg	c #575557",
"ng	c #5B5859",
"og	c #585657",
"pg	c #131317",
"qg	c #141517",
"rg	c #0C0E10",
"sg	c #09090B",
"tg	c #110C0E",
"ug	c #1F1D20",
"vg	c #1D1F21",
"wg	c #2A2B2D",
"xg	c #413F42",
"yg	c #303135",
"zg	c #2D3033",
"Ag	c #2D2F33",
"Bg	c #222529",
"Cg	c #04070A",
"Dg	c #2B2B2F",
"Eg	c #080B0E",
"Fg	c #0E0F14",
"Gg	c #3F3F40",
"Hg	c #2A2C30",
"Ig	c #37393C",
"Jg	c #2E3133",
"Kg	c #2E3034",
"Lg	c #212328",
"Mg	c #1D2024",
"Ng	c #1D2023",
"Og	c #595759",
"Pg	c #505051",
"Qg	c #131417",
"Rg	c #101014",
"Sg	c #0B0B0E",
"Tg	c #141315",
"Ug	c #37383C",
"Vg	c #4F4D50",
"Wg	c #3C3C40",
"Xg	c #36363A",
"Yg	c #0C0F12",
"Zg	c #343639",
"`g	c #202327",
" h	c #1F2123",
".h	c #0D0F11",
"+h	c #0A090C",
"@h	c #424145",
"#h	c #47474A",
"$h	c #424246",
"%h	c #252628",
"&h	c #0A0D0F",
"*h	c #3C3D40",
"=h	c #464749",
"-h	c #414145",
";h	c #3E3F42",
">h	c #3B3B3F",
",h	c #16191E",
"'h	c #353739",
")h	c #525253",
"!h	c #101114",
"~h	c #111115",
"{h	c #131316",
"]h	c #101217",
"^h	c #37383B",
"/h	c #3A3B3F",
"(h	c #05060A",
"_h	c #171A1D",
":h	c #515152",
"<h	c #484849",
"[h	c #434446",
"}h	c #454548",
"|h	c #414245",
"1h	c #1E2124",
"2h	c #202325",
"3h	c #4C4B4E",
"4h	c #4B4A4D",
"5h	c #3D3C40",
"6h	c #101214",
"7h	c #49494C",
"8h	c #2B2C31",
"9h	c #404044",
"0h	c #25272C",
"ah	c #403F43",
"bh	c #504E51",
"ch	c #0F1113",
"dh	c #2A2B30",
"eh	c #27292E",
"fh	c #121217",
"gh	c #242527",
"hh	c #2C2D32",
"ih	c #1F2226",
"jh	c #24272B",
"kh	c #0B0D0F",
"lh	c #393A3C",
"mh	c #454448",
"nh	c #27282A",
"oh	c #292C2F",
"ph	c #222429",
"qh	c #26292D",
"rh	c #080A0E",
"sh	c #383A3D",
"th	c #38383C",
"uh	c #05070B",
"vh	c #06090C",
"wh	c #272A2D",
"xh	c #14151A",
"yh	c #080B0F",
"zh	c #313336",
"Ah	c #3A3A3E",
"Bh	c #05080A",
"Ch	c #212528",
"Dh	c #35373A",
"Eh	c #333538",
"Fh	c #212426",
"Gh	c #1A1A1E",
"Hh	c #25282C",
"Ih	c #2B2E31",
"Jh	c #343638",
"Kh	c #1D2022",
"Lh	c #272A2C",
"Mh	c #151719",
"Nh	c #06090D",
"Oh	c #1E2123",
"Ph	c #393B3D",
"Qh	c #353438",
"Rh	c #2B2D2F",
"Sh	c #2A2C2E",
"Th	c #282A2C",
"Uh	c #06080D",
"Vh	c #303234",
"Wh	c #303236",
"Xh	c #3E3F41",
"Yh	c #383A3C",
"Zh	c #1C1F21",
"`h	c #111012",
" i	c #070A0E",
".i	c #34363A",
"+i	c #323438",
"@i	c #06090B",
"#i	c #131618",
"$i	c #13171A",
"%i	c #2B2E30",
"&i	c #2A2D30",
"*i	c #292B2D",
"=i	c #121318",
"-i	c #070A0D",
";i	c #141618",
">i	c #090B0D",
",i	c #333236",
"'i	c #252729",
")i	c #18181A",
"!i	c #2C2F31",
"~i	c #292C2E",
"{i	c #222527",
"]i	c #25282A",
"^i	c #222328",
"/i	c #2C2D2E",
"(i	c #232527",
"_i	c #2C2E2F",
":i	c #1A1D1F",
"<i	c #191C1E",
"[i	c #2D2D2F",
"}i	c #1E1E1F",
"|i	c #222325",
"1i	c #171B1E",
"2i	c #262829",
"3i	c #2B2C2D",
"4i	c #2A2C2D",
"5i	c #1F2223",
"6i	c #0B0F11",
"7i	c #202223",
"8i	c #171A1C",
"9i	c #16191A",
"0i	c #161A1C",
"ai	c #16191B",
"bi	c #181B1D",
"ci	c #1B1E20",
"di	c #1B1C1D",
"ei	c #1B1D1E",
"fi	c #1C1E1F",
"gi	c #1A1C1D",
"hi	c #151819",
"ii	c #131617",
"ji	c #101315",
"ki	c #151618",
"li	c #0E1012",
"mi	c #15181A",
"ni	c #17191A",
"oi	c #181A1B",
"pi	c #161718",
"qi	c #151718",
"ri	c #141718",
"si	c #111416",
"ti	c #101314",
"ui	c #0F1214",
"vi	c #141617",
"wi	c #131516",
"xi	c #121516",
"yi	c #121415",
"zi	c #111415",
"Ai	c #111315",
"Bi	c #0D1113",
"Ci	c #121416",
"Di	c #0A0D11",
"Ei	c #0E1112",
"Fi	c #111414",
"Gi	c #111314",
"Hi	c #0F1213",
"Ii	c #1D1E20",
"Ji	c #0B0C11",
"Ki	c #0D1011",
"Li	c #111313",
"Mi	c #101213",
"Ni	c #0E1011",
"Oi	c #111214",
"Pi	c #1C1C1D",
"Qi	c #141516",
"Ri	c #0F1315",
"Si	c #19191B",
"Ti	c #0C0F10",
"Ui	c #0F1011",
"Vi	c #0F1112",
"Wi	c #1B1A1B",
"Xi	c #18191A",
"Yi	c #111213",
"Zi	c #151617",
"`i	c #141515",
" j	c #131415",
".j	c #121314",
"+j	c #EDBFA2",
"@j	c #EEC2A7",
"#j	c #EEC1A4",
"$j	c #F0C1A5",
"%j	c #EBBEA1",
"&j	c #E7B292",
"*j	c #F1BB99",
"=j	c #FBC3A3",
"-j	c #FABC9C",
";j	c #FABD9E",
">j	c #FBBC9E",
",j	c #FBBB9A",
"'j	c #FABE9E",
")j	c #F7BE9E",
"!j	c #EEB697",
"~j	c #EABB9C",
"{j	c #F1BD9D",
"]j	c #EDB897",
"^j	c #D08467",
"/j	c #EDA180",
"(j	c #F1A887",
"_j	c #EB9E7E",
":j	c #F0A788",
"<j	c #F0AC8F",
"[j	c #F2B091",
"}j	c #F7B597",
"|j	c #F0A687",
"1j	c #EEA686",
"2j	c #EDA284",
"3j	c #EDA080",
"4j	c #D49174",
"5j	c #EFAE8B",
"6j	c #F4B999",
"7j	c #F5BA9A",
"8j	c #F4B596",
"9j	c #DC987A",
"0j	c #AF634E",
"aj	c #C67256",
"bj	c #CF7A5D",
"cj	c #CC755A",
"dj	c #D48266",
"ej	c #DF9678",
"fj	c #E6A083",
"gj	c #E99F81",
"hj	c #E79D7F",
"ij	c #ECA485",
"jj	c #ECA181",
"kj	c #E89878",
"lj	c #E38D6E",
"mj	c #E29171",
"nj	c #E49372",
"oj	c #EFAC8B",
"pj	c #F1AF8E",
"qj	c #EBA788",
"rj	c #EAB598",
"sj	c #F0BEA0",
"tj	c #EFB596",
"uj	c #E9AF91",
"vj	c #EAB596",
"wj	c #864436",
"xj	c #A25341",
"yj	c #A15643",
"zj	c #A55A45",
"Aj	c #C07156",
"Bj	c #CB7D62",
"Cj	c #D28163",
"Dj	c #E79F80",
"Ej	c #F2B090",
"Fj	c #F4B192",
"Gj	c #F3B091",
"Hj	c #F3B090",
"Ij	c #B5624A",
"Jj	c #EBA380",
"Kj	c #F2B18F",
"Lj	c #F3B495",
"Mj	c #DD9A7D",
"Nj	c #F3C3A5",
"Oj	c #EDB294",
"Pj	c #EBAF90",
"Qj	c #EAAE8F",
"Rj	c #F1BB9B",
"Sj	c #FBC1A1",
"Tj	c #FBBEA0",
"Uj	c #FAB99A",
"Vj	c #F6B190",
"Wj	c #F3B08F",
"Xj	c #F5AF8B",
"Yj	c #5E2F28",
"Zj	c #783C30",
"`j	c #7E3F33",
" k	c #98503F",
".k	c #A25744",
"+k	c #BA6B52",
"@k	c #E19879",
"#k	c #EFAA8B",
"$k	c #F5B596",
"%k	c #F5B696",
"&k	c #F0AD8B",
"*k	c #A86B52",
"=k	c #CE795B",
"-k	c #EAA381",
";k	c #F6B897",
">k	c #FAC0A2",
",k	c #EEAF91",
"'k	c #F2B695",
")k	c #F7B695",
"!k	c #FCC0A0",
"~k	c #FCBFA1",
"{k	c #FDC6A9",
"]k	c #FCC7A9",
"^k	c #F9C5A8",
"/k	c #E1A587",
"(k	c #F2BB9C",
"_k	c #FBC8AA",
":k	c #FBC7A9",
"<k	c #FAC4A5",
"[k	c #E7B395",
"}k	c #D3856A",
"|k	c #DDA488",
"1k	c #F9C0A1",
"2k	c #FBBB9C",
"3k	c #F5AF8F",
"4k	c #F0A785",
"5k	c #EB9F7E",
"6k	c #E29374",
"7k	c #DD8B6E",
"8k	c #DD8A6B",
"9k	c #DB8B6C",
"0k	c #CC7B5E",
"ak	c #522B24",
"bk	c #5F3129",
"ck	c #6B362C",
"dk	c #965240",
"ek	c #CF8165",
"fk	c #E8A180",
"gk	c #F0AD8D",
"hk	c #F7B696",
"ik	c #F9BB9C",
"jk	c #EDB08E",
"kk	c #A05B47",
"lk	c #D07B5D",
"mk	c #EDA885",
"nk	c #F6BB9D",
"ok	c #D28C6E",
"pk	c #F0AF8D",
"qk	c #F6BA98",
"rk	c #F0B290",
"sk	c #DA9A7A",
"tk	c #E5AD8F",
"uk	c #FAB999",
"vk	c #F8B090",
"wk	c #F8B190",
"xk	c #FEC2A3",
"yk	c #FDC2A4",
"zk	c #FBC6A7",
"Ak	c #E5A98B",
"Bk	c #FAC1A4",
"Ck	c #F9C0A3",
"Dk	c #F8C2A3",
"Ek	c #E3A689",
"Fk	c #F0B596",
"Gk	c #F2B294",
"Hk	c #EEAB8D",
"Ik	c #CD7C61",
"Jk	c #FCC2A2",
"Kk	c #FBBC9C",
"Lk	c #F1AA8A",
"Mk	c #E59A79",
"Nk	c #DC8E6F",
"Ok	c #C7755C",
"Pk	c #B4634D",
"Qk	c #B8634D",
"Rk	c #A35240",
"Sk	c #A15340",
"Tk	c #763D32",
"Uk	c #BB6B52",
"Vk	c #DB8C6C",
"Wk	c #E89F7D",
"Xk	c #F8B898",
"Yk	c #F8B797",
"Zk	c #E0A988",
"`k	c #9D5845",
" l	c #D47F5E",
".l	c #EDA582",
"+l	c #F6B593",
"@l	c #F9BB9B",
"#l	c #F6B99B",
"$l	c #E39F7F",
"%l	c #CB8365",
"&l	c #EFA986",
"*l	c #EEAB88",
"=l	c #D6906F",
"-l	c #DB9275",
";l	c #F3A887",
">l	c #E79575",
",l	c #E69577",
"'l	c #EA9D7E",
")l	c #EEA485",
"!l	c #EEA889",
"~l	c #F4B293",
"{l	c #FCBD9F",
"]l	c #FBC5A6",
"^l	c #DB9E81",
"/l	c #D1886B",
"(l	c #EBA584",
"_l	c #F3B494",
":l	c #FAC2A3",
"<l	c #EDB192",
"[l	c #E29F81",
"}l	c #F3B896",
"|l	c #F5BC9A",
"1l	c #DA9F81",
"2l	c #EDAF90",
"3l	c #F3B595",
"4l	c #ECA988",
"5l	c #C27B60",
"6l	c #ECA989",
"7l	c #EEAD8E",
"8l	c #CB7D61",
"9l	c #E1AB8E",
"0l	c #FCC09F",
"al	c #FDC0A1",
"bl	c #F6B291",
"cl	c #F0A989",
"dl	c #E89F7E",
"el	c #D78B6C",
"fl	c #C17358",
"gl	c #A05644",
"hl	c #8B4639",
"il	c #854034",
"jl	c #793830",
"kl	c #6E392F",
"ll	c #975141",
"ml	c #CA775A",
"nl	c #DC8A6A",
"ol	c #E79673",
"pl	c #EFA381",
"ql	c #F0A886",
"rl	c #F1AB89",
"sl	c #F7B391",
"tl	c #F9BA99",
"ul	c #EFB796",
"vl	c #BC8569",
"wl	c #D37E5D",
"xl	c #F8B795",
"yl	c #F8BA9A",
"zl	c #F7B796",
"Al	c #D99475",
"Bl	c #D28563",
"Cl	c #E7A07D",
"Dl	c #DF9471",
"El	c #C07B5E",
"Fl	c #BA6B55",
"Gl	c #CE785D",
"Hl	c #CC765B",
"Il	c #C06C54",
"Jl	c #C57257",
"Kl	c #C8745A",
"Ll	c #D98F71",
"Ml	c #F3AE8F",
"Nl	c #F9B696",
"Ol	c #FCBC9D",
"Pl	c #FEC1A3",
"Ql	c #FBBF9F",
"Rl	c #EBB496",
"Sl	c #C48166",
"Tl	c #DC8E6D",
"Ul	c #F6B697",
"Vl	c #FBBE9E",
"Wl	c #F8BD9D",
"Xl	c #F4B493",
"Yl	c #E1A281",
"Zl	c #E0A486",
"`l	c #F2B291",
" m	c #F0B091",
".m	c #F0AD8E",
"+m	c #F5B494",
"@m	c #D19276",
"#m	c #FCBF9F",
"$m	c #FCBC9C",
"%m	c #FCB999",
"&m	c #FAB697",
"*m	c #F0A787",
"=m	c #EB9F7F",
"-m	c #E39879",
";m	c #A45A47",
">m	c #793C32",
",m	c #70362E",
"'m	c #612D26",
")m	c #5C3028",
"!m	c #B16049",
"~m	c #CE795C",
"{m	c #DF8A69",
"]m	c #E79574",
"^m	c #EB9D7D",
"/m	c #EFA282",
"(m	c #F6AF8D",
"_m	c #FAB896",
":m	c #F9BB98",
"<m	c #F3B897",
"[m	c #F6B695",
"}m	c #F9B997",
"|m	c #FABC9D",
"1m	c #F9BB99",
"2m	c #F3B18F",
"3m	c #DC9271",
"4m	c #E29875",
"5m	c #E09572",
"6m	c #9B4D3D",
"7m	c #A45543",
"8m	c #A75644",
"9m	c #9A4D3E",
"0m	c #9B4F3F",
"am	c #9A4E3E",
"bm	c #C2785E",
"cm	c #DA9071",
"dm	c #E59A7A",
"em	c #F1AB8B",
"fm	c #F8B593",
"gm	c #FCC2A1",
"hm	c #ECB192",
"im	c #E4A283",
"jm	c #E9A17F",
"km	c #F5B190",
"lm	c #F1AC8B",
"mm	c #F4B190",
"nm	c #F5B28F",
"om	c #E7A484",
"pm	c #CC8A6D",
"qm	c #EAA786",
"rm	c #CA896C",
"sm	c #F9B897",
"tm	c #FABA98",
"um	c #FCBC9B",
"vm	c #FDBB9C",
"wm	c #FBBA9C",
"xm	c #F9B697",
"ym	c #F2AA89",
"zm	c #EA9E7D",
"Am	c #E29373",
"Bm	c #D78868",
"Cm	c #C37257",
"Dm	c #A55C48",
"Em	c #7F4438",
"Fm	c #5A2D27",
"Gm	c #5D312A",
"Hm	c #A05844",
"Im	c #CA7458",
"Jm	c #EEA383",
"Km	c #F1A788",
"Lm	c #F9B393",
"Mm	c #F9B18F",
"Nm	c #F9B290",
"Om	c #F8B594",
"Pm	c #FAB796",
"Qm	c #F8B491",
"Rm	c #F9B390",
"Sm	c #F5AE8B",
"Tm	c #F5B18F",
"Um	c #DF9675",
"Vm	c #EAA582",
"Wm	c #E49C78",
"Xm	c #D5916F",
"Ym	c #EFBC9F",
"Zm	c #F8C3A5",
"`m	c #E9A180",
" n	c #EBB294",
".n	c #F5B89B",
"+n	c #F3BB9B",
"@n	c #E6B193",
"#n	c #6F372E",
"$n	c #7F3E33",
"%n	c #804033",
"&n	c #763A2F",
"*n	c #DB8E6D",
"=n	c #E59977",
"-n	c #F0A585",
";n	c #F7B290",
">n	c #FCBB9C",
",n	c #FDBD9E",
"'n	c #EBA080",
")n	c #F2A989",
"!n	c #F8B495",
"~n	c #F2AE8D",
"{n	c #EAA180",
"]n	c #EDA07D",
"^n	c #F2AD8B",
"/n	c #D29577",
"(n	c #E6A180",
"_n	c #D28A6A",
":n	c #F9B595",
"<n	c #F8B394",
"[n	c #F9B797",
"}n	c #F9B291",
"|n	c #F7A685",
"1n	c #F5A484",
"2n	c #F5AB8D",
"3n	c #F4AB8C",
"4n	c #E39374",
"5n	c #D78567",
"6n	c #CC7A5E",
"7n	c #B2624B",
"8n	c #8E4C3D",
"9n	c #5B332B",
"0n	c #CA7D62",
"an	c #E09274",
"bn	c #EBA284",
"cn	c #ECA385",
"dn	c #F0A88A",
"en	c #F0997A",
"fn	c #F2987A",
"gn	c #F39E80",
"hn	c #F4A585",
"in	c #F19F80",
"jn	c #EB9373",
"kn	c #ED9877",
"ln	c #F19F7F",
"mn	c #F2A27F",
"nn	c #EFA07C",
"on	c #F2AC8A",
"pn	c #F0AC8A",
"qn	c #E09876",
"rn	c #E9A581",
"sn	c #E39D79",
"tn	c #C78769",
"un	c #CE9375",
"vn	c #EFB99C",
"wn	c #F8BFA2",
"xn	c #F9BFA3",
"yn	c #E89A7A",
"zn	c #D78667",
"An	c #CB886C",
"Bn	c #F6BE9F",
"Cn	c #F9BC9E",
"Dn	c #F8B798",
"En	c #F8B697",
"Fn	c #FAB897",
"Gn	c #F8B494",
"Hn	c #F6B393",
"In	c #F5AE8E",
"Jn	c #ECA788",
"Kn	c #BE7A61",
"Ln	c #60352D",
"Mn	c #5D3029",
"Nn	c #522822",
"On	c #6B352C",
"Pn	c #A65D47",
"Qn	c #C47458",
"Rn	c #D28263",
"Sn	c #E39575",
"Tn	c #EB9E7D",
"Un	c #F2AB8C",
"Vn	c #F3AA8B",
"Wn	c #F3A688",
"Xn	c #F29F82",
"Yn	c #F59D7F",
"Zn	c #F9AB8E",
"`n	c #F8B093",
" o	c #F5B095",
".o	c #F3B396",
"+o	c #EBA486",
"@o	c #EDA587",
"#o	c #F1A282",
"$o	c #ED9E7E",
"%o	c #ECA382",
"&o	c #E89F7F",
"*o	c #E69B79",
"=o	c #EEAB89",
"-o	c #E7AE8C",
";o	c #BF8165",
">o	c #E8AC8E",
",o	c #E5A080",
"'o	c #EDAB89",
")o	c #D88A69",
"!o	c #ECA483",
"~o	c #F3AF8E",
"{o	c #F3AF8D",
"]o	c #EEA483",
"^o	c #EEA282",
"/o	c #F4AE90",
"(o	c #F7B294",
"_o	c #F7B092",
":o	c #F2997A",
"<o	c #EE9172",
"[o	c #EF9C7D",
"}o	c #F1A88A",
"|o	c #EFA184",
"1o	c #E89679",
"2o	c #E29273",
"3o	c #D17E61",
"4o	c #BA6951",
"5o	c #975140",
"6o	c #683B32",
"7o	c #BE7056",
"8o	c #E09576",
"9o	c #E89F80",
"0o	c #ECA686",
"ao	c #EFA889",
"bo	c #E78A6C",
"co	c #E98C6E",
"do	c #F09C7F",
"eo	c #EC9F82",
"fo	c #DD8669",
"go	c #EB9D7C",
"ho	c #EA9D7B",
"io	c #EBA27F",
"jo	c #D88F6F",
"ko	c #E4A380",
"lo	c #DB9C7C",
"mo	c #EEB89A",
"no	c #F9C1A3",
"oo	c #FAC2A6",
"po	c #F0B193",
"qo	c #E59C7E",
"ro	c #CB785E",
"so	c #CD9074",
"to	c #F7B291",
"uo	c #F5B395",
"vo	c #F2AF8F",
"wo	c #EA9F7E",
"xo	c #E39675",
"yo	c #D58465",
"zo	c #D78162",
"Ao	c #D88667",
"Bo	c #774336",
"Co	c #9D5541",
"Do	c #B76750",
"Eo	c #CA7358",
"Fo	c #DA8668",
"Go	c #EFA588",
"Ho	c #ED9F84",
"Io	c #EE9A80",
"Jo	c #EF9579",
"Ko	c #F5A586",
"Lo	c #F8B79B",
"Mo	c #F2B094",
"No	c #EBA78C",
"Oo	c #E79E82",
"Po	c #E5997B",
"Qo	c #E89879",
"Ro	c #E8997A",
"So	c #ECAA8A",
"To	c #EEAC8B",
"Uo	c #EBAE8D",
"Vo	c #D59575",
"Wo	c #D59978",
"Xo	c #D09676",
"Yo	c #EBAC8A",
"Zo	c #ECAC8B",
"`o	c #DC9879",
" p	c #E19977",
".p	c #F0AE8F",
"+p	c #EDA686",
"@p	c #EBA283",
"#p	c #EDA486",
"$p	c #F4AE92",
"%p	c #F5AE91",
"&p	c #EF987B",
"*p	c #E77E63",
"=p	c #EB8B72",
"-p	c #EC9B7F",
";p	c #ECA084",
">p	c #E8997D",
",p	c #D87D62",
"'p	c #D58063",
")p	c #C7755B",
"!p	c #AA5C47",
"~p	c #7F4437",
"{p	c #C0745A",
"]p	c #DD9273",
"^p	c #E59B7C",
"/p	c #EAA183",
"(p	c #ECA486",
"_p	c #EBA081",
":p	c #EB9F82",
"<p	c #E59578",
"[p	c #E3886C",
"}p	c #E8886C",
"|p	c #EFA589",
"1p	c #EEAC90",
"2p	c #E1987C",
"3p	c #D98C70",
"4p	c #DA8B6D",
"5p	c #DF9372",
"6p	c #E9A484",
"7p	c #DA9474",
"8p	c #D38967",
"9p	c #D18D6C",
"0p	c #E1A080",
"ap	c #D39371",
"bp	c #E0A485",
"cp	c #ECAD8E",
"dp	c #CD876A",
"ep	c #F8BEA1",
"fp	c #E49D80",
"gp	c #C5755C",
"hp	c #DCA385",
"ip	c #FBBFA1",
"jp	c #F9B99B",
"kp	c #F2B192",
"lp	c #ECA887",
"mp	c #C16F56",
"np	c #A95743",
"op	c #B45F49",
"pp	c #BE684F",
"qp	c #7F4A3C",
"rp	c #8A4739",
"sp	c #AF5A46",
"tp	c #CE775B",
"up	c #E89E80",
"vp	c #EFAB8E",
"wp	c #ECA88C",
"xp	c #EDA78D",
"yp	c #EBA086",
"zp	c #E9957C",
"Ap	c #EB9378",
"Bp	c #F09F83",
"Cp	c #F3B096",
"Dp	c #EFB096",
"Ep	c #E8A68A",
"Fp	c #E29A7D",
"Gp	c #E39B7F",
"Hp	c #E6A285",
"Ip	c #E8A789",
"Jp	c #E4A07F",
"Kp	c #E7A584",
"Lp	c #EAA989",
"Mp	c #E3A484",
"Np	c #CD8C6E",
"Op	c #E0A07D",
"Pp	c #D49473",
"Qp	c #B0775F",
"Rp	c #CC8B6E",
"Sp	c #E2A282",
"Tp	c #C4785C",
"Up	c #D0876B",
"Vp	c #F0B090",
"Wp	c #F1B08F",
"Xp	c #ECA585",
"Yp	c #E89E7E",
"Zp	c #EAA282",
"`p	c #EBA686",
" q	c #EEAA8B",
".q	c #F1AD90",
"+q	c #ED9F82",
"@q	c #E28167",
"#q	c #DE795E",
"$q	c #E28569",
"%q	c #E69376",
"&q	c #E39376",
"*q	c #DD8A6D",
"=q	c #CD7158",
"-q	c #C97157",
";q	c #C26F56",
">q	c #9D5542",
",q	c #C1765C",
"'q	c #E19677",
")q	c #DF8F71",
"!q	c #E29173",
"~q	c #E59879",
"{q	c #E69A7C",
"]q	c #E69D80",
"^q	c #E29174",
"/q	c #E48B70",
"(q	c #E7977A",
"_q	c #DB9476",
":q	c #D78D6F",
"<q	c #D78C6D",
"[q	c #DE9878",
"}q	c #E3A07E",
"|q	c #B96E53",
"1q	c #DD9875",
"2q	c #BE795D",
"3q	c #DB9877",
"4q	c #C58768",
"5q	c #D99577",
"6q	c #F1B192",
"7q	c #E8A383",
"8q	c #D18365",
"9q	c #E6AA8B",
"0q	c #F8BB9B",
"aq	c #F5B594",
"bq	c #E49E7F",
"cq	c #D9977C",
"dq	c #EEB899",
"eq	c #F7B99B",
"fq	c #DD9272",
"gq	c #C77659",
"hq	c #BF6D53",
"iq	c #99503E",
"jq	c #904839",
"kq	c #8B4638",
"lq	c #8D483A",
"mq	c #6C3D32",
"nq	c #9F5441",
"oq	c #CB775B",
"pq	c #DF9374",
"qq	c #E8A184",
"rq	c #E8A186",
"sq	c #E9A185",
"tq	c #EBA388",
"uq	c #E79C81",
"vq	c #E38F75",
"wq	c #E38B70",
"xq	c #F1B296",
"yq	c #EEAF92",
"zq	c #E7A587",
"Aq	c #EFB395",
"Bq	c #E4A383",
"Cq	c #D79271",
"Dq	c #DC9675",
"Eq	c #E5A483",
"Fq	c #E6A786",
"Gq	c #CC8D6F",
"Hq	c #C28163",
"Iq	c #D18F6F",
"Jq	c #CA8A6A",
"Kq	c #BB8266",
"Lq	c #D89A7B",
"Mq	c #E1A07F",
"Nq	c #C68266",
"Oq	c #D09174",
"Pq	c #E6A788",
"Qq	c #E4A485",
"Rq	c #CB8467",
"Sq	c #BE745A",
"Tq	c #EDAA89",
"Uq	c #E9A383",
"Vq	c #EDA98B",
"Wq	c #E0886C",
"Xq	c #DA7E65",
"Yq	c #DA8165",
"Zq	c #DF8E71",
"`q	c #E19478",
" r	c #DB8A6F",
".r	c #CD785E",
"+r	c #BE6750",
"@r	c #C06952",
"#r	c #B86751",
"$r	c #8F4E3E",
"%r	c #D88B6C",
"&r	c #DC8C6D",
"*r	c #D17B60",
"=r	c #D47E61",
"-r	c #E09476",
";r	c #E49D7F",
">r	c #E39F81",
",r	c #E29578",
"'r	c #E39779",
")r	c #E9A586",
"!r	c #DB9575",
"~r	c #D99373",
"{r	c #D99171",
"]r	c #DC9978",
"^r	c #C27A5D",
"/r	c #BB7155",
"(r	c #D58E6C",
"_r	c #DC9876",
":r	c #D89372",
"<r	c #AF6C53",
"[r	c #DA9876",
"}r	c #D69371",
"|r	c #E59E7E",
"1r	c #D18567",
"2r	c #FCC1A1",
"3r	c #FBC1A3",
"4r	c #FBC0A2",
"5r	c #FDBE9F",
"6r	c #FBBC9D",
"7r	c #F1AD8C",
"8r	c #DE9172",
"9r	c #CA795D",
"0r	c #B0604A",
"ar	c #9A513E",
"br	c #652F27",
"cr	c #6E352B",
"dr	c #613028",
"er	c #874B3C",
"fr	c #C37259",
"gr	c #D38568",
"hr	c #E19A7D",
"ir	c #E39C7F",
"jr	c #E49C80",
"kr	c #E8A487",
"lr	c #E8A388",
"mr	c #E39D82",
"nr	c #E59A7C",
"or	c #ECA98B",
"pr	c #E9A888",
"qr	c #EDAC8B",
"rr	c #DE9B7B",
"sr	c #D5906F",
"tr	c #DF9E7C",
"ur	c #E1A283",
"vr	c #B17056",
"wr	c #C68465",
"xr	c #C48465",
"yr	c #B97E62",
"zr	c #C78668",
"Ar	c #D39373",
"Br	c #C38166",
"Cr	c #BC7C61",
"Dr	c #E4A586",
"Er	c #D08B6D",
"Fr	c #BC755A",
"Gr	c #DB9A7B",
"Hr	c #F0B291",
"Ir	c #E9A482",
"Jr	c #E29879",
"Kr	c #DF9173",
"Lr	c #DE9376",
"Mr	c #DA8E71",
"Nr	c #C8765C",
"Or	c #BB6750",
"Pr	c #AF644E",
"Qr	c #CB7B5E",
"Rr	c #D28062",
"Sr	c #DC9172",
"Tr	c #E29B7C",
"Ur	c #E49F80",
"Vr	c #DB9472",
"Wr	c #D78F6E",
"Xr	c #DD9877",
"Yr	c #E29F7D",
"Zr	c #D38D6D",
"`r	c #BA7357",
" s	c #C37D5E",
".s	c #DC9A79",
"+s	c #C68365",
"@s	c #AB6951",
"#s	c #CC8A68",
"$s	c #CD8A68",
"%s	c #BF7D5D",
"&s	c #EFAC8C",
"*s	c #E09070",
"=s	c #F7B292",
"-s	c #F9B695",
";s	c #F9B596",
">s	c #F7AC8D",
",s	c #F8B091",
"'s	c #FDBA9C",
")s	c #FAAA89",
"!s	c #F8AD8E",
"~s	c #F5AC8E",
"{s	c #E39473",
"]s	c #D58365",
"^s	c #B96950",
"/s	c #924B3A",
"(s	c #793D33",
"_s	c #6D3D32",
":s	c #AC634E",
"<s	c #C57358",
"[s	c #DA8D6E",
"}s	c #E7A384",
"|s	c #E9AA8C",
"1s	c #E9A789",
"2s	c #E7A282",
"3s	c #EEAC8C",
"4s	c #F2B494",
"5s	c #EFAE8E",
"6s	c #E8A482",
"7s	c #ECAE8C",
"8s	c #E9AA89",
"9s	c #DA9676",
"0s	c #E19F7E",
"as	c #E0A17F",
"bs	c #D09273",
"cs	c #AF6E55",
"ds	c #C78667",
"es	c #B37459",
"fs	c #AA6D52",
"gs	c #AD7459",
"hs	c #C28264",
"is	c #C98868",
"js	c #C48467",
"ks	c #A76851",
"ls	c #D39476",
"ms	c #E0A080",
"ns	c #CD896A",
"os	c #BE795E",
"ps	c #D08D6F",
"qs	c #EDAF8E",
"rs	c #F1B18F",
"ss	c #E7A180",
"ts	c #E39C7B",
"us	c #E19E7F",
"vs	c #DB9477",
"ws	c #D1886C",
"xs	c #C67B60",
"ys	c #BD7258",
"zs	c #A35E4A",
"As	c #F0C2A2",
"Bs	c #F1B996",
"Cs	c #EDB999",
"Ds	c #C77A5D",
"Es	c #D98F6F",
"Fs	c #E7A687",
"Gs	c #E29D7D",
"Hs	c #D9916F",
"Is	c #D99371",
"Js	c #C98363",
"Ks	c #BB7558",
"Ls	c #DB9B79",
"Ms	c #CE8B6B",
"Ns	c #A4624C",
"Os	c #BB785B",
"Ps	c #C98564",
"Qs	c #AC6D52",
"Rs	c #E79F7D",
"Ss	c #EFA685",
"Ts	c #F1A687",
"Us	c #F2AC8E",
"Vs	c #F1A486",
"Ws	c #F2A286",
"Xs	c #F3A88C",
"Ys	c #F9B69B",
"Zs	c #F8A98C",
"`s	c #F69D7F",
" t	c #F4A589",
".t	c #F2A588",
"+t	c #E19273",
"@t	c #DE9070",
"#t	c #CD7C5F",
"$t	c #B6654D",
"%t	c #B5664E",
"&t	c #D18568",
"*t	c #E29D7E",
"=t	c #E7A688",
"-t	c #EDAF91",
";t	c #ECAF91",
">t	c #EDAE90",
",t	c #EFAD8C",
"'t	c #F2B292",
")t	c #EEB08E",
"!t	c #EAA885",
"~t	c #DA9576",
"{t	c #D89472",
"]t	c #C38669",
"^t	c #C9896A",
"/t	c #AC6F55",
"(t	c #AF7358",
"_t	c #BC7B5F",
":t	c #C88769",
"<t	c #AD6E55",
"[t	c #BC7D62",
"}t	c #DE9F7F",
"|t	c #D59172",
"1t	c #BB7459",
"2t	c #C88669",
"3t	c #EBAD8B",
"4t	c #EDAB88",
"5t	c #E49E7B",
"6t	c #E39C79",
"7t	c #EBA886",
"8t	c #E6A281",
"9t	c #E7A383",
"0t	c #E3A081",
"at	c #D18B6E",
"bt	c #CE8569",
"ct	c #B56E56",
"dt	c #F1B797",
"et	c #FBBE9F",
"ft	c #FEBD9D",
"gt	c #FDC7A7",
"ht	c #FABF9E",
"it	c #D38C6C",
"jt	c #ECAC8D",
"kt	c #EBAA89",
"lt	c #DD9673",
"mt	c #DF9976",
"nt	c #D79471",
"ot	c #B87357",
"pt	c #D79573",
"qt	c #D18F6E",
"rt	c #AF6E53",
"st	c #B77558",
"tt	c #A4664D",
"ut	c #895442",
"vt	c #E8A584",
"wt	c #E39B79",
"xt	c #F2AE8E",
"yt	c #F2AD8F",
"zt	c #F2AB8E",
"At	c #F2AC8F",
"Bt	c #EDA385",
"Ct	c #EEA184",
"Dt	c #F2A88D",
"Et	c #F6B89D",
"Ft	c #F5AC90",
"Gt	c #F09578",
"Ht	c #EE9073",
"It	c #EF9F82",
"Jt	c #E49878",
"Kt	c #DD9171",
"Lt	c #C8785B",
"Mt	c #9F5A46",
"Nt	c #B26B53",
"Ot	c #D99476",
"Pt	c #E7A788",
"Qt	c #EDB091",
"Rt	c #EEB192",
"St	c #EFB394",
"Tt	c #EEB092",
"Ut	c #F1B190",
"Vt	c #F1B290",
"Wt	c #EDA987",
"Xt	c #E9A37F",
"Yt	c #EEAF8D",
"Zt	c #DF9A77",
"`t	c #DE9E7B",
" u	c #DE9F7E",
".u	c #C38365",
"+u	c #C8896B",
"@u	c #C18365",
"#u	c #A06750",
"$u	c #AC7058",
"%u	c #BC7B60",
"&u	c #B8775C",
"*u	c #AC6D55",
"=u	c #D49575",
"-u	c #BF795C",
";u	c #C17B5F",
">u	c #E7A886",
",u	c #ECA986",
"'u	c #E59F7B",
")u	c #EAA684",
"!u	c #E9A684",
"~u	c #E5A07D",
"{u	c #E7A583",
"]u	c #E5A585",
"^u	c #E4A384",
"/u	c #E09D7F",
"(u	c #DA9778",
"_u	c #D48F70",
":u	c #D38D6F",
"<u	c #C27B61",
"[u	c #D48B70",
"}u	c #ED9E7D",
"|u	c #F2A889",
"1u	c #F6AC8C",
"2u	c #F6AA89",
"3u	c #FBB797",
"4u	c #FDBE9E",
"5u	c #FDC09F",
"6u	c #E7A887",
"7u	c #ECAE8E",
"8u	c #E39F7D",
"9u	c #E9A885",
"0u	c #D28967",
"au	c #D58C68",
"bu	c #DE9B76",
"cu	c #C57F60",
"du	c #D2906E",
"eu	c #D59572",
"fu	c #B8765A",
"gu	c #AC6C52",
"hu	c #C98767",
"iu	c #BA7A5C",
"ju	c #AD6E53",
"ku	c #8E5844",
"lu	c #D29376",
"mu	c #E4A687",
"nu	c #E0A182",
"ou	c #E29C7C",
"pu	c #F0AE90",
"qu	c #E5977A",
"ru	c #EFAC90",
"su	c #F8BDA1",
"tu	c #F4B69A",
"uu	c #E9967B",
"vu	c #E88B70",
"wu	c #EB9A7F",
"xu	c #ECA285",
"yu	c #E49478",
"zu	c #DA8164",
"Au	c #D78467",
"Bu	c #D78B6D",
"Cu	c #BA6C53",
"Du	c #85493B",
"Eu	c #E09F80",
"Fu	c #ECB090",
"Gu	c #EEB193",
"Hu	c #EFB191",
"Iu	c #ECA885",
"Ju	c #EDA986",
"Ku	c #EFAD8A",
"Lu	c #F2B28F",
"Mu	c #F1B18E",
"Nu	c #E29A75",
"Ou	c #EAA783",
"Pu	c #ECAC89",
"Qu	c #E9A884",
"Ru	c #DB9673",
"Su	c #D99A78",
"Tu	c #C58566",
"Uu	c #CC8F6F",
"Vu	c #BD7F62",
"Wu	c #B7795D",
"Xu	c #9B634E",
"Yu	c #BF7F62",
"Zu	c #A76950",
"`u	c #C9886A",
" v	c #D59373",
".v	c #B67156",
"+v	c #D88965",
"@v	c #E19772",
"#v	c #E8A27E",
"$v	c #E39E7C",
"%v	c #E2A181",
"&v	c #D79071",
"*v	c #C27C63",
"=v	c #FAB491",
"-v	c #FBB794",
";v	c #FCB695",
">v	c #F8AE8D",
",v	c #E6A486",
"'v	c #B96F58",
")v	c #CF7D62",
"!v	c #D38163",
"~v	c #DC8D6E",
"{v	c #EB9F80",
"]v	c #F4B091",
"^v	c #F8B696",
"/v	c #FCBA9A",
"(v	c #FEC0A0",
"_v	c #D58D6D",
":v	c #E29976",
"<v	c #E9AB8A",
"[v	c #E19976",
"}v	c #E7A380",
"|v	c #D08663",
"1v	c #D4906C",
"2v	c #B56E51",
"3v	c #D89674",
"4v	c #A4644C",
"5v	c #C68566",
"6v	c #C08061",
"7v	c #B67659",
"8v	c #A3664E",
"9v	c #E19F80",
"0v	c #C97E61",
"av	c #DD9574",
"bv	c #EFAD8D",
"cv	c #E9A284",
"dv	c #EAA284",
"ev	c #F5B598",
"fv	c #F7B79A",
"gv	c #EBA084",
"hv	c #E69579",
"iv	c #EDA88B",
"jv	c #EBA587",
"kv	c #E79E7F",
"lv	c #DA8C6F",
"mv	c #AE614B",
"nv	c #F1B798",
"ov	c #F5BC9E",
"pv	c #F5C1A2",
"qv	c #F4BC9D",
"rv	c #C57F61",
"sv	c #DC9777",
"tv	c #E7A888",
"uv	c #EBAE8E",
"vv	c #EEB292",
"wv	c #EDAA86",
"xv	c #EBA582",
"yv	c #ECA783",
"zv	c #DE946F",
"Av	c #E0946E",
"Bv	c #CC8260",
"Cv	c #D79673",
"Dv	c #C68666",
"Ev	c #BF8163",
"Fv	c #AB7258",
"Gv	c #A56950",
"Hv	c #B4755A",
"Iv	c #B9795D",
"Jv	c #BB7B5F",
"Kv	c #D08E6D",
"Lv	c #C27D5F",
"Mv	c #BE795C",
"Nv	c #D69372",
"Ov	c #DC916D",
"Pv	c #D48560",
"Qv	c #E19671",
"Rv	c #E7A17B",
"Sv	c #EAA886",
"Tv	c #E29D7B",
"Uv	c #DE9A7A",
"Vv	c #D78F6F",
"Wv	c #D28A6C",
"Xv	c #C77F64",
"Yv	c #E8A686",
"Zv	c #FBB493",
"`v	c #FAB696",
" w	c #F6AE8E",
".w	c #E89778",
"+w	c #E18D70",
"@w	c #E49274",
"#w	c #CF7D63",
"$w	c #884A3D",
"%w	c #AC5F4B",
"&w	c #AE624C",
"*w	c #BE7158",
"=w	c #B66851",
"-w	c #DF9779",
";w	c #E8A587",
">w	c #F8B595",
",w	c #FDBF9E",
"'w	c #D08668",
")w	c #E59E7C",
"!w	c #E7A481",
"~w	c #D38966",
"{w	c #CE825F",
"]w	c #DA926D",
"^w	c #C78261",
"/w	c #BE7859",
"(w	c #D69472",
"_w	c #C78767",
":w	c #B8775A",
"<w	c #8A5643",
"[w	c #CB896C",
"}w	c #D99879",
"|w	c #CD8A6C",
"1w	c #E5A381",
"2w	c #E29E7E",
"3w	c #D0896A",
"4w	c #CD8669",
"5w	c #E4A17F",
"6w	c #F1B090",
"7w	c #EAA687",
"8w	c #EBA687",
"9w	c #EBA88D",
"0w	c #F1B294",
"aw	c #DD9778",
"bw	c #AA624C",
"cw	c #FEC4A3",
"dw	c #FEC2A2",
"ew	c #C37C5F",
"fw	c #DA9373",
"gw	c #E3A180",
"hw	c #EDAE8D",
"iw	c #ECA784",
"jw	c #E9A37E",
"kw	c #EFAA85",
"lw	c #F2B38F",
"mw	c #F0B18F",
"nw	c #E19A76",
"ow	c #ECAA87",
"pw	c #E8A884",
"qw	c #D99471",
"rw	c #CD8563",
"sw	c #D28D6B",
"tw	c #D59472",
"uw	c #C28465",
"vw	c #C08163",
"ww	c #A97055",
"xw	c #A26951",
"yw	c #BD7F61",
"zw	c #BB7D5F",
"Aw	c #CC8A6A",
"Bw	c #C78464",
"Cw	c #B87356",
"Dw	c #E5A17F",
"Ew	c #DD926E",
"Fw	c #D48662",
"Gw	c #E39A74",
"Hw	c #E9A47E",
"Iw	c #E9A57F",
"Jw	c #E59E78",
"Kw	c #E8A47F",
"Lw	c #E7A47F",
"Mw	c #E6A380",
"Nw	c #D78E6D",
"Ow	c #FEBE9D",
"Pw	c #F7B190",
"Qw	c #E49777",
"Rw	c #D98869",
"Sw	c #D78466",
"Tw	c #C57156",
"Uw	c #BF6A53",
"Vw	c #AF5F4B",
"Ww	c #793D32",
"Xw	c #8A4738",
"Yw	c #A05743",
"Zw	c #A75E48",
"`w	c #CC8265",
" x	c #C87E62",
".x	c #E1997B",
"+x	c #FBBD9B",
"@x	c #FDC4A3",
"#x	c #F8BA99",
"$x	c #B86A51",
"%x	c #D0805F",
"&x	c #E29B77",
"*x	c #DE956F",
"=x	c #CD825E",
"-x	c #D28863",
";x	c #D48E6A",
">x	c #BC7455",
",x	c #C88361",
"'x	c #C48061",
")x	c #A5644A",
"!x	c #C28161",
"~x	c #B9785A",
"{x	c #A7684E",
"]x	c #D18B6B",
"^x	c #B7765B",
"/x	c #DB9676",
"(x	c #EEAB8A",
"_x	c #F4B697",
":x	c #F1B496",
"<x	c #E49F7F",
"[x	c #C58266",
"}x	c #FCC5A6",
"|x	c #FFC2A1",
"1x	c #FFC1A1",
"2x	c #FDBC9C",
"3x	c #F4A786",
"4x	c #EE9F7E",
"5x	c #E59678",
"6x	c #CA7B62",
"7x	c #C88163",
"8x	c #D68C6A",
"9x	c #E19D7C",
"0x	c #E5A484",
"ax	c #E9A783",
"bx	c #EBA682",
"cx	c #ECA884",
"dx	c #E8A27C",
"ex	c #E99F79",
"fx	c #ECA580",
"gx	c #F1B08C",
"hx	c #F2B490",
"ix	c #DB916C",
"jx	c #E6A27C",
"kx	c #D38F6D",
"lx	c #D08F6C",
"mx	c #C08060",
"nx	c #BC7F60",
"ox	c #B7795C",
"px	c #C28466",
"qx	c #B8795C",
"rx	c #C58465",
"sx	c #CC8969",
"tx	c #D18D6A",
"ux	c #DE9570",
"vx	c #E6A07A",
"wx	c #E69E78",
"xx	c #E7A079",
"yx	c #E39973",
"zx	c #E49D77",
"Ax	c #D68B69",
"Bx	c #CC8162",
"Cx	c #AB6149",
"Dx	c #EEAC8A",
"Ex	c #FBBF9D",
"Fx	c #FBB997",
"Gx	c #F4AF8E",
"Hx	c #E79C7B",
"Ix	c #D38669",
"Jx	c #B2664E",
"Kx	c #B5674F",
"Lx	c #9D5241",
"Mx	c #934B3D",
"Nx	c #7B3D33",
"Ox	c #6C362C",
"Px	c #854536",
"Qx	c #94503E",
"Rx	c #B1674F",
"Sx	c #AE6650",
"Tx	c #D1896C",
"Ux	c #E39C7C",
"Vx	c #ECA684",
"Wx	c #F7B491",
"Xx	c #FDC2A0",
"Yx	c #F6B694",
"Zx	c #EAAA88",
"`x	c #C07458",
" y	c #BF6D4F",
".y	c #DC946E",
"+y	c #DC926C",
"@y	c #DF956F",
"#y	c #E09B75",
"$y	c #CE825D",
"%y	c #D58C67",
"&y	c #DA9570",
"*y	c #CD8663",
"=y	c #B66E50",
"-y	c #CB8663",
";y	c #CE8B69",
">y	c #B27155",
",y	c #BD7C5E",
"'y	c #B17356",
")y	c #955B45",
"!y	c #CB8362",
"~y	c #C0795C",
"{y	c #CE8A6C",
"]y	c #D79372",
"^y	c #D08A6A",
"/y	c #CC8567",
"(y	c #E3A07F",
"_y	c #EEAF90",
":y	c #F1B697",
"<y	c #DB997A",
"[y	c #E2A487",
"}y	c #FFC3A3",
"|y	c #DB896D",
"1y	c #E79B7C",
"2y	c #D8866A",
"3y	c #C16F58",
"4y	c #A15746",
"5y	c #F1B694",
"6y	c #FBBA97",
"7y	c #FBBF9B",
"8y	c #F4BC9C",
"9y	c #EAB08D",
"0y	c #B97559",
"ay	c #CC7F60",
"by	c #D78F6D",
"cy	c #ECA984",
"dy	c #E9A17C",
"ey	c #E9A07A",
"fy	c #ECA681",
"gy	c #EDA985",
"hy	c #EDAB86",
"iy	c #E19A74",
"jy	c #DF9871",
"ky	c #E29E79",
"ly	c #D5916D",
"my	c #C78A68",
"ny	c #BD8262",
"oy	c #B07658",
"py	c #B17859",
"qy	c #99684F",
"ry	c #B87A5D",
"sy	c #C18161",
"ty	c #B47558",
"uy	c #C68463",
"vy	c #C98765",
"wy	c #CB8665",
"xy	c #D5906E",
"yy	c #D99570",
"zy	c #DA956F",
"Ay	c #D98F69",
"By	c #D98E67",
"Cy	c #E09771",
"Dy	c #E29A73",
"Ey	c #E29870",
"Fy	c #E49A73",
"Gy	c #E59D77",
"Hy	c #E49D75",
"Iy	c #E39B74",
"Jy	c #DE9874",
"Ky	c #DD9773",
"Ly	c #DC926F",
"My	c #D08160",
"Ny	c #CB7E5E",
"Oy	c #CA7D60",
"Py	c #FBBB98",
"Qy	c #FDC19F",
"Ry	c #FFC19E",
"Sy	c #FEC2A0",
"Ty	c #FDBD9B",
"Uy	c #ECA482",
"Vy	c #E19776",
"Wy	c #D28768",
"Xy	c #CC8264",
"Yy	c #A95F49",
"Zy	c #8A4A3A",
"`y	c #8D4A3B",
" z	c #70372F",
".z	c #582F29",
"+z	c #643229",
"@z	c #804436",
"#z	c #8E4D3C",
"$z	c #CF8567",
"%z	c #F4AF8D",
"&z	c #FBBE9D",
"*z	c #FEC3A1",
"=z	c #FABB98",
"-z	c #DE9473",
";z	c #C07052",
">z	c #D48866",
",z	c #E4A17C",
"'z	c #DF956E",
")z	c #E19872",
"!z	c #DE936B",
"~z	c #E29C76",
"{z	c #D28761",
"]z	c #CB7E59",
"^z	c #D7906B",
"/z	c #CC8664",
"(z	c #BE7757",
"_z	c #CE8A67",
":z	c #CC8B69",
"<z	c #B27255",
"[z	c #B8785A",
"}z	c #A0654B",
"|z	c #7E4D3A",
"1z	c #B3755A",
"2z	c #BA785B",
"3z	c #C17E60",
"4z	c #D69271",
"5z	c #DC9977",
"6z	c #DC9775",
"7z	c #C1785A",
"8z	c #E49D7A",
"9z	c #E39976",
"0z	c #F0B391",
"az	c #EFAE8D",
"bz	c #F1B596",
"cz	c #F0B393",
"dz	c #EEB090",
"ez	c #EDAB8A",
"fz	c #FEC4A4",
"gz	c #FDC1A0",
"hz	c #EAA07F",
"iz	c #CF8467",
"jz	c #D68A6B",
"kz	c #B96A51",
"lz	c #9B5040",
"mz	c #7A4136",
"nz	c #E0A07F",
"oz	c #FBB694",
"pz	c #FAB08F",
"qz	c #F7AC8A",
"rz	c #FCB796",
"sz	c #F4A685",
"tz	c #FEBC9A",
"uz	c #FFC1A0",
"vz	c #FFC6A5",
"wz	c #F9BE9E",
"xz	c #F1B695",
"yz	c #C57457",
"zz	c #E19C78",
"Az	c #ECAA86",
"Bz	c #EEAA86",
"Cz	c #EBA681",
"Dz	c #ECA882",
"Ez	c #E19B74",
"Fz	c #D39872",
"Gz	c #A07257",
"Hz	c #533930",
"Iz	c #342928",
"Jz	c #312A2B",
"Kz	c #C28867",
"Lz	c #C98866",
"Mz	c #B77A5A",
"Nz	c #A56E51",
"Oz	c #9B674E",
"Pz	c #966850",
"Qz	c #A2795F",
"Rz	c #B17F61",
"Sz	c #B27D5D",
"Tz	c #C98E6A",
"Uz	c #D79670",
"Vz	c #E39C74",
"Wz	c #DC916A",
"Xz	c #DC9069",
"Yz	c #DE936C",
"Zz	c #DF966F",
"`z	c #E09770",
" A	c #E29972",
".A	c #E59E79",
"+A	c #D98F6A",
"@A	c #D48A66",
"#A	c #D28864",
"$A	c #D48C68",
"%A	c #D58764",
"&A	c #EBA581",
"*A	c #F6B390",
"=A	c #FAB996",
"-A	c #FBBC98",
";A	c #FCB996",
">A	c #FAB895",
",A	c #F5B18D",
"'A	c #EBA381",
")A	c #DD9372",
"!A	c #CE8265",
"~A	c #B86F56",
"{A	c #AA624D",
"]A	c #8B483A",
"^A	c #7C3F34",
"/A	c #66352B",
"(A	c #7D4134",
"_A	c #814536",
":A	c #A9624A",
"<A	c #B96F55",
"[A	c #CF8667",
"}A	c #E59B78",
"|A	c #EEA884",
"1A	c #F4B08E",
"2A	c #F8B894",
"3A	c #F9BA97",
"4A	c #F5B390",
"5A	c #EEAA87",
"6A	c #E39B77",
"7A	c #DD9974",
"8A	c #E09B76",
"9A	c #E09972",
"0A	c #E09870",
"aA	c #DE946D",
"bA	c #DE956E",
"cA	c #DC946D",
"dA	c #D68D66",
"eA	c #C97D59",
"fA	c #C97E59",
"gA	c #D08A65",
"hA	c #D38E6B",
"iA	c #CA8461",
"jA	c #C6805E",
"kA	c #CC8967",
"lA	c #BA7A5A",
"mA	c #B07054",
"nA	c #B57457",
"oA	c #9B6146",
"pA	c #BD7E5F",
"qA	c #C78566",
"rA	c #D4906E",
"sA	c #D89473",
"tA	c #CD8464",
"uA	c #CD8565",
"vA	c #E7A582",
"wA	c #DA8F6C",
"xA	c #F1B494",
"yA	c #F1B595",
"zA	c #F1B393",
"AA	c #EFB08E",
"BA	c #FEC6A5",
"CA	c #FEC7A9",
"DA	c #F8B998",
"EA	c #F6B494",
"FA	c #DA8F70",
"GA	c #C4785E",
"HA	c #B26951",
"IA	c #9A5342",
"JA	c #763B32",
"KA	c #DD9373",
"LA	c #E79677",
"MA	c #E29073",
"NA	c #E29172",
"OA	c #EA9C7C",
"PA	c #F4AC8D",
"QA	c #F3A684",
"RA	c #FFC09F",
"SA	c #FEC5A5",
"TA	c #FEC8A7",
"UA	c #F8C09D",
"VA	c #F0BA9A",
"WA	c #C77757",
"XA	c #D18462",
"YA	c #D88E6B",
"ZA	c #DE9772",
"`A	c #DF9873",
" B	c #EAA682",
".B	c #EEAB86",
"+B	c #EDA884",
"@B	c #CD9671",
"#B	c #7C5C4A",
"$B	c #332A2B",
"%B	c #2D282B",
"&B	c #312C2F",
"*B	c #2A2528",
"=B	c #6C4A3C",
"-B	c #6E5243",
";B	c #332827",
">B	c #312B2C",
",B	c #2B2526",
"'B	c #6E513F",
")B	c #B4805E",
"!B	c #DC9A73",
"~B	c #DB9069",
"{B	c #D88D66",
"]B	c #D98D67",
"^B	c #DD926B",
"/B	c #D88C68",
"(B	c #D48864",
"_B	c #CF8461",
":B	c #CE8462",
"<B	c #CE8461",
"[B	c #CD8360",
"}B	c #D08562",
"|B	c #D38965",
"1B	c #D58966",
"2B	c #E29874",
"3B	c #F2AD89",
"4B	c #F5B18E",
"5B	c #F5B08C",
"6B	c #F4B08C",
"7B	c #F1AB88",
"8B	c #E8A07D",
"9B	c #DA8F6E",
"0B	c #C77C5E",
"aB	c #B56B51",
"bB	c #A15A46",
"cB	c #8A493A",
"dB	c #71392F",
"eB	c #66332B",
"fB	c #532A25",
"gB	c #582D26",
"hB	c #68352B",
"iB	c #804334",
"jB	c #9C5743",
"kB	c #B66D52",
"lB	c #C47759",
"mB	c #D88C6B",
"nB	c #E59C7A",
"oB	c #ECA683",
"pB	c #EBA683",
"qB	c #E69F7B",
"rB	c #D68C69",
"sB	c #D8926D",
"tB	c #DC9671",
"uB	c #E69F79",
"vB	c #E09871",
"wB	c #DD946E",
"xB	c #D78D67",
"yB	c #CF8460",
"zB	c #C97F5B",
"AB	c #C57E5B",
"BB	c #CF8763",
"CB	c #BF7E5C",
"DB	c #B97958",
"EB	c #B17255",
"FB	c #B37456",
"GB	c #B47456",
"HB	c #AF7053",
"IB	c #B17253",
"JB	c #A2684E",
"KB	c #BA795D",
"LB	c #B77659",
"MB	c #C07D5E",
"NB	c #D4906F",
"OB	c #D38E6C",
"PB	c #C37A5A",
"QB	c #D89370",
"RB	c #D48664",
"SB	c #DD9572",
"TB	c #F0AF8C",
"UB	c #EFAC89",
"VB	c #EFB291",
"WB	c #EBAB89",
"XB	c #E4A07E",
"YB	c #E29C7A",
"ZB	c #F8BC9A",
"`B	c #FFC9A8",
" C	c #FFC7A6",
".C	c #DA906F",
"+C	c #C97D60",
"@C	c #B3674F",
"#C	c #A05A47",
"$C	c #7B4136",
"%C	c #5E342D",
"&C	c #B86A53",
"*C	c #C9765B",
"=C	c #C37058",
"-C	c #C5755B",
";C	c #E89D7D",
">C	c #EA9E7E",
",C	c #FCB795",
"'C	c #FFCAAA",
")C	c #FFCCAB",
"!C	c #FFCAA9",
"~C	c #FEC6A2",
"{C	c #EA9E7B",
"]C	c #D78B69",
"^C	c #D98E6A",
"/C	c #EDAC89",
"(C	c #EFAB87",
"_C	c #DEA17A",
":C	c #96745A",
"<C	c #322B2B",
"[C	c #322E2E",
"}C	c #312E2F",
"|C	c #252024",
"1C	c #282327",
"2C	c #352D2F",
"3C	c #312A2C",
"4C	c #3B2E2B",
"5C	c #9D7053",
"6C	c #D9966D",
"7C	c #D48962",
"8C	c #D88C66",
"9C	c #DA8F68",
"0C	c #DA8F69",
"aC	c #DB906B",
"bC	c #D18763",
"cC	c #D28965",
"dC	c #D38B67",
"eC	c #DA926E",
"fC	c #DD9471",
"gC	c #E8A17E",
"hC	c #E79F7B",
"iC	c #E39B78",
"jC	c #D28664",
"kC	c #CC8060",
"lC	c #BD7256",
"mC	c #A96049",
"nC	c #804335",
"oC	c #68342C",
"pC	c #592C25",
"qC	c #4C2821",
"rC	c #623228",
"sC	c #7F4336",
"tC	c #914F3D",
"uC	c #A55D47",
"vC	c #CA7E60",
"wC	c #D08666",
"xC	c #D48967",
"yC	c #DF9774",
"zC	c #DF9875",
"AC	c #DD9774",
"BC	c #D58B68",
"CC	c #D18865",
"DC	c #E09973",
"EC	c #E8A580",
"FC	c #E6A17B",
"GC	c #DB926C",
"HC	c #D48963",
"IC	c #D28964",
"JC	c #C88561",
"KC	c #9D6A4F",
"LC	c #674638",
"MC	c #342624",
"NC	c #262122",
"OC	c #282324",
"PC	c #1F1A1C",
"QC	c #261F20",
"RC	c #281F1E",
"SC	c #3E2B25",
"TC	c #5B3D30",
"UC	c #523931",
"VC	c #C07F61",
"WC	c #BC7C60",
"XC	c #CB8361",
"YC	c #EEAB87",
"ZC	c #EEAD89",
"`C	c #C27253",
" D	c #C37F63",
".D	c #EFB795",
"+D	c #FCC8A7",
"@D	c #FFC7A7",
"#D	c #E9A381",
"$D	c #DB906F",
"%D	c #D58B6C",
"&D	c #BD7257",
"*D	c #B46B52",
"=D	c #9C5644",
"-D	c #88493C",
";D	c #5F342D",
">D	c #83483A",
",D	c #9B5140",
"'D	c #9A503F",
")D	c #9C5341",
"!D	c #C17359",
"~D	c #AA5F49",
"{D	c #C4755B",
"]D	c #D78A6B",
"^D	c #E29777",
"/D	c #EDA380",
"(D	c #F6AE8C",
"_D	c #FCBE9B",
":D	c #FEC3A2",
"<D	c #FEC29F",
"[D	c #FAB994",
"}D	c #F2A884",
"|D	c #DA906B",
"1D	c #F0B08D",
"2D	c #DCA27F",
"3D	c #705243",
"4D	c #332B2C",
"5D	c #2F2C2F",
"6D	c #2F2B2E",
"7D	c #2A2425",
"8D	c #2D2728",
"9D	c #523F34",
"0D	c #B68361",
"aD	c #D38963",
"bD	c #DA916B",
"cD	c #DC9672",
"dD	c #D88E6C",
"eD	c #D78C6A",
"fD	c #D58A68",
"gD	c #D38767",
"hD	c #CF8665",
"iD	c #C97F5F",
"jD	c #BD7356",
"kD	c #B1684E",
"lD	c #9F5944",
"mD	c #8B4B3B",
"nD	c #723C30",
"oD	c #65332A",
"pD	c #4F2822",
"qD	c #462722",
"rD	c #6D382D",
"sD	c #8F503D",
"tD	c #CC8566",
"uD	c #C88061",
"vD	c #CB8061",
"wD	c #CE8664",
"xD	c #DA946F",
"yD	c #EEAF8C",
"zD	c #EBAB87",
"AD	c #DA926C",
"BD	c #D9926B",
"CD	c #CE936D",
"DD	c #855F4A",
"ED	c #2B2323",
"FD	c #252223",
"GD	c #292222",
"HD	c #B4785C",
"ID	c #BF8162",
"JD	c #BA7B5F",
"KD	c #C68464",
"LD	c #CB8867",
"MD	c #CE8866",
"ND	c #CD8664",
"OD	c #D48C69",
"PD	c #E5A07B",
"QD	c #EDAA85",
"RD	c #EBAA86",
"SD	c #FABE9C",
"TD	c #FDC5A4",
"UD	c #F8B895",
"VD	c #E09A79",
"WD	c #C57A5D",
"XD	c #AD644C",
"YD	c #824639",
"ZD	c #65362E",
"`D	c #6A362D",
" E	c #7A3C31",
".E	c #7A3D31",
"+E	c #8F4B3C",
"@E	c #9C5441",
"#E	c #B86C53",
"$E	c #C87C5F",
"%E	c #D68969",
"&E	c #E19573",
"*E	c #E69C79",
"=E	c #F4AE8A",
"-E	c #F8B48F",
";E	c #F4B08B",
">E	c #EDA682",
",E	c #E9A17D",
"'E	c #EAA985",
")E	c #D99D77",
"!E	c #584137",
"~E	c #363234",
"{E	c #373335",
"]E	c #373435",
"^E	c #302E2F",
"/E	c #3B393A",
"(E	c #433E3F",
"_E	c #373134",
":E	c #2C2627",
"<E	c #2E2828",
"[E	c #2F2627",
"}E	c #8F6349",
"|E	c #DD9670",
"1E	c #DB9572",
"2E	c #D48B69",
"3E	c #C77E5E",
"4E	c #C47A5B",
"5E	c #C07457",
"6E	c #BC6D51",
"7E	c #BF7154",
"8E	c #C17558",
"9E	c #C3785A",
"0E	c #C2785B",
"aE	c #AE674E",
"bE	c #9A5541",
"cE	c #7E4234",
"dE	c #6E392E",
"eE	c #5A2E26",
"fE	c #4E2923",
"gE	c #724031",
"hE	c #B66D53",
"iE	c #C17A5D",
"jE	c #C47B5D",
"kE	c #C57C5E",
"lE	c #BE7557",
"mE	c #B97054",
"nE	c #BC7154",
"oE	c #C17758",
"pE	c #CB8463",
"qE	c #D38D6B",
"rE	c #D58F6E",
"sE	c #DE9B79",
"tE	c #E19F7D",
"uE	c #E3A280",
"vE	c #E4A480",
"wE	c #E4A37E",
"xE	c #E8A783",
"yE	c #ECAD89",
"zE	c #DC946F",
"AE	c #D8956E",
"BE	c #90684E",
"CE	c #332929",
"DE	c #2F2829",
"EE	c #AA7056",
"FE	c #BE7F62",
"GE	c #C38364",
"HE	c #B47457",
"IE	c #C4805E",
"JE	c #D18D69",
"KE	c #D38D69",
"LE	c #D8916D",
"ME	c #EAA57F",
"NE	c #E8A681",
"OE	c #F6B590",
"PE	c #FABD9B",
"QE	c #F8BC99",
"RE	c #F7BA98",
"SE	c #D08768",
"TE	c #AF6850",
"UE	c #995643",
"VE	c #834739",
"WE	c #62352D",
"XE	c #603028",
"YE	c #6C362D",
"ZE	c #6A342B",
"`E	c #804134",
" F	c #924E3D",
".F	c #A55D48",
"+F	c #B0634C",
"@F	c #C4775A",
"#F	c #E39A77",
"$F	c #E39975",
"%F	c #E49B77",
"&F	c #E09773",
"*F	c #DB9A76",
"=F	c #694D3E",
"-F	c #282123",
";F	c #393335",
">F	c #262425",
",F	c #3D3A3A",
"'F	c #4E4A4A",
")F	c #575454",
"!F	c #353436",
"~F	c #2C2828",
"{F	c #302D2E",
"]F	c #292325",
"^F	c #8B6148",
"/F	c #D28B66",
"(F	c #D99470",
"_F	c #D08A68",
":F	c #C27A5A",
"<F	c #BD7354",
"[F	c #B56B4F",
"}F	c #AB6348",
"|F	c #A45C45",
"1F	c #A35B43",
"2F	c #A95E46",
"3F	c #B0654B",
"4F	c #BE7558",
"5F	c #C1785B",
"6F	c #C0795B",
"7F	c #A05B46",
"8F	c #793F32",
"9F	c #4B2A24",
"0F	c #92523E",
"aF	c #A9644D",
"bF	c #B16B51",
"cF	c #BB7456",
"dF	c #BE7657",
"eF	c #B86F53",
"fF	c #AE674C",
"gF	c #AC654B",
"hF	c #B0674C",
"iF	c #B1684D",
"jF	c #B0684D",
"kF	c #B87154",
"lF	c #BE7759",
"mF	c #CD906C",
"nF	c #5D4638",
"oF	c #CA8765",
"pF	c #A76C51",
"qF	c #AE7155",
"rF	c #A97456",
"sF	c #AA7659",
"tF	c #AF795B",
"uF	c #B07B5C",
"vF	c #B88060",
"wF	c #CD8F69",
"xF	c #DB936B",
"yF	c #D68F69",
"zF	c #D68D68",
"AF	c #E7A27C",
"BF	c #F0AE8A",
"CF	c #F3B28E",
"DF	c #F2B18D",
"EF	c #F0AE8C",
"FF	c #A35F49",
"GF	c #935340",
"HF	c #542A23",
"IF	c #67332A",
"JF	c #733B2F",
"KF	c #814336",
"LF	c #904D3C",
"MF	c #A35A44",
"NF	c #B3694F",
"OF	c #CC8161",
"PF	c #CD8161",
"QF	c #CE8262",
"RF	c #CA7E5E",
"SF	c #CD8261",
"TF	c #D28866",
"UF	c #D99370",
"VF	c #D7926F",
"WF	c #D68F6C",
"XF	c #D9916E",
"YF	c #7E5946",
"ZF	c #2A2426",
"`F	c #393536",
" G	c #4B4848",
".G	c #444143",
"+G	c #4A4649",
"@G	c #514D4E",
"#G	c #5A5455",
"$G	c #645F60",
"%G	c #656060",
"&G	c #635D5D",
"*G	c #615C5B",
"=G	c #595452",
"-G	c #494544",
";G	c #383535",
">G	c #1A1819",
",G	c #343030",
"'G	c #2A2627",
")G	c #2A2223",
"!G	c #935F47",
"~G	c #C67D5B",
"{G	c #BC7457",
"]G	c #A35C45",
"^G	c #9D5741",
"/G	c #99543F",
"(G	c #9A553F",
"_G	c #9E5841",
":G	c #9F5A43",
"<G	c #A15D44",
"[G	c #A86148",
"}G	c #B16A4F",
"|G	c #B66F53",
"1G	c #B97255",
"2G	c #B46D53",
"3G	c #AE6850",
"4G	c #AF6950",
"5G	c #8E4F3E",
"6G	c #5B2E26",
"7G	c #60352B",
"8G	c #753E32",
"9G	c #804638",
"0G	c #A46047",
"aG	c #AC674C",
"bG	c #B47053",
"cG	c #B36E52",
"dG	c #B16B50",
"eG	c #AD674D",
"fG	c #A55F47",
"gG	c #A05B45",
"hG	c #B0674B",
"iG	c #B36A4D",
"jG	c #C07657",
"kG	c #C08C6B",
"lG	c #2F2525",
"mG	c #2B2727",
"nG	c #9E6950",
"oG	c #6C4B3B",
"pG	c #312727",
"qG	c #30292C",
"rG	c #2B2629",
"sG	c #332B2D",
"tG	c #2E2728",
"uG	c #46332D",
"vG	c #BA7D5B",
"wG	c #DA936C",
"xG	c #DC936E",
"yG	c #E39C76",
"zG	c #DD936E",
"AG	c #DC926D",
"BG	c #DE9775",
"CG	c #D58C6B",
"DG	c #D28766",
"EG	c #CC7F5F",
"FG	c #C67A5D",
"GG	c #B56F56",
"HG	c #8C4E3F",
"IG	c #6E3A2F",
"JG	c #4F2923",
"KG	c #4D2721",
"LG	c #572A23",
"MG	c #623027",
"NG	c #6B352B",
"OG	c #773C30",
"PG	c #884939",
"QG	c #B1684F",
"RG	c #C1775B",
"SG	c #C17659",
"TG	c #BB7053",
"UG	c #B56A4F",
"VG	c #B66C51",
"WG	c #BA7053",
"XG	c #BD7254",
"YG	c #C27758",
"ZG	c #C17859",
"`G	c #BD7355",
" H	c #B76B4F",
".H	c #B1664B",
"+H	c #AF664B",
"@H	c #B36A4E",
"#H	c #B3694D",
"$H	c #B86F51",
"%H	c #C07656",
"&H	c #AC6E51",
"*H	c #201B1D",
"=H	c #241F20",
"-H	c #2E2C2E",
";H	c #504C4D",
">H	c #4E4B4C",
",H	c #434142",
"'H	c #565353",
")H	c #5D5A5A",
"!H	c #5C5858",
"~H	c #282021",
"{H	c #86503B",
"]H	c #9C5A41",
"^H	c #8F4F3B",
"/H	c #92513C",
"(H	c #93523D",
"_H	c #95533E",
":H	c #9A5640",
"<H	c #A25E45",
"[H	c #A76349",
"}H	c #A9654A",
"|H	c #AD694D",
"1H	c #B06B50",
"2H	c #A7644A",
"3H	c #9E5B45",
"4H	c #965541",
"5H	c #894C3A",
"6H	c #814736",
"7H	c #633329",
"8H	c #462520",
"9H	c #593027",
"0H	c #68372C",
"aH	c #6C392E",
"bH	c #7D4536",
"cH	c #8F513D",
"dH	c #A26048",
"eH	c #AF6C4F",
"fH	c #B77354",
"gH	c #BA7556",
"hH	c #B97455",
"iH	c #B67053",
"jH	c #AA654B",
"kH	c #A15C44",
"lH	c #A25C44",
"mH	c #AA6348",
"nH	c #C37C5B",
"oH	c #CE8663",
"pH	c #BC8866",
"qH	c #2D2423",
"rH	c #2C2626",
"sH	c #2C2929",
"tH	c #2B2426",
"uH	c #2F2929",
"vH	c #322C2D",
"wH	c #2D2729",
"xH	c #43302A",
"yH	c #AA7A5B",
"zH	c #DA9972",
"AH	c #E09B74",
"BH	c #E39E78",
"CH	c #E7A682",
"DH	c #C57B5B",
"EH	c #BF7558",
"FH	c #C27658",
"GH	c #C0765A",
"HH	c #6E3B30",
"IH	c #512A25",
"JH	c #4F2820",
"KH	c #562921",
"LH	c #5F2F26",
"MH	c #A46048",
"NH	c #BE7356",
"OH	c #BA7254",
"PH	c #B66D51",
"QH	c #B56C4F",
"RH	c #AD654A",
"SH	c #A96148",
"TH	c #A65E45",
"UH	c #9B5741",
"VH	c #95533D",
"WH	c #A76146",
"XH	c #BC7556",
"YH	c #442D25",
"ZH	c #1E191A",
"`H	c #252222",
" I	c #393436",
".I	c #272628",
"+I	c #4B4849",
"@I	c #524F4F",
"#I	c #444040",
"$I	c #1C1A1B",
"%I	c #1A1718",
"&I	c #291C1B",
"*I	c #92543E",
"=I	c #8B4E3A",
"-I	c #955640",
";I	c #9B5A43",
">I	c #A05F46",
",I	c #AC694D",
"'I	c #AD6A4E",
")I	c #AC694E",
"!I	c #A7664C",
"~I	c #A46249",
"{I	c #995842",
"]I	c #864938",
"^I	c #7B4333",
"/I	c #743E31",
"(I	c #67362B",
"_I	c #542A22",
":I	c #47251F",
"<I	c #522D25",
"[I	c #5D3128",
"}I	c #69382E",
"|I	c #743F31",
"1I	c #844A39",
"2I	c #91533F",
"3I	c #A56349",
"4I	c #BA7657",
"5I	c #B77557",
"6I	c #B47153",
"7I	c #A86349",
"8I	c #A55F46",
"9I	c #B17657",
"0I	c #231F20",
"aI	c #1C191A",
"bI	c #413E3E",
"cI	c #4A4645",
"dI	c #4D4949",
"eI	c #565253",
"fI	c #555152",
"gI	c #4E4A4B",
"hI	c #555153",
"iI	c #292326",
"jI	c #2C262A",
"kI	c #312C30",
"lI	c #373132",
"mI	c #332D2E",
"nI	c #322C2E",
"oI	c #292225",
"pI	c #554035",
"qI	c #BF8865",
"rI	c #DD9972",
"sI	c #DD9872",
"tI	c #E6A683",
"uI	c #C98263",
"vI	c #C17658",
"wI	c #B1674D",
"xI	c #B1674E",
"yI	c #BD7658",
"zI	c #C07659",
"AI	c #C07759",
"BI	c #B06A51",
"CI	c #985744",
"DI	c #5D332C",
"EI	c #824838",
"FI	c #AB644D",
"GI	c #B06950",
"HI	c #B56D52",
"II	c #B97155",
"JI	c #BD7558",
"KI	c #BC7658",
"LI	c #BD7659",
"MI	c #BF785A",
"NI	c #BA7356",
"OI	c #B56F52",
"PI	c #B56E52",
"QI	c #B06A4E",
"RI	c #AC654A",
"SI	c #A96248",
"TI	c #A66147",
"UI	c #A35F46",
"VI	c #9F5D44",
"WI	c #975640",
"XI	c #9F5C43",
"YI	c #764736",
"ZI	c #221D1E",
"`I	c #201C1D",
" J	c #272223",
".J	c #272324",
"+J	c #2D2C30",
"@J	c #595658",
"#J	c #484548",
"$J	c #474546",
"%J	c #1E1B1D",
"&J	c #1B1617",
"*J	c #5F372C",
"=J	c #A16046",
"-J	c #A6644A",
";J	c #A5654A",
">J	c #A9684E",
",J	c #AB684D",
"'J	c #AA694D",
")J	c #A6654A",
"!J	c #9E5E46",
"~J	c #965842",
"{J	c #8C513D",
"]J	c #834A38",
"^J	c #6B382C",
"/J	c #66352A",
"(J	c #5E3228",
"_J	c #542C24",
":J	c #3F201B",
"<J	c #6C3B2D",
"[J	c #764233",
"}J	c #7E4736",
"|J	c #8B503C",
"1J	c #9B5C44",
"2J	c #AC6B4E",
"3J	c #B67455",
"4J	c #BA7758",
"5J	c #BB7859",
"6J	c #BE7A5A",
"7J	c #BF7A5A",
"8J	c #BC7857",
"9J	c #B46E50",
"0J	c #AD6B4E",
"aJ	c #AC6A4E",
"bJ	c #2B201F",
"cJ	c #231D1F",
"dJ	c #262222",
"eJ	c #2B282B",
"fJ	c #3A3839",
"gJ	c #4C494A",
"hJ	c #423F42",
"iJ	c #393334",
"jJ	c #363131",
"kJ	c #2D2426",
"lJ	c #91684E",
"mJ	c #DE9971",
"nJ	c #E0A07E",
"oJ	c #CC8565",
"pJ	c #A86149",
"qJ	c #AD644B",
"rJ	c #BD7457",
"sJ	c #AB674D",
"tJ	c #92523F",
"uJ	c #743F33",
"vJ	c #7E4435",
"wJ	c #90503D",
"xJ	c #A45F47",
"yJ	c #A7654A",
"zJ	c #C27E5D",
"AJ	c #C37E5E",
"BJ	c #C27E5C",
"CJ	c #C07A5A",
"DJ	c #BE7858",
"EJ	c #BA7455",
"FJ	c #BB7555",
"GJ	c #B67052",
"HJ	c #B26D50",
"IJ	c #A66448",
"JJ	c #9F5D43",
"KJ	c #1C1213",
"LJ	c #141111",
"MJ	c #171414",
"NJ	c #1A1616",
"OJ	c #1E1A1A",
"PJ	c #221F1F",
"QJ	c #262223",
"RJ	c #2A2626",
"SJ	c #191819",
"TJ	c #393738",
"UJ	c #2D2C2E",
"VJ	c #565456",
"WJ	c #3C3B3C",
"XJ	c #252325",
"YJ	c #1A191A",
"ZJ	c #191618",
"`J	c #181517",
" K	c #191416",
".K	c #1E1617",
"+K	c #955A42",
"@K	c #A06148",
"#K	c #945742",
"$K	c #985B44",
"%K	c #91553F",
"&K	c #884D3A",
"*K	c #7F4636",
"=K	c #774233",
"-K	c #62332A",
";K	c #5B3026",
">K	c #4D2821",
",K	c #3E221D",
"'K	c #532E25",
")K	c #5F3328",
"!K	c #693A2D",
"~K	c #6F3C2F",
"{K	c #814938",
"]K	c #8C523D",
"^K	c #9D5E46",
"/K	c #AB6A4F",
"(K	c #AF6E52",
"_K	c #B67557",
":K	c #B97657",
"<K	c #BF7C5B",
"[K	c #B87454",
"}K	c #5A382C",
"|K	c #242121",
"1K	c #1C191C",
"2K	c #333133",
"3K	c #4C494B",
"4K	c #252428",
"5K	c #494647",
"6K	c #3B393D",
"7K	c #343134",
"8K	c #2B272A",
"9K	c #3E3839",
"0K	c #272023",
"aK	c #282225",
"bK	c #825C46",
"cK	c #D9946E",
"dK	c #CC8867",
"eK	c #C37E5F",
"fK	c #B87053",
"gK	c #A65F47",
"hK	c #A9634A",
"iK	c #AB654C",
"jK	c #AF6A4F",
"kK	c #B77054",
"lK	c #BC7557",
"mK	c #BA7557",
"nK	c #B36E53",
"oK	c #945440",
"pK	c #804636",
"qK	c #6A382E",
"rK	c #532D26",
"sK	c #61362B",
"tK	c #613129",
"uK	c #6E392D",
"vK	c #794032",
"wK	c #8C4F3C",
"xK	c #9C5B44",
"yK	c #A46148",
"zK	c #A46349",
"AK	c #B26E52",
"BK	c #BF7A5B",
"CK	c #C17C5C",
"DK	c #C37D5D",
"EK	c #C37D5C",
"FK	c #BC7859",
"GK	c #B36F51",
"HK	c #854F38",
"IK	c #100C0E",
"JK	c #120F10",
"KK	c #151212",
"LK	c #181516",
"MK	c #191616",
"NK	c #1D191A",
"OK	c #383739",
"PK	c #333334",
"QK	c #373637",
"RK	c #3C393A",
"SK	c #101011",
"TK	c #161314",
"UK	c #563125",
"VK	c #834C39",
"WK	c #774434",
"XK	c #764334",
"YK	c #734030",
"ZK	c #6E3D2F",
"`K	c #6A3A2C",
" L	c #66382B",
".L	c #5C3228",
"+L	c #5C3127",
"@L	c #542C23",
"#L	c #45241E",
"$L	c #603529",
"%L	c #66382C",
"&L	c #6F3E30",
"*L	c #764333",
"=L	c #7F4937",
"-L	c #8B533E",
";L	c #975B43",
">L	c #A6684C",
",L	c #B97656",
"'L	c #BB7655",
")L	c #8D5842",
"!L	c #1C1618",
"~L	c #1C1818",
"{L	c #312F32",
"]L	c #313034",
"^L	c #3B3536",
"/L	c #393433",
"(L	c #292223",
"_L	c #5D4133",
":L	c #BB7857",
"<L	c #AA664B",
"[L	c #A35F47",
"}L	c #9F5B43",
"|L	c #A35E46",
"1L	c #AA654A",
"2L	c #B26C50",
"3L	c #B97457",
"4L	c #AD694E",
"5L	c #975742",
"6L	c #894E3C",
"7L	c #804635",
"8L	c #6E3A2D",
"9L	c #512C25",
"0L	c #703A2D",
"aL	c #7A4333",
"bL	c #864C39",
"cL	c #8D503C",
"dL	c #955740",
"eL	c #9A5B43",
"fL	c #AE6C4E",
"gL	c #BA7655",
"hL	c #B87455",
"iL	c #B77353",
"jL	c #B87150",
"kL	c #371F17",
"lL	c #141010",
"mL	c #130F10",
"nL	c #171314",
"oL	c #1A1717",
"pL	c #080609",
"qL	c #413E40",
"rL	c #494848",
"sL	c #2D2B2D",
"tL	c #1E1D1E",
"uL	c #110B0C",
"vL	c #5B3227",
"wL	c #5D3226",
"xL	c #5A3126",
"yL	c #502C23",
"zL	c #4F2921",
"AL	c #40211B",
"BL	c #66392C",
"CL	c #703F31",
"DL	c #754435",
"EL	c #7D4938",
"FL	c #8E543F",
"GL	c #9F6047",
"HL	c #AB6A4D",
"IL	c #AB6A4E",
"JL	c #211717",
"KL	c #171315",
"LL	c #3F3D3F",
"ML	c #131419",
"NL	c #565252",
"OL	c #585454",
"PL	c #5C5857",
"QL	c #5A5554",
"RL	c #585352",
"SL	c #565150",
"TL	c #4E4B49",
"UL	c #433F3E",
"VL	c #363232",
"WL	c #201A1C",
"XL	c #56342A",
"YL	c #9C5C43",
"ZL	c #9B5A44",
"`L	c #9F5D46",
" M	c #A25F46",
".M	c #AD684D",
"+M	c #BA7658",
"@M	c #C17E5F",
"#M	c #B87557",
"$M	c #B57155",
"%M	c #955742",
"&M	c #754133",
"*M	c #4B2721",
"=M	c #5F3327",
"-M	c #6A392C",
";M	c #754031",
">M	c #7D4535",
",M	c #7C4535",
"'M	c #8D513C",
")M	c #9D5C44",
"!M	c #A26046",
"~M	c #A36247",
"{M	c #AA684B",
"]M	c #9C5D43",
"^M	c #110E0E",
"/M	c #3B3D3F",
"(M	c #121112",
"_M	c #45271F",
":M	c #4B2921",
"<M	c #4F2B22",
"[M	c #502B22",
"}M	c #512C22",
"|M	c #4F2B21",
"1M	c #48261F",
"2M	c #46241D",
"3M	c #41231D",
"4M	c #4A2921",
"5M	c #532C23",
"6M	c #5C3227",
"7M	c #62372C",
"8M	c #64392D",
"9M	c #854D3A",
"0M	c #693F2F",
"aM	c #262324",
"bM	c #312E30",
"cM	c #0F1015",
"dM	c #5C5A5A",
"eM	c #5A5858",
"fM	c #5A5857",
"gM	c #5C5A59",
"hM	c #5A5757",
"iM	c #4D494A",
"jM	c #1A1618",
"kM	c #1F191B",
"lM	c #1D181A",
"mM	c #683E30",
"nM	c #A36148",
"oM	c #B26F52",
"pM	c #BC7A5B",
"qM	c #C28060",
"rM	c #BD7B5C",
"sM	c #A06249",
"tM	c #995A43",
"uM	c #884E3B",
"vM	c #7C4635",
"wM	c #582D24",
"xM	c #41211C",
"yM	c #552D23",
"zM	c #67372B",
"AM	c #67382B",
"BM	c #69392B",
"CM	c #6C3B2E",
"DM	c #6F3D2E",
"EM	c #734031",
"FM	c #774232",
"GM	c #884E39",
"HM	c #6C3C2C",
"IM	c #0C080A",
"JM	c #0F0C0C",
"KM	c #120F0F",
"LM	c #131111",
"MM	c #181617",
"NM	c #2C2A2B",
"OM	c #313032",
"PM	c #4E4E4F",
"QM	c #100F10",
"RM	c #351E18",
"SM	c #3F221B",
"TM	c #45241D",
"UM	c #45251D",
"VM	c #43241D",
"WM	c #371D17",
"XM	c #331D17",
"YM	c #47261F",
"ZM	c #4F2A21",
"`M	c #542F26",
" N	c #573027",
".N	c #593227",
"+N	c #181010",
"@N	c #3E3C3F",
"#N	c #403F40",
"$N	c #3D3B3B",
"%N	c #191516",
"&N	c #895540",
"*N	c #B47355",
"=N	c #BA7858",
"-N	c #BC7B5C",
";N	c #B77658",
">N	c #A6664C",
",N	c #905540",
"'N	c #7F4939",
")N	c #713E31",
"!N	c #6A3A2E",
"~N	c #562F26",
"{N	c #3E201B",
"]N	c #5B3126",
"^N	c #5E3227",
"/N	c #66372B",
"(N	c #65372A",
"_N	c #5F3227",
":N	c #5A3025",
"<N	c #603428",
"[N	c #331B16",
"}N	c #0C0909",
"|N	c #0E0C0C",
"1N	c #110F0F",
"2N	c #161313",
"3N	c #2B292A",
"4N	c #3C3A3B",
"5N	c #424346",
"6N	c #5D5C5C",
"7N	c #656363",
"8N	c #686565",
"9N	c #605E5E",
"0N	c #605D5D",
"aN	c #39393A",
"bN	c #141314",
"cN	c #0F0F10",
"dN	c #0C0B0C",
"eN	c #241411",
"fN	c #361E18",
"gN	c #381E19",
"hN	c #3D1F19",
"iN	c #3B1E18",
"jN	c #341C17",
"kN	c #44251D",
"lN	c #47261E",
"mN	c #4B2A22",
"nN	c #4E2A22",
"oN	c #452720",
"pN	c #120E10",
"qN	c #1E1C1D",
"rN	c #1A181B",
"sN	c #1C1B1F",
"tN	c #373537",
"uN	c #18191E",
"vN	c #2E2E30",
"wN	c #2E2D2E",
"xN	c #19191A",
"yN	c #2A1C19",
"zN	c #B17153",
"AN	c #B27153",
"BN	c #A7674C",
"CN	c #915740",
"DN	c #7D4836",
"EN	c #6D3E30",
"FN	c #6A3C2F",
"GN	c #6C3C2F",
"HN	c #67392C",
"IN	c #65382C",
"JN	c #593127",
"KN	c #44251F",
"LN	c #582F24",
"MN	c #592F24",
"NN	c #572E24",
"ON	c #552D22",
"PN	c #4F2920",
"QN	c #4A271E",
"RN	c #48261D",
"SN	c #1E0F0D",
"TN	c #090606",
"UN	c #0B0808",
"VN	c #100D0D",
"WN	c #5A5758",
"XN	c #5F5C5C",
"YN	c #5D595A",
"ZN	c #39383C",
"`N	c #5A595A",
" O	c #5D595B",
".O	c #5A5759",
"+O	c #3A3A3B",
"@O	c #080708",
"#O	c #0F090A",
"$O	c #251411",
"%O	c #271512",
"&O	c #2B1612",
"*O	c #3E231C",
"=O	c #3F221C",
"-O	c #301A16",
";O	c #2C2A2C",
">O	c #2A292D",
",O	c #272529",
"'O	c #5C595B",
")O	c #2F2E2F",
"!O	c #141013",
"~O	c #7A4B39",
"{O	c #9C5E45",
"]O	c #61372C",
"^O	c #63372B",
"/O	c #5F3529",
"(O	c #48261E",
"_O	c #49251E",
":O	c #4B271F",
"<O	c #4D281F",
"[O	c #4A261E",
"}O	c #47251D",
"|O	c #44231C",
"1O	c #42221C",
"2O	c #170C0B",
"3O	c #0C0A0A",
"4O	c #29282C",
"5O	c #050607",
"6O	c #090709",
"7O	c #140D0D",
"8O	c #39241E",
"9O	c #1C1111",
"0O	c #2F2E30",
"aO	c #3D3A3D",
"bO	c #37363A",
"cO	c #444445",
"dO	c #515151",
"eO	c #4E4D50",
"fO	c #635F60",
"gO	c #282829",
"hO	c #2A292A",
"iO	c #201F20",
"jO	c #170F0F",
"kO	c #683B2E",
"lO	c #583127",
"mO	c #593228",
"nO	c #583228",
"oO	c #563027",
"pO	c #562F25",
"qO	c #4F2A22",
"rO	c #42241E",
"sO	c #3D2019",
"tO	c #3F2118",
"uO	c #3E1F18",
"vO	c #3A1D17",
"wO	c #3B1D17",
"xO	c #1C0E0C",
"yO	c #090707",
"zO	c #060608",
"AO	c #0D0D0E",
"BO	c #0D0C0D",
"CO	c #0A090A",
"DO	c #130F0F",
"EO	c #181819",
"FO	c #4A474A",
"GO	c #4D4A4C",
"HO	c #3C3B3F",
"IO	c #403E42",
"JO	c #615F60",
"KO	c #676465",
"LO	c #676464",
"MO	c #242325",
"NO	c #1B1A1C",
"OO	c #3B211C",
"PO	c #522E25",
"QO	c #4E2B23",
"RO	c #48271F",
"SO	c #3D221C",
"TO	c #170D0C",
"UO	c #29292A",
"VO	c #0D0D0F",
"WO	c #050406",
"XO	c #060505",
"YO	c #070507",
"ZO	c #151010",
"`O	c #3E3D41",
" P	c #545255",
".P	c #5E5C5E",
"+P	c #5F5C5E",
"@P	c #5B585A",
"#P	c #211210",
"$P	c #44261F",
"%P	c #46271F",
"&P	c #44251E",
"*P	c #3B201A",
"=P	c #060405",
"-P	c #080606",
";P	c #0A0909",
">P	c #151415",
",P	c #1B1B1D",
"'P	c #565557",
")P	c #5B595B",
"!P	c #626062",
"~P	c #656364",
"{P	c #030405",
"]P	c #060506",
"^P	c #060406",
"/P	c #151011",
"(P	c #131114",
"_P	c #565457",
":P	c #0A0709",
"<P	c #381F1B",
"[P	c #3C211B",
"}P	c #3C201B",
"|P	c #351C18",
"1P	c #311D18",
"2P	c #242225",
"3P	c #2B292C",
"4P	c #3D3E3F",
"5P	c #404142",
"6P	c #5C5B5B",
"7P	c #605F5F",
"8P	c #272728",
"9P	c #040406",
"0P	c #050404",
"aP	c #100A0B",
"bP	c #575658",
"cP	c #3E3F40",
"dP	c #281613",
"eP	c #2A1712",
"fP	c #2A1713",
"gP	c #0E0808",
"hP	c #070606",
"iP	c #202021",
"jP	c #2F2D30",
"kP	c #383639",
"lP	c #050405",
"mP	c #181313",
"nP	c #383839",
"oP	c #161617",
"pP	c #09090A",
"qP	c #1C110F",
"rP	c #120B0B",
"sP	c #2C2B2D",
"tP	c #666464",
"uP	c #696666",
"vP	c #060709",
"wP	c #020203",
"xP	c #040305",
"yP	c #040204",
"zP	c #4B494C",
"AP	c #323334",
"BP	c #313132",
"CP	c #070707",
"DP	c #070304",
"EP	c #686566",
"FP	c #6A6768",
"GP	c #676565",
"HP	c #666364",
"IP	c #010102",
"JP	c #110C0D",
"KP	c #414243",
"LP	c #454347",
"MP	c #3B3B3C",
"NP	c #4F4E4E",
"OP	c #666363",
"PP	c #646262",
"QP	c #4E4E4E",
"RP	c #3D3D3E",
"SP	c #050608",
"TP	c #28272B",
"UP	c #4D4A4D",
"VP	c #555255",
"WP	c #434246",
"XP	c #130C0C",
"YP	c #09070A",
"ZP	c #141415",
"`P	c #010202",
" Q	c #030305",
".Q	c #504F52",
"+Q	c #040405",
"@Q	c #080406",
"#Q	c #252526",
"$Q	c #5E5B5D",
"%Q	c #4E4E50",
"&Q	c #3F3E42",
"*Q	c #575558",
"=Q	c #131314",
"-Q	c #0A0607",
";Q	c #100A0A",
">Q	c #0A0707",
",Q	c #0D0B0E",
"'Q	c #605D5F",
")Q	c #010101",
"!Q	c #545355",
"~Q	c #525053",
"{Q	c #605E60",
"]Q	c #050508",
"^Q	c #2C2C2E",
"/Q	c #5F5D5F",
"(Q	c #535053",
"_Q	c #3A3B3C",
":Q	c #121010",
"<Q	c #100F13",
"[Q	c #535354",
"}Q	c #373839",
"|Q	c #020405",
"1Q	c #474849",
"2Q	c #030407",
"3Q	c #020406",
"4Q	c #0C0C0C",
"5Q	c #302E31",
"6Q	c #535154",
"7Q	c #414044",
"8Q	c #4D4C4F",
"9Q	c #020305",
"0Q	c #030306",
"aQ	c #121216",
"bQ	c #0D0F14",
"cQ	c #615E60",
"dQ	c #636062",
"eQ	c #666263",
"fQ	c #100D10",
"gQ	c #1D1C1E",
"hQ	c #444347",
"iQ	c #191A1B",
"jQ	c #3F4041",
"kQ	c #434445",
"lQ	c #1A181C",
"mQ	c #4C4C4E",
"nQ	c #363738",
"oQ	c #101116",
"pQ	c #515153",
"qQ	c #404041",
"rQ	c #38393A",
"sQ	c #1E1D21",
"tQ	c #080B0D",
"uQ	c #0C0C0D",
"vQ	c #171718",
"wQ	c #0C1013",
"xQ	c #0C1012",
"yQ	c #26292B",
"zQ	c #0E0F11",
"AQ	c #14181A",
"BQ	c #05080B",
"CQ	c #070B0E",
"DQ	c #0E1215",
"EQ	c #202126",
"FQ	c #111517",
"GQ	c #181C1E",
"HQ	c #131719",
"IQ	c #060A0C",
"JQ	c #17191E",
"KQ	c #0F1316",
"LQ	c #0E1214",
"MQ	c #080C0F",
"NQ	c #090D10",
"OQ	c #0D1114",
"                                                                                                                                                                                                                                                                                                                                                                                                                                                                                                                                                                                                                                                                                                                                                                                                ",
"                                                                                                                                                                                                                                                                                                                                                                                                                                                                                                                                                                                                                                                                                                                                                                                                ",
"                                                                                                                                                                                                                                                                                                                                                                                                                                                                                                                                                                                                                                                                                                                                                                                                ",
"                                                                                                                                                                                                                                                                                                                                                                                                                                                                                                                                                                                                                                                                                                                                                                                                ",
"                                                                                                                                                                                                                                                                                                                                                                                                                                                                                                                                                                                                                                                                                                                                                                                                ",
"                                                                                                                                                                                                                                                                                                                                                                                                                                                                                                                                                                                                                                                                                                                                                                                                ",
"                                                                                                                                                                                                                                                                                                                                                                                                                                                                                                                                                                                                                                                                                                                                                                                                ",
"                                                                                                                                                                                                                                                                                                                                                                                                                                                                                                                                                                                                                                                                                                                                                                                                ",
"                                                                                                                                                                                                                                                                                                                                                                                                                                                                                                                                                                                                                                                                                                                                                                                                ",
"                                                                                                                                                                                                                                                                                                                                                                                                                                                                                                                                                                                                                                                                                                                                                                                                ",
"                                                                                                                                                                                                                                                                                                                                                                                                                                                                                                                                                                                                                                                                                                                                                                                                ",
"                                                                                                                                                                                                                                                                                                                                                                                                                                                                                                                                                                                                                                                                                                                                                                                                ",
"                                                                                                                                                                                                                                                                                                                                                                                                                                                                                                                                                                                                                                                                                                                                                                                                ",
"                                                                                                                                                                                                                                                                                                                                                                                                                                                                                                                                                                                                                                                                                                                                                                                                ",
"                                                                                                                                                                                                                                                                                                                                                                                                                                                                                                                                                                                                                                                                                                                                                                                                ",
"                                                                                                                                                                                                                                                                                                                                                                                                                                                                                                                                                                                                                                                                                                                                                                                                ",
"                                                                                                                                                                                                                                                                                                                                                                                                                                                                                                                                                                                                                                                                                                                                                                                                ",
"                                                                                                                                                                                                                                                                                                                                                                                                                                                                                                                                                                                                                                                                                                                                                                                                ",
"                                                                                                                                                                                                                                                                                                                                                                                                                                                                                                                                                                                                                                                                                                                                                                                                ",
"                                                                                                                                                                                                                                                                                                                                                                                                                                                                                                                                                                                                                                                                                                                                                                                                ",
"                                                                                                                                                                                                                                                                                                                                                                                                                                                                                                                                                                                                                                                                                                                                                                                                ",
"                                                                                                                                                                                                                                                                                                                                                                                                                                                                                                                                                                                                                                                                                                                                                                                                ",
"                                                                                                                                                                                                                                                                                                                                                                                                                                                                                                                                                                                                                                                                                                                                                                                                ",
"                                                                                                                                                                                                                                                                                                                                                                                                                                                                                                                                                                                                                                                                                                                                                                                                ",
"                                                                                                                                                                                                                                                                                                                                                                                                                                                                                                                                                                                                                                                                                                                                                                                                ",
"                                                                                                                                                                                                                                                                                                                                                                                                                                                                                                                                                                                                                                                                                                                                                                                                ",
"                                                                                                                                                                                                                                                                                                                                                                                                                                                                                                                                                                                                                                                                                                                                                                                                ",
"                                                                                                                                                                                                                                                                                                                                                                                                                                                                                                                                                                                                                                                                                                                                                                                                ",
"                                                                                                                                                                                                                                                                                                                                                                                                                                                                                                                                                                                                                                                                                                                                                                                                ",
"                                                                                                                                                                                                                                                                                                                                                                                                                                                                                                                                                                                                                                                                                                                                                                                                ",
"                                                                                                                                                                                                                                                                                                                                                                                                                                                                                                                                                                                                                                                                                                                                                                                                ",
"                                                                                                                                                                                                                                                                                                                                                                                                                                                                                                                                                                                                                                                                                                                                                                                                ",
"                                                                                                                                                                                                                                                                                                                                                                                                                                                                                                                                        . + @ # $             % & * = -                                                                                                                                                                                                                         ",
"                                                                                                                                                                                                                                                                                                                                                                                                                                                                                                                                      ; > , ' ' ) ! ~ {   ] ^ / ( _ : < [ } |   1 2 3                                                                                                                                                                                                           ",
"                                                                                                                                                                                                                                  4 5 6 7 8                                                                                                                                                                                                                                                                                           9 0 a b c d e f g h i j k l m n o p q r s t u v w x y                                                                                                                                                                                                     ",
"                                                                                                                                                                                                                                  z A B C D E F G H I J K                                                                                                                                                                                                                                                                             L M N O P Q R S T U V W X Y Z ` n  ...+.@.#.$.%.&.*.=.-.                                                                                                                                                                                                  ",
"                                                                                                                                                                                                                                  ;.>.,.'.).!., ~.{.].^./.(._.:.                                                                                                                                                                                                                                                                        <.[.}.|.1.2.3.4.5.6.7.8.9.0.a.b.c.d.e.f.g.h.i.j.k.l.m.n.o.                                                                                                                                                                                              ",
"                                                                                                                                                                                                                                  p.q.r.s.t.u.v.w.x.y.z.A.B.C.D.E.F.                                                                                                                                                                                                                                                                      G.H.I.J.K.L.M.N.O.P.Q.R.S.T.U.V.W.X.Y.Z./ `. +.+++@+#+$+%+                                                                                                                                                                                            ",
"                                                                                                                                                                                                                                    &+*+=+-+;+>+,+'+)+!+~+{+]+^+/+(+_+                                                                                                                                                                                                                                                                        :+<+[+L.}+|+O.g 1+2+3+4+5+6+7+f.8+9+0+a+b+c+d+k.e+f+g+                                                                                                                                                                                            ",
"                                                                                                                                                                                                                                    h+i+j+k+l+m+n+T o+p+q+r+s+t+u+v+w+x+y+z+A+                                                                                                                                                                                                                                                                  B+C+D+E+F+G+H+I+J+K+L+M+N+O+P+Q+R+S+T+U+V+W+X+Y+Z+`+ @.@                                                                                                                                                                                        ",
"                                                                                                                                                                                                                                      +@@@#@$@%@&@f *@=@-@;@V.>@,@'@)@!@~@{@]@^@/@                                                                                                                                                                                                                                                                (@_@:@<@[@}@s.|@1@2@3@4@5@6@7@8@9@0@a@b@c@d@e@f@g@h@i@j@k@l@                                                                                                                                                                                  ",
"                                                                                                                                                                                                                                        m@n@o@p@q@r@s@t@u@v@w@P.x@y@z@A@B@C@D@E@F@G@                                                                                                                                                                                                                                                                H@I@J@K@}@L@Q+M@1+N@O@P@Q@R@S@T@U@V@W@X@Y@Z@`@ #.#+#@###$#%#                                                                                                                                                                                ",
"                                                                                                                                                                                                                                          &#*#=#-#;#>#z@,#'#)#!#~#{#]#)@^#/#{@(#_#n.:#                                                                                                                                                                                                                                                              <#[#}#|#1#2#3#4#5#6#7#8#9#0#9@a#b#c#d#e#f#g#h##.i#j#k#l#m#n#o#                                                                                                                                                                              ",
"                                                                                                                                                                                                                                          p#q#r#s#t#u#v#w#x#y#z#,#A#B#C#D#E#F#@.^@G#H#I#J#                                                                                                                                                                                                                                                            K#L#M#N#K@O#P#Q#R#S#T#U#V#W#X#Y#Z#`# $.$+$@$#$$$%$&$*$=$-$;$                                                                                                                                                                              ",
"                                                                                                                                                                                                                                          >$,$'$)$!$~${$]$*.^$/$($_$4#:$*.<$[$}$|$1$2$3$4$#.5$                                                                                                                                                                                                                                                        6$7$8$9$0$a$b$c$d$e$f$g$h$i$j$k$l$m$n$o$p$q$r$s$t$u$v$w$x$y$z$                                                                                                                                                                            ",
"                                                                                                                                                                                                                                            A$B$C$D$E$F$O#G$H$I$J$K$L$M$U N$O$P$m.Q$R$S$T$r$U$V$                                                                                                                                                                                                                                                        W$X$Y$Z$4.`$ %.%+%@%#%$%%%&%*%=%-%;%@+>%,%'%)%!%%$~%{%]%^%/%                                                                                                                                                                            ",
"                                                                                                                                                                                                                                            (%_%:%<%[%}%|%)$1%2%,.3%4%5%6%2%7%8%9%0%j.a%b%c%d%e%f%                                                                                                                                                                                                                                                      g%h%i%j%9$k%l%m%n%o%p%q%r%s%t%u%E@s v%w%x%y%z%A%B%C%D%E%F%G%H%                                                                                                                                                                          ",
"                                                                                                                                              I%2 J%                                                                                          K%L%M%N%O%P%Q%R%S%T%U%V%W%X%e Y%Z%r$`% &.&+&@&#&c%$&                                                                                                                                                                                                                                                        %&&&*&=&-&;&>&,&'&)&!&~&{&]&^&$$/&(&_&:&<&[&}&|&1&2&3&4&5&6&                                                                                                                                                                          ",
"                                                                                                                                          7&8&B 9&R 0&                                                                                        a&b&c&d&e&f&g&h&i&j&k&l&m&n&o&p&q&r&s&t&u&v&w&x&y&z&A&                                                                                                                                                                                                                                                      B&C&D&E&F&G&H&I&J&K&L&M&N&O&P&Q&t$R&S&T&U&V&W&X&Y&Z&`& *.*+*@*                                                                                                                                                                        ",
"                                                                                                                                        #*, $*%*&***=*                                                                                          H&-*;*>*o%,*'*)*!*~*{*]*^*/*(*_*:*<*s&[*}*|*1*2*3*4*                                                                                                                                                                                                                                                      5*6*7*8*9*0*a*b*c*d*e*f*v%g*h*i*j*k*.&l*m*n*o*p*q*r*s*t*u*v*w*                                                                                                                                                                        ",
"                                                                                                                                      x*y*z*A*B*C*D*                                                                                            E*F*G*H*I*J*K*L*M*N*O*P*)#Q*R*S*T*U*V*W*X*Y*Z*`* =E%.=                                                                                                                                                                                                                                                      +=@=#=$=%=&=*===-=;=>=,=]@'=)=!=~={=]=^=/=(=E%_=:=<=[=}=|=1=2=                                                                                                                                                                      ",
"                                                                                                                          3=4=5=    6=7=6.8=9=0=a=b=                                                                                            c=d=e=f=g=h=i=j=k=l=m=n=]&o=p=q=$$r=s=t=u=v=w=x=y=z=A=B=                                                                                                                                                                                                                                                    C=J$D=E=-=F=-=G=H=I=J=R*K=L=M=A%N=O=P=Q=R=S=T=p*U=V=W=u*X=Y=Z=                                                                                                                                                                      ",
"                                                                                                                      `= -.-+-@-#-$-0+g G+%-&-*-=-                                                                                              --;->-,-'-)-!-~-{-]-^-/-(-_-:-<-]=[-}-|-}&1-2-3-4-5-`*6-7-                                                                                                                                                                                                                                                  8-(-9-0-== #a-b-c-l*m#d-e-K=f-^=g-h-i-j-k-l-m-n-o- *p-q-r-s-t-                                                                                                                                                                      ",
"                                                                                                                    l.=+(#u-v-,-w-x-L@L@y-j$z-A-B-                                                                                              C-D-E-F-~+G-H-{-I-J-K-L-M-N-O-_-D#P-Q-R-S-T-U-V-W-X-Y-W-Z-                                                                                                                                                                                                                  `- ;.;+;@;#;$;%;                8-I#M=&;l*-=*;=;-;;;]=^=>;,;';);!;~;{;];^;/;(;_;:;<;[;};A&|;1;2;                                                                                                                                                                    ",
"                                                                                                                  3;4;5;x@6;7;8;9;0;'.a;b;c;d;e;                                                                                                f;g;h;i;j;k;l;m;n;o;R$l.p;$$q;r;s;4$t;t=u;v;w;x;q-y;z;A;B;                                                                                                                                                                                                                C;[%D;T#E;F;G;H;8@I;J;            K;L;<-M;l*==N;*;==O;P;Q;R;S;T;U;V;W;X;Y;Z;X*`; >.>+>@>#>$>%>&>*>                                                                                                                                                                    ",
"                                                                                                              =>->;>>>,>'>)>!>~>{>]>^>U />(>_>:>                                                                                                <>[>}>|>1>2>3>4>5>6>7>s K+]@;;8>9>0>a>u$b>c>d>e>f>g>h>i>j>k>                                                                                                                                                                                                              l>m>G&n>o>p>q>r>s>t>u>v>w>        x>y>z>M=A>B>B>C>D>O;E>m#E>s;F>G>H>I>U;J>K>L>M>N>O>_;P>Q>R>S>T>U>                                                                                                                                                                    ",
"                                                                                                        V>W>X>Y>w+Z>+.++`> ,.,+,@,W#6.G$#,$,%,&,                                                                                                *,=,-,;,>,3>,,',),!,~,{,],^,/,(,_,:,<,[,},|,1,2,3,X=4,A&5,6,                                                                                                                                                                                                              7,8,9,0,a,b,L&c,T d,e,f,g,h,m     i,j,k,l,m,n,o,p,p,q,r,!;s,Q=t,u,v,w,x,y,z,A,B,C,D,E,F,G,H,I,J,K,L,                                                                                                                                                                  ",
"                                                                                                      M,N,O,P,Q,+.R,g.S,9-T,U,V,a;^>}@'+W,X,Y,                                                                Z,`, '.'                          +'@'#'$'%'&'),0-*'5>='u%`%0%-';'0>>',''')'!'~'{']'^'/'('_':'                                                                                                                                                                                                                <'['}'|'1'2'3'4'5'6'7'+;8'9'0'a'b'c'd'e'f'-$g'h'i'j'P=k'l'm'n'o'p'q'q'r's't'u'v'w'x'y'z'A'B'C'D'E'                                                                                                                                                                  ",
"                                                                                                    F'I=A.A.G'H'I'J'K'-=L'M'N'O'a#P'>.Q'R'S'T'                                                            U'V'W'X'Y'H;Z'`'!  ).)                +)@)#)0-$'*'$)%)&)0-a-*)=)=)-);)>)T;,)')))!)~){)])^)/)Y-()_):)                                                                                                                                                                                                                <)[)})|)1)2)3):@4)5)e,6)7)8)0'9)0)a)b)c)d)e)f)g)h)i)j)t'k-s,k)l)m)n)o)p)p)G>q)r)s)t)u)v)w)x)y)z)A)                                                                                                                                                                ",
"                                                                                                    o;B)A.a-C)D)w E)F)G)H)I)J)K)J)1%L)M)N)O)P)                                                            Q)R)S)T)U)V)R%W)X)Z'Y)Z)`)             !.!+!@!#'#!$!%!&!*!P-;;=!+$-!;!>!0>,!'!m')!!!~!{!]!^!/!(!_!:!                                                                                                                                                                                                                  <![!}!|!1!2!3!4!d#5!6!7!8!9!0!a!b!c!d!e!N>z&2*f!g!h!i!j!s,=!k!l!m!n!o!p!q!r!s!W*t!u!v!w!x!y!z!A!B!                                                                                                                                                              ",
"                                                                                                  C!=']@D!E!X+w.F!X.&.G!H!I!J!K!L!T%M!N!O!P!Q!                                                            R!S!T!U!%,V!W!P#X!Y!Z!`! ~.~          +~@~#~$~%~#'$!&~i#*~$#E>=~-~;~>~,~=~'~)~!~~~{~]~^~)'/~(~_~A;:~                                                                                                                                                                                                                      <~[~}~<.|~1~2~R'3~4~5~6~7~8~9~0~a~b~c~d~c~c~e~f~g~h~i~j~k~V;l~m~)~n~o~h!p~q~r~s~t~u~v~w~x~y~z~A~B~                                                                                                                                                          ",
"                                                                                                  C~L=6+D~q=E~F~G~H~I~J~K~L~M~N~O~P~Q~R~S~T~U~                                                              V~W~X~Y~Z~`~ {.{+{@{#{${%{&{*{      ={-{;{(;>{,{i#'{){!{k-~{{{-~]{^{/{-!({;~_{:{l'<{[{}{|{1{2{3{4{5{                                                                                                                                                                                                                      6{7{8{9{0{a{b{c{d{e{f{g{h{i{S;>;j{k{l{m{n{l{F>o{p{q{=)r{s{t{u{v{j{w{x{y{z{A{B{C{C{y~D{E{F{G{H{I{I{J{                                                                                                                                                      ",
"                                                                                            K{L{M{N{].O{P{Q{R{*.E~S{T{U{*+V{W{X{Y{Z{`{ ].]+]@]                                                                #]$]$]%]&]*]=]-];]>],]'])]0'!]~]{]]]^]/](]_]:]<][]_]}]|]1]k)-~2]3]4]5]6]v&7]8]:{|]9]0]!)a]b](~c]d]                                                                                                                                                                                                                          e]f]g]h]i]j]k]l]m]n]o]p]q]r]s]>;t]R;u]v](,''w]x]=~y]z]A]p{B]C]D]E]F]G]H]F{G]I]J]J]K]L]M]N]M]M]O]M]A~                                                                                                                                                  ",
"                                                                                          P]&'Q]R]==S]:-T]U]2+2@V]a.W]p%4;X]Y]Z]`] ^.^+^L'@^#^                                                                  $^%^&^*^=^-^;^>^,^'^)^!^7)g, ~~^{^]^e'^^/^(^_^:^<^9][^}^7]|^j~1^2]2^3^4^j!5^p!6^7^8^9^0^a^b^c^d^e^                                                                                                                                                                                                                          f^g^h^i^j^k^l^m^n^o^p^q^r^s^t^f'g~l'U;u^v^,~w^;!x^y^z^j-A^B^C^D^E^H]F^I]K]I]G^H^I^J^K^L^O]M^N^M^O^P^                                                                                                                                                ",
"                                                                                        Q^R^F=S^T^U^V^W^/@J%X^Y^Z^`^_& /./+/@/#/$/%/&/Q)*/=/-/                                                                      ;/>/,/'/)/!/O=~/{/]/5)^///L$(/9~_/e):/</[/}/|/1/2/3/j!4/2]5/p'p'6/7]p{7/f~8/9/0/a/b/c/d/e/f/g/h/                                                                                                                                                                                                                            i/j/k/l/m/n/o/p/q/r/r/s/t/u/v/w/x/N>y/`;z/j-m~n~A/B/C/D/E/F/G{G/F^H/G{I/J/J/M^K/L/M/N/O/P/Q/R/S/T/U/                                                                                                                                            ",
"                                                                                        V/-,W/X/Y/Z/`/ (.(+(D#@(#(Z 2+1+$(%(&(*(=(-(;(>(,('()(                              !(~(                                      {(](^(/(((_(:(<([(}(|(|(1(2(3(4(5(6(7(8(9(0(a(b(c(d(3]e(l'(,f(g(u'h(i(j(k(l(l(m(n(o(p(q(q(r(s(t(u(                                                                                                                                                                                                                          v(w(:>x(y(z(A(B(C(D(E(F(G(H(I(J(K(L(M(N(O(c~P(Q(R(S(T(D{n(U(L]G{H/H{H{V(J^W(X(Y(L/M^Z(`( _._+_@_#_$_%_                                                                                                                                        ",
"                                                                                      &_*_=_-_;_>_,_'_)_&;!_n,~_;=0-{_]_`^$=^_R^/_(___:_g*<_[_                      }_|_1_2_3_4_5_6_7_                                    8_9_0_a_b_k,c_d_e_f_.!g_A/l-j'<]h_i_5(j_s)W*k_l_m_n_o_p_w{q_r_s_t_p(u_n(H]v_E^F/F/F^G/w_x_F^y_G{n(                                                                                                                                                                                                                      z_A_B_C_D_E_F_G_H_I_J_I_K_L_M_N_O_P_Q_R_S_T_U_V_u~y~W_X_D{D{F{H/G{Y_Z_`_L^ :Q/Z(.:+:@:#:$:%:&:*:=:-:;:>:;:,:':):!:                                                                                                                            ",
"                                                                                      ~:{:]:^:/:(:_:::<:[:}:|:1:%~2:^,3:7>}>4:5:6:>,7:/_%)9-8:                  D>9:0:a:b:c:d:e:f:g:h:                                        i:j:k:l:m:n:o:p:={q:r:s:t:u:v:u=w:x:y:z:o_A:B:C:D:!%{~E:F:m(p(E{F/x_x_G{x_F^G/G:H/H:M]J]G^I:J:C{                                                                                                                                                                                                                      K:L:M:N:O:P:Q:R:S:T:U:V:W:X:Y:Z:`: <.<+<@<#<$<%<&<*<=<x~F{E{F^G{O^J/R/-<;<><,<'<)<#:!<=:~<{<]<^</<(<_<:<<<[<}<|<1<2<                                                                                                                        ",
"                                                                                    3<o#4<5<6<7<8<9<0<a<b<c<d<e<f<g<h<T*i<j<&'6:k<6:k@l<0-m<n<                |_o<8=p<q<E$r<F-_%s<t<u<                                            v<y(w<x<y<z<D(A<B<C<C(D<E<F<!'G<H<<^I<J<K<L<M<1]N<O<F/F/x_F{F/F^F^I/H{H/P<M]I/V(O]Q<N]R/R<S<T<                                                                                                                                                                                                                      U<V<W<X<Y<Z<`< [.[+[@[#[$[u)X:%[&[*[=[-[;[>[,['[)[)[![y~~[y_J:I/{[R<][^[/[([_[_[:[<[-:[[}[|[1[2[3[3[4[5[6[7[8[9[0[a[b[                                                                                                                    ",
"                                                                                    c[d[e[f[g[h[i[j[k[l[u=m[n[o[p[q[s;X@o,r[&'&'B>F=G=s[j<t[G@            /&h,u[, v[w[x[y[z[A[B[C[D[E[                                              F[G[H[I[J[K[L[M[N[O[P[Q[R[S[T[U[V[W[X[W*Y[Z[`[ }q(.}v_F{D{x_y_F^N]O]M]J/K/L^+}-<M^@}R/#}$}G^%}v~                                                                                                                                                                                                                      &}*}=}-};}>},}'})}!}~}{}]}^}/}(}_}:}<}[},[}}}}|}1}2}D{3}4}I:5}6} :&:7}([8}:[9}0}9}-:a}(<b}c}d}6[7[e}f}f}g}h}i}j}k}l}                                                                                                                  ",
"                                                                                    m}n}o}p}q}l@ *r}l[s}e)f!!%t}s{t]}*u}p,v}&'&'D>j<w}x}y}z}A}          B}C}D}@;|+M.E}F}G}H}I}J}K}L}M}                                              N}O}P}Q}R}S}T}U}V}W}&$X}Y}Z}`} |.|+|@|#|$|%|&|*|![x~E{y_I:v_y_H{J:J/O]{[Y(=|-|;|>|,|'|;:)|!|~|{|]|                                                                                                                                                                                                                      ^|/|(|_|:|<|[|}|||1|2|3|4|5|6|7|8|9|0|a|b|'[c|d|x~e|f|g|h|i|j|k|l|9}m|n|o|p|q|0}r|s|:<b}t|g}u|7[v|v|7[d}d}0[w|x|y|z|A|                                                                                                              ",
"                                                                                  B|C|D|o}E|F|G|H|I|J|K|L|t;C:M|p)h~l'r,N|O|P|Q|i@&!i@R|a<S|T|U|  V|W|X|Y|Z|`|v[C. 1.1+1@1#1$1%1&1*1                                                  z_=1-1;1>1,1<='1)1^!!1(~~1R>{1]1^1/1(1_1:1%<<11}[1.}G]v_G{J:L]J/H:Q/-|V(}1|1112131415161n|718191':01a1b1                                                                                                                                                                                                                  c1d1e1f1:|g1g1h1i1j1k1l1m1n1o1p19|q1r1s1c|t1u1W_F{v1w1x1y1z1A1B1C1D1E1F1G1H1I1J1K15[[<5[L1M1N1O13[P1[<P1Q1Q1R1S1d}h}                                                                                                            ",
"                                                                                  T1U1V1E|W1X1Y1Z1`1 21,}]n'.2|^6/u]$#a>Q;N|$![:[:b<*~!{s}+2@2#2$2%2&2Y|*2=2v[-2i;;2>2,2'2)2!2~2                                                          /|{2]2h1^2/2(2_2:2<24-[2}2|212223242,[526272828292;<I:N]N]0202R<x~a2b2c2d2#:e2f2g2h2i2j2k2l2m2n2o2p2h2Q1                                                                                                                                                                                                                q2r2s2t2u2e1v2w2x2y2z2A2B2C2D2E2F2G2H2I2J2x~K2L2M2N2O2P2:<Q2K1R2S2_<T2n|U2V2W2L1X2Y2R2Z2`2 3.3+3@3#3$3%3X2[<X2M1&3*3=3                                                                                                        ",
"                                                                                -3;3>3,3'3)3!3~3{3D,]3^3/3(3v]v]k-_31]7]:3u}i'w:<3i'5(5(n[[3}3|3130'23=23343^@536373839303a3b3                                                              c3d3e3f3g3h3i3j3k3l3m3n32{o3p3q3b|b|r3s3t382K2g|u3G/I:P<S<;<v3w3x3y3:[=:>:z3A3B3C3n|I1D3{<E3F3 3G3o2q|H3I3                                                                                                                                                                                                              J3K3L3M3N3N3O3P3Q3R3S3T3U3V3W3X3q1Y3s1J2Z3x~`3+: 4.4+4Q2@4R1#4_<$4p|9}D3a}%4h281 3-:&4:[*49}=4-41[;4>43[,4'4t|)4!4~4{4                                                                                                      ",
"                                                                                ]4^4/4(4_4:4<4[4}4|414243444~{J<K</3546474C,84Y*94M<04a4|]b4c4d40@e4f4g4h4a%i4j4k4l4m4n4o4p4                                                                  q4v2r4s4t4u4v4w4x4y4z4A4B4C4D4E4M2G2F4t1G4e|u3H4;<I4J4K4I3L4M4N4O4P4Q4q|71R4I1{<S4E3T4h2:<R1U4,4f}>4V4h2C1                                                                                                                                                                                                                W4X4Y4Z4`4 5.5+5@5#5$5$5%5&5*5=5=5-5;5>5,5'5)5B1!5|<<<P1:<W2~5o2*4{5k2k2@3.3]5-:^5/5/5z3(5_5:5o2@30}<5[5{<&4&4U2}5G3|5                                                                                                  ",
"                                                                              152535455565758595p(p(05a5b5c5d5e5f5:^6^g5M<[]l-h5i5j504k5~{/,l5m5n5o5p5q5r5s5t5u5v5w5x5y5                                                                          z5A5B5C5D5E5F5G5H5I5J5K5L5M5N5E4O5P5Q5R5v1S5T5g|U5V5.4W5X571o2}[Y5Z5`5 6Z5{<.6G1+6)4@6#6$6%6&6$6*6y|v|=6-6                                                                                                                                                                                                                ;6>6,6'6)6!6~6#5{6$5]6V3^6q1/6(6_6:6<6[6A1}6A1+4|6W2(<J1|[162636462656&4667686E3}[9606a6b6`5([7}*4.376c6`2d68171e6f671g6                                                                                            ",
"                                                                              h6i6x~D{~[g|E{G/F{F{~[v1K2D{v~j6k6l6}{m6n6s)o6p6q6|*r6/3s6l[t6r,4(u6z>v6w6x6y6z6A6B6C6D6                                                                              E6F6G6H6H6I6J6r2K6L6M6N6M5O6P6E4F4Q6Z3>|K2v1R6S6P291T6@3[5e2S4Z5Z5e2U6&4a}V6W6&3)4X6#6Y6Z6`6 7 7.7Z6+7@7z|#7                                                                                                                                                                                                                      $7%7&7*7=7-7]6M5;7b|>7,7'7)7!7~7+4{7~5h2]7^7/7r|{<61(7.39}7}_7$:_[41:7*4}[2626<776[7j2C1}7|71727374737574767&377b}N15[                                                                                    ",
"                                                                            8797L]F^P<J:I:y_I]F{E{F{K2.}H4y~07n(a7b7c7o6(^_^j_d7){e7f7g7h7i7j7k7l7m7n7o7p7q7r7s7t7                                                                                      u7v7w7x7y7z7A7B7C7^6C7C7D7E7F4F7G7H7I7J7K7L7y1M7N7O7V2n|81`2[70}I1f6d6J1S2P7<<67Q7R7!48[S7@6T7U7%6&6V7#68[W7                                                                                                                                                                                                                    X7#5Y7Z7`7 8.8+8H2@8#8W7$8%8!7&8*8=8-8;8G1Q4r|e2D3U6>8_7,8'8S4)8!881~8{8]8>:^8/8W2(8M1272727_83727:8<8+6[8(<}8|6|8[<K118                                                                                ",
"                                                                        283848Q/V(484858J]G:;<6868T5T5T5v1g|v1L2y~K278889808a8^%b8c8d8e8f8g8E(D(h8i8j8k8l8m8n8o8                                                                                            p8q8r8s8t8u8T3.8v8w8:6x8y8.:G7S6z8I3A8B8;:M7y1^7C8S2_<D8.6I1/571q|E8C3F8G8V6S2H8I8%4A3J8~5E1[<67:8#7~4X6K8                                                                                                                                                                                                                  L8M8N8M8M8]6%5N5+8O8P8Q8R8S8S8{4Q2I8I8T8_<B3U8!<([V8b6W8X8g2Y8%3L1t|+6F8U8c6{8Z8>4,437`817<8 9.9C1A3d6o2>:6676^5f2=4z3s|+9@9                                                                            ",
"                                                                      *|#9$9%9&9*9=9-|L^O]G:J]Q<J]I:-9;992x~>9L2,9'9)9!9~9{9]9^9/9(9_9:9<9[9}9|9r*192939495969                                                                                                    79899909-7V3a9b9:6H2r3c9d9e9f9g9z1a1P2Q2N1h9;41[i9=4U8`2k2q|p|71X5j9k2q|l2369}{<U2l|l|26/5Q4{8R2670[d}                                                                                                                                                                                                                  k9l9l9#5m9n9o9P6p9q9r9V5s9t9u9Q2}<}<v9;4S2T4>8w9&4I181[8t|z|y|z|x9y9n|^5A3<827b}N1>4[8$3s|k2f6-:>806b6 6z9A9|[]8B9i2y9C9D9M1E9|6                                                                      ",
"                                                            !|969}F9G9H9I9J9K9L9M9N9y_Z(L/S<Q/G^68I4O9T582}1P9x~P9Q9R9S9T9U9V9W9R:X9Y9f>Z9`9 0.0+0@0#0$0%0&0                                                                                                          *0U3=0 8n9w8^6E4><-0;0K7>0,0-6Q2t9'0)0N1%3C8|[@3f6f6!0a}l2U8(7-:*4b6~0%:{041'8F9]0>8^0=:)8=4/0D8<8d}                                                                                                                                                                                                                (0_0:0#5<0%5[0o9>5}0|010102030405050605[@9[7r|70E8R2c}809000y|a0'4G1@3i9+6b0M1c0$4p2d0{5U6S4e0'8W8 6e2:[f0g07181h0S2|8&3Q7x9~4!4i0h9                                                                  ",
"                                                      /7d6c6j0k0l0m0n0o0p0q0r0s0t0u0v0w0x0H4G^5858685}R5y0z0A0B0A0C0Q5b|D0E0F0G0H06&I0J0K0L0M0N0O0P0Q0R0D6                                                                                                            S0$5m9m9-7T0O6+8><J7U0V0W0X0X0,0,0Y0Z0`0E1q|m2m2@3;: a.a>:+aF941@a#aw9e0$aD336f6n|%a%al2j9&a*a71d6=aT8                                                                                                                                                                                                              -a_0;a>a<0,aO6'a)a!a~a}<30{a]av9N1^aX2P1J1/a.6E1Y080(a_a:a<ag}[ac0z3d6@9<8%3H3`2-:!<F9}aZ5^0|a56}[66M4 3U81aR4%a`22a3aE8G8<<27)44aa0u|                                                                ",
"                                                  h25aT4*a2a6a617a8a9a)<b6 6>8{<0aU80aaaba)|t3I3cada;<V0>|eaK4fagahaF7iaE7jakalamana|;j>oapaqarasat4taua                                                                                                              va$5<0m9n9@8o9:6R6O8waxayaza50h9AaY0,4BaO4%aU8@3m2U861*4Z5*4}[^8!001CaF8%4DaEa81/0(5FaL1376[Q747+6G8B3J1W2                                                                                                                                                                                                            Ga_0Z7M8Ha[0IaU5!aJa~7KazaLa505[R1K11[A3Q4C1*3Z6MaMa(a80'4<83[}8T4]8NaF8T4D396*456e2Z5 6!<Oa.366f0c6/az3(5h0B3A3z3=4 3f2e6k2D8PaR2>4QaRa                                                            ",
"                                              :<T2SaTa`2*ac6^0Ua06VaWa0}c6T4Q4#3/7J8j9XaYa[5Za`aE7 b.bJ4+bfaZ3@bF7r3M2E4M5x8#b$b%b&b*b=b-b;b;}-}H5>b,b                                                                                                                  <0<0<0'bT0:6[0:6)b!bV5~b{b30Q1]aN1Q1]b71e6^b/b>:2676d0q|B9Na(b|8X2_bM1(b-4]8/7{8.9&3d}X6:b<b:bi}!4[b,4 9[8                                                                                                                                                                                                            }bZ7&7<0|bIa><e91b~a-6&8&8[<%3}7E12bq|3bh}4b5b6b7b8bh9P1+6|7T2n|U8m29b^0Va0bS496S4abVa8}56Z556m2i901k2Z2J1bbT4-:S4F9 6>8>8Z5cb[[U8T4db}8                                                          ",
"                                          !5[8@9h0d63a3az32al23aeb3ai9A3Z2fbgbfbD8J1h0hbD8i9ibcb`a$8V0;9K7jb@bkb><lbmbD7:6nbT0obpbqbrbsbtbubG5>bvb,b                                                                                                                    U3M8wbxb'a%5:6ybW0|0~a[6yazbQ2}<BaAb#3-8|[ 3A9m2|[p2W2L1X227)4#7Bb_8Faq|`2SaT8CbQaDbX6Ebi}#6FbFb#6Fb~4=6X2|7<<                                                                                                                                                                                                            (0,aGbHbR6e9IbJbKb-6Lb_<G8C101O4|67[90MbNbObw|3[Ba@9%3}7Ca^556Pb&:QbRb 6e27a#a 6e2^0Z5Sb|[k2Tb81p2_5e6f0W8([Ub0b+33aJ8Vbh2Wb(bXbD9|8Yb_b                                                      ",
"                                        W2Zbh0g2/7`b#3#3`bd6g2db/7k2-8-8A3J8i9/8D8h0hb cB1.c+cG3@c~b#cK4>|K4$c%c&cR6*cT0:6.8=c-c;c>c,c,cB5'c)c!c~c                                                                                                                      {cwb]c,a^c=c/ci|u91<{4(c_cu9+4*8D82bB9s|s|p|-8B9C1;4)4v|:cS7!4x9<cC1l23a[c_b=6#7u|4a}c|c1c1cR7|c~4X6@6!4_8:85[L1                                                                                                                                                                                                            ]6O82c3c4c5c6b<6Aat9h26cP4|[|6u|7cObNb8cj}3[1[G8(<P19cs|>:cb.3{<^0^0cbf0F9{0*40cW8>8@3a}3az3/a[7acbcF9!<cc{<dcZ5&4>:m2#3hbV4ec273727&3&35[                                                  ",
"                                    fcd6gcWa0chc9aicjckckclc31mcncocpcqcG9rcic41$aU8#3J8hbscQ120tcucvcwcd9xc@byczcAcD7Bco9o9IaCcDcEcFcGcHcIcJc                                                                                                                            KcM8M8'b'aLc%cc9Mcb[~ak}NcB191Oc|6I8_<(8:<_<|837u|g}S780y|S727C16aa}Pc&3Qc)4RcScTcUcVcV4WcJ1SaB9T2G8W6|7D9XcYcE9&3                                                                                                                                                                                                            `3AcZc`c5c dLbQ2=8^<P4*8c}.dZ6+d@d#dd}T8D1$3XcP1[8B9 3^5@361U6<776+a!<*40cZ50b=4m22aU8.3S40b$dI1|[]bB9%dZ2s|fbJ12bj9=4>:&dc6|[J1*d2737&3                                                ",
"                              =d71&dPb-d;d>d,d,d'd)d!d~d{d]d^d^d/d{dqc(d_d:d<d[dW8Sb61|[p2Wb}<N1[630vcwa}d$c-0|d1dJ7>52d/cT0,a3d4dA7Y45d6d7d                                                                                                                                8d9d^c0dadbd!7R8cdwaddZ0~5=8}<h}h9t|e}6[,40[a0@6ed80T7~4372b ad6R2_8Qcfd&3C1z361>:gd0c]5WaWa}[hd9}>: 3f6!0k2idV6|8                                                                                                                                                                                                          jd)b4ckdldmd`030]bJ8B1Aandod5bpdqd7c:8G8G8|6P1rdy9B9%al2%a>:0c{59bf0Wasd56td^5f2}5.3>8e0N701J1<<=67[w|udi}vdS77[4aQ7_bYcwdid&aF3}[86e6xdc05[                                            ",
"                          B3ydzdAdPbBdUaUal0td|aCdDdEde0Fd8arcrcGd;dHd'8V8IdV8F9Hd|aac^53aA3(<AaK8X0~7u9M2%8JdKdJ7Ac>5,7IawbLdMdNdq4OdPd                                                                                                                                      Qd=0'aRdzcSdJbTd{aUd30VdWdXdYd4b7cv|0[x9S7w|z|80T7@637Paf6n|W6Cb_bNaT4)8^0Va51OaZd0chd0c`d e.eV2f6/5!8+e3626@e#eA3                                                                                                                                                                                                        &5Sd$e5c%e&eza*eQ2=eN1g}-e;eqd>eObv|%3$3,ec0[<<8.9A381i9T426}[>:U8/5^561e2H1-:*4'eacr|Q4T8Q7)e;e:aMbMa!e8c7b~e{e]e)4:8(b^eT476U6^0<7}[86gc&aTa                                          ",
"                      #36a/eWahdhd(e9b&d_ehd_e}[+3f2:ef276Zd41,d,d<e<79}}[}[{<0c^0]5f00an|01]bR2,0S8[e!bwa%e}e|eJ7`3`31e2ewb3e4e5e6e                                                                                                                                              -77eR68e1b9ewaWd0eaebe90cede7c7[e}z|8bw|z|:b@6_8+6]8c6*aee3a]<7aY57} 6:7fe7aY5:7<7^5gehewdFaW6C9y9iejekelemeee                                                                                                                                                                                                          neoeJa1b5cKbLapef}qendYd5bqd5c$6b}}7_<re3[3[<8@9Vb{8s|.a>:H12a!071=4^5e6k2l2q|G1C1<<0[80sekd>eqdMaOb00$6@6g}27%3te a26sdue}[vec6ebwewexeyec66adb                                      ",
"                2b!8gc^8:5zeE8dbxdAezeBe&aCe2ac6f2!86ae6e6 a>:acY5DeF9f0g03a3a]83az33aEeEe[7j9C1=eXdXdFewaz8Ge)b1dwcyb3e3e2eRd^c                                                                                                                                                    :6e9HeIeJez8Kbc9KeneLe!eMb:ah}g}@6i}y|i}~4L1D9Zbf6>:0}26ac}[}[U6*4U6WaPbBdEd36Me{8i2C9NeOe1717&3Pe&3&327&3_b                                                                                                                                                                                                          `31bQeReSeycLb3[Z0Y0Te#d6bUe:aw|[<Ba1[[<N15[[8@9I8S2F8e6=43aidA3&a:e^5p2Na@9(8,47[Ve(akdWeXeWeMaYe)eZeE9NaTb`e76Wa>:k2F8.91[c0D9>4>4c0y9W6[c fd6.fid                                  ",
"            p2 a36+fG1[cy9P7L1L1@fXcV6Zbbb#f:5$f^8:e 3 a*a`b:5z3+fCe&d&4Wa adbNaY8H8$3h2=a#3':hb.ch9-eNc]a!b%f#c3c&f4e*f4ewb3d=f                                                                                                                                                    O62c-fkd!a;f!7%8HeJb!e5c!e90>fd},f)eudd}#4G8W6z3>:61@e76 3c6'fydf2&451|a(e)f!f~fFaleke{f(by9]f]f^fP7D9/fD9D9                                                                                                                                                                                                          x8oeoe(f_f:f<f[fc}}f<a|f6bMbod0[<8Ba%31fh92[[8_<T8}8B9e6*aG1j2k2m2o2B9(b&3x92f7bMakd>e>ekd5c7cz|M1J1 a3f<7PbU6 aNaD9_81cud{eVey|#62fFbEb}cQc47E9~fE84f5fVc                            ",
"        G1eb6fdb%47fc0E9>4L1c0y98fH89f5fbbTb:5`2^80f7a$a0f aT4:5`bE8j9^5$a0fe6Y8[8L1:8<<BaP1N1afBarebfcfdfLaefyb!affybgfhfybifjf                                                                                                                                                      p9kf`clfcfmfnf90LeIb5cceh}Q2#78bi}u||7{8{8~846^5^8F3/5z35a5aof{<e0{<pfqfEarfhehesfE8tf]8]8T446ye46*a4fidE8                                                                                                                                                                                                            v8p9!7ufvfwfpeY0Ke#dqdqdYdk}c};4%3>4xft|b}P1R2R2W6A3]8g2{8A3o2/7J1>4#7{e7byfqdWezfWeWedeAf5[F82a7661hdY5WaBfy9fdQa|cCf{eDfEf#6FfVe2fGfudHfEba0ZePeIfCatfmeD9                        ",
"    [761^5+ef6 a6a a!8 3&d(e0c0cJf0c]5^051}a|a7a$a@e]5:7|a<7gc2a.a]881T486<5>:A3 960>f>f,447k}k}Y0KfLbLfY0Lb dMf#cNf2egfhfMd2e                                                                                                                                                        i|-f5clf{4OfOf7cLeUeUeZ6t9=e>fS77[(8$4 cNaee=4U8.a]8=dC3Bf36+ae09626&d>:WaDdVaW88}Pb|aabZ551U6AdPf@eF3yd&d                                                                                                                                                                                                              x8Qf!71bRf&8Sf801bMf6bk}8[u|2[<<47Tf>f1f%3UfR2@9g2k2s|s|`2i9(<[<)48b7bNbWeVfVf6bWf7c(8B9%aF30}.a!8EdEd*aZbPcXfIfVcV6+9$3PaYf+9[cVc+61727)4}cDbZffdPeIfB3Me@9X2                    ",
"k2$f a a`eCe&dgd}[U6:741Ua-d`f g.g+g@g#g$g!dqcnc%g<7ac0c]5<7Ed$aU6_e>:/5:e 3m2p21[3[>f>f>fY0*3j}7c8bc}&gpe&8Td*g=gNfybgf*f3e-g                                                                                                                                                          4c%e3cc9Je%8;g1b>g5c,g:<5[=6x9Z0@9G8$3G881l2l2E8=d4f%a76e0:7td{0e0e0'8tdY5gd'gyd<7Vae2'gebid5fwdwdkeIfC9                                                                                                                                                                                                                P5><1b~7KbK87cldVfMav|Ked}47af=6)g6[[fBa(<|6j281Z2fbz3q|gb<<=6k}!gObqdpdkd!e4bv|$3%a 3 3*a_5Tb[[<7T4^e%4{8Cag2eb+e~g^8yd&dydve46!0MeYfie17{g_8]gScScTc 9Sa^eP7                  ",
"fbR2X25[>4;4c0(b$3F8C3]8^g/g(g_gFd-d:g<g;d[g)d}gjcW8Ed>:&d9b|g0fgd0c{<U261^5@3j9H8>41g#7e}7[2g)e4b3g8eSf_c!b,0nf4gefRd5g*f6g                                                                                                                                                            6}7gJaW78e8gHe1b5cMah}#43[h9_8<<E1FaVcJ1k2`2g6Sa*aH1}[*4:7`5'8F956e2}[ve9g9gF3{0Rb/g0geeheT2~fkeUc/fE9_b                                                                                                                                                                                                                  ag,gc9Lb{48eMaMfbgcge}0[t|f}6[*3t|4[R2}8@92bg2fbSaT4g2|65[d}Ef:adgkd5bZ6,fS1A3m2 3%ai9J1{8T4&46fZb8f8fegfgE84fgegg.a6agchgydve+figfgZbC9jg27_857fdQcQc47kekgFa|7              ",
"80Ve%6<alg%6<aT78b4ad}57[8Sa2a0cRbic gjc,dmgng;dicogogVaf03f:e^8Ce/576.3>:U8o2z3E1[<b}>fd}Kez|80YdObLepg!7LfLfqg5crgsg5g*ftg                                                                                                                                                              O6&eugTeHe90celd!eNcQ2vg3[<<Xcwg@9H8VbQ4`bdb*axg36o2/5$aW8W8Ed&4/5!0.f6aue)<{0(7igSaEaygwdzgAg%4^fBgE9                                                                                                                                                                                                                      Je,0*3TeMbCgMaf})0h9t|#7[ed}h9[<%3|6Y8G1h0H8J1=aDg+63[v|Z6WfEgObFgg}>4A3Gg`2TaF8H8W6Ca<5U8CaHg.9ke^eEaSadb fdbheBf4f5atfIg+fgedbJgKg{fy9Lg_bMgQa}ca0|cYbke8fYc            ",
"90Ye90$6lgDf80@6w|!4!4d}ZeNgYcF86fEdic`fOgPgEd|a06%gW8VaAd9b36m2.a*a`2T4/7A3A3A3 cc0_b47)0w|Qg80<a#d1bufRgS8~amfSgJbsg3e                                                                                                                                                                    Tg|dOf8eQgYd!eOb&8[<N1P1[81[@9@9DgJ181eed6l2g2Fa+6V4+fhde2766aUg!0ydVgl0OaH1wehesfC3sfidWg.aXgwdW6C9                                                                                                                                                                                                                        LfR8,fseMaWf50h9h9Y02ge}g}3[P1[8H8h2h2R2M1)0)03[<8N1,f.7deYgy|!4M1-4T4/7Na(b[8E98fo2M4k2ZbHg%4{85fyg=dMekgsfCakgC3CaygkgfgZgfgkgfgEa[ckeIfNe`gfd1cEb1cQ7ecYc 9(8        ",
",4<8@9G8$3%4egB3F8{8i2.9|7*d<8XcH8]8:7`f,dY5f2!0:e.3]5cbac&dgcf2c6f6n|(5J1H8PaVbs|R2_bL1 hg}S8x|U7:a_f.h8e,g!7Ke%8|f+h                                                                                                                                                                        3cS8YdOf,gOb8gh9aff}N1%31[E1@9I8C1CaC3p|Vc=6!4v|M1*a76U8!0ge^ghdPb7a(e~gxe.apf=46a@h&d#h$hyeigsfme                                                                                                                                                                                                                        z8~aQg4b!e:aLbLbY0S7v|e}Y0N1%h1[E1I8[81g)ese&h:c:8Z080Z6&6@6u|_8Wb01#3wg|8<8>4X2Ta76@3=d5fB3Zg4f)f*h.a/5^g'fc6^8vef2|gPfWaWaPf=h-h;h`e>hweMekgwdYc77Zf1c,h77_bYc67      ",
" e56:7:7^0PbY5Edhd/e76'g2a'hh0[c@9{8CeBd[d)hgcd6G1db&a!8!82a&a3a*a!0n|Q4A3$4$3C1xdE1X2L1<<47v|QgTeZ6:a;g8e!hSdQg~hIe                                                                                                                                                                          )b{h8e.d!h!eceN13[0[6[[<|6H8H8FaC1J1NaP1!4]h2fS7[8466a^hd6c6Wa^0Ed|gpf6a'g9bhd|g260c|gyd/h)fhe5fZb                                                                                                                                                                                                                          Qgk}odce4bh9Lbu|ud8bg}f}[<[8@9(<<<d}<a!e(hMav|f}g}<a90{e_h)0%3G1p2(<L1>45[:8V4 3262a81k2eb^gf2<7F9hctd:h 6`d<h[h[hzdPbPbEdEd<7hd|g(7yd}h|h6a.a.ageE8NaXc_b1h2hD9:8    ",
"U8^8gc&d@ehd.3`dEd3he0e0^04h|g 3!0ge6aU68amg0c5hG1{8G8F8Sa(5Z2B3s|CaQ4d6i9Z2J1PahbF8<8N1[<3[Y0z|)e<aYeYd4c;g%88e$e#c                                                                                                                                                                            6h8e!hseNb!eLa&8e}e}X2R2_<1[$4PaE160@6Df&6<b_8yg.aTbhe46}[(ehdgc46;hF3gdhd7h}[gd|g6a^hkgkg8hleV6                                                                                                                                                                                                                          !a)eRg.7od`0h97[@6@60[af%hsc%3[<7[Ef(aMaqd8c)03[8[Z6&6z|u|'4i2B9Y8c0:8M117L1q|.3>:&a.a^8veF3WaRb{0W8e0_e 3d6=dig+f*hgcWaWa(ehg9h46>h)fBfygF8wdZb^e5fEaAg+9Vc0h|8E9&3  ",
"g6g2g2Tb^h*a]8ebah'g@h/e(e eEdbh<7*4e041jc<gS4/5z3C3G8H8i2te9fG8FaXcV4~8s|s|B3G8Nafb[8>4[<5[&8d}w|U790ch8e4bHe4bLee9                                                                                                                                                                            Sd!h8e1b6bMat9c}z|7[N1[8sc[8(<_<^a{eYg.7Z6y|c0G1=dYfd6^526>:36.a6f^g(7|ggd#h@ef2Ce^hKgHgdhV4ehFa                                                                                                                                                                                                                            Tefh;gj}S1-6g}w|w|>f[<%hgh3[d}8e#dMayf6b<a3[LaQg4bEf8bR7(8H8E1[8L11h67>4C1^5<5c6!87626hdsd7aF9|aWa aE85f%4^eBfeb'gPf/g~g+fE8kghh@9Yc/fihTcMgPe_bYcC9jhIf{f[cZb8f|8M1",
"B3B3_55ak2d6d6k2E8E8Sadbk2!0 a+3]5e0VaRbId'8]5c6$fk2VbY81[V4$3$3G8.9|8<8%3}8C1G8WbI8[8[<=e`0N1>fv|)e6h80;g8gLekhHeSd                                                                                                                                                                              He80_f(h+dLag})e)e6[67BaT8(<X2k}.7.7.7&6~4{8Bf{8-4 3{5#elh5a^hahmhH1ydhggcc6we^h fZb8hZbme^ekg                                                                                                                                                                                                                            3cEf7cx|>fNct|x9c}1f=e3[h9Y0)e#d5b6b6bMa80;4N18bYdEf)et|R1%3nh;43[:867Yc3a66>:61Wa&4AdU6-:M4U8z3B9VcieohA3!046760c76!0C3ZbW6|7ih2727&3ihE9Bg|8phD9P7BgYcjhqhFaHgi2Pc",
"$3$3G8F8SaE8E8G1ygEa^e%4$3V6$3{8E8T4!8|g:7Vaac!8*ad6Ta{8@9V48f.9V68f|867h9b}<<R2%hN1b}1f5[b}xf0[XdS8QgQg8e8g_f:a8g                                                                                                                                                                                HeQg:aqdMa[fh}7c90z|d}h9 9<<e}Z6rhde.7Ef27A3G1B93aU8[7TaEafg!0H1gcc6^8c646d6ee f^eygheXgshweth                                                                                                                                                                                                                              odTe)e0[c}Aa=6f}Z0c}g}d}8b90Ma6buhvhWfd}R2h9,f!gT78[67>4b}L117:8>4L1{8@3-:>:ac&4.3gd^g81{8@9UcD9*dieSa=4&d7686yd]8EakeYcE9Pe&317E9Yc7fW6whIfXcUc|7Yc.9le[c[c[cYfyg",
"i2[cVc$3egkgE8g2SaF8ZbFaR2C9|7c0c0R2gbE8c6}[26T4TbdbE8F8V6Ify9|7%31[[817_8>f37:8N1v|8b#7h9c}w|)eS88[w|Ke!h8g8gHeef                                                                                                                                                                                  7cceuhuf-6.d4b#di}w|xhY0Y0&6#dyhde%6~4V4A3Sa`b!0p|T28fkeB3ebl2*h/5f6!04fC3C3 fzhge+fAh]8^hqf                                                                                                                                                                                                                                j}y|K8Y0h9N1Z0[eQg80x9U7:a5bqdBh_aYe2[|6f}x|90Efg}60)0Q7b}b}&3L1P1B9>:6676269}o2G1y9>4b}1717_bC9fgf27661^8*aid+97f+6`gecChXf7f~f^e^eZb~fHgle7fkeehHg^ezhidDhEhMe",
"dbdbA3E8]8*a!0*a^hE8SaF8VcXcy9D917:8Fh8fE8+e&d=4dbB3_5F8$3.9%3<8_b|7R2c047>fQ7'4>f)e<aU7g}7[Qgj}80z|7[7[U7;gYe<aSd                                                                                                                                                                                  9e8gkd8gGh8bde_aTe80&6x|j}Wfrhrh`6T7ZeNaA3A3BfF8W6 9YcW6Ca)flh!0*h)fMefgCadbdb'hsh^hkgAgygme                                                                                                                                                                                                                                Je,fK8{4Z0f}v|y|&6<aw|<aOb+dqd6b!ek}scK10[U7<a8b[at|R7#737b}b}>4P1{8e6@346&aB9c0Ra|cR7Qc37:8Ycdbhg(e61%ak2Ea+9whHhYcP7C9VcIhdb^h)f)f5aE8(5id5ak2MeJhZgid.fgeth]8",
"c6f6.a2a!8CeCe%a!0:5g2CaF8[cVcy9ecKh'4:8.9g2 ae6_5Na{8F8NaLh<8:81h>4[8Xc>4Qa>ft|#780Z690-e7[Mh)eU780-ez|TeYe<a90                                                                                                                                                                                      $e!e(h'0QgObkd)e$6#d<a$6Eg5bNh+7ud;4s|g2T2VcD9_bE9P7[c)feb]8qfE8ygygygbbfgfg5fmeHgV6keleW6                                                                                                                                                                                                                                  U0e}0[Y0e}!g:a_fHez|Ye!eqdVf5c(aZ0}8[<g}V7EfS7>fR7e}R7'4b}Oh3[+6V6xdB9H8<8i0y|vdEb1cRaYb.9k2H186c6j9B3YfV6.9YcP7y9Vc[c^efg6fCe'g'g;h`e*h$f.a.a!0gg!0Phsh^h5aqf",
"e66f)f]8!0&a*a^hJh(5QhdbCaB3B3PaR25['4Q7171[(5j9A3RhShNaG8Th<84737'4>4 9<<'46[Ze0[80Ye:a7c,fS8i})e8080,g,g9090                                                                                                                                                                                          oe>eddx|!eyf8b!gObZ6<aObyfUh%6g}PcA3G8<8&337&3[<XcSalh*aidVhYf+9Zb^eB3F8Yf[cHgle[cNakeWc                                                                                                                                                                                                                                    be{48[y|.78c|f_fx|Ye!eqdqdObT7R1R2;4)0k}z|x9_h~47[[a471h:85[ 9@91[<<&3g}y|V7{e~4)0L1Xc/736'f*hMe[c7f.9IfP7P7Yc.9[cYfWhideb2aCeXh>hAh^hiddbdbEhBfDhthYhlhwe)f",
"*alhT46fT4!0]8(5B3Yf%4NaYfF8bbzefcPcecRaZh1hUfJ1G8Vc1[H8G8@9|847Ze[a[a67<<47Q76[Y0)e7b:a7b90<aT78b8bEf<a7c$6vf                                                                                                                                                                                            `hNcj}!e5cXdU7Ob90Efde!e iVeE9~8Na|7Ra_8371hy9$3SaidMesf%4%4wdwdme-4sfhehezh ffgsf.i+i                                                                                                                                                                                                                                      z880Z6&h#d!eld,g:aEgyf@iHe#71[.9V43[Y0u|~4#ivd~40[1f:8>4rdtefb@9&34audT7Ve$iRa1h(bk2!8U8a}SaYf[cVcIfC9IfIfW6V6%iVhMetf6f+f]8Zgyg^eYf&iV6Fai2[c~fAgAeE85a^h",
"36U8>:F3H136 a*aE8^ei2*i$3{8Ca81(5A3H8_b37_817Uf8fR2Uf9c@9@9P127)44a~4*36747R7e}*380`6#d#d8c#d<a)e8b7c907c!h                                                                                                                                                                                                {4j}Ob!eXdodObYeEfserh8c#71[DgS2M1Ze_837L1$3B381TaB3+9V6{8ygkgidd671ge)fDhAeF8+9wdwd                                                                                                                                                                                                                                      yc=iZ6`6:a_fMaHe:aWfMa-i;iL11[|8(bX20[w|vdy|Fb~4>f:8E9|7H8h0G8R1[aS7y|808bRaD9(bid.a6a!081zedb=dE8dbdbsfB3Yf{8Jh:5^hDh5adb fYf[cHg[cV6HgV6%4i2VcohwdYf^ekg",
" 3gc}[Wa)886}53646lhSateH8V6{8A3(55adbVc>4'457>49c|7c0[8Vc@9c047R7]e@6~4)4>fz|w|7[j}`6#d#dOb_fYe7c)eod<aJe                                                                                                                                                                                                  zc!hse>i804b#dOb&6`68cEf<8W6W6Xc67Q7Zefd(b-4G1SaZ2F8+9NaSaXg]85a,iNaF8V67fXc8fdh+9Yf                                                                                                                                                                                                                                        Of!g:a908eMbObMb!e6b!eY0'i%3L1|8LaKeT7T7808bv|)0<81[G8egh2[8'44a@6i}{e7[77XcCad6eb!0d63a46^g!8!83636 a&a^hTb^hid f+9Rhle[coh[c+9+9[c+9+9i2i2[c[c[c[cV6V6",
"_5G181d6]8`2e6Gg/5^gl2g2G8Vc@9FaNaB9SaF81[b047:8rdc0>4L1%3R2<8NgR7a08b@6~48[Ef8bw|80`6#d#dceOb:aYdTeU77c!a                                                                                                                                                                                                    !hYedeTeYdObEg.73g 77[%3T8V4<8f})4Ze60G8A3Ca+9G8+9%4B3ididCake|8M1E91h`gy9+9eeSayg                                                                                                                                                                                                                                          (f4b8e)i!h!eldMa6bMaY0(b#4<<3[*3od&6$6T7Hf]e)4|8C1B3J1}8672gHfud8b@6'4y9Cag2X5T4e62ac6&d86>:(79b>:'g a*aidB3[cwh7fV6[c[c!iYf{8Na+9Zbte[c[cohV6V6V68fke",
"c0c0|7y9UfH8teB3G1lhl23aTaYfVcXcc0%38f[c9f|7Ybb}[<P7Fhb}3[<8[<'4)44aa0@6#6%6Yg:bz|)e:aObkh#dOb#d90Ef80,g                                                                                                                                                                                                        $6Z680lg:aderhEgi}60Xc1[R2M1)0u|RaD9G8F8[cW6FaYfygSaB3Vcc0Mg>fQcb}P7V6F8 c{8gbR2                                                                                                                                                                                                                                            !a,gXdwf8gMa!eMaMamfscBard'4z|&6#dZ6Df:b8b)4[8 cZ2G8Q1Qaa0@6Fb)ea0.9xdE8i9/7T4!8/5^8H1c6 a!8c6 a3a(5Ca[cW6C9Ifwh+9^eB3 fF8{8$3V6[c[c[ci2V6RhRhi2~iVc",
"sc'i[8%3|7|7c0[8.9+9A3k2Q4TaB3+9Xcc0<8%3RhVc<<Khb}L1<8 h'4Yb<8NgZe4aw|,fVe7bde<a,f)erg8c:a#dOb#d908e80                                                                                                                                                                                                          ,g%6Te90de#d5b#d!4b}T8(< 917Ze_h_8Yc c{8@9V4%4F8F8[c|837Rc[au|47(b+9Na@9%337)4a0                                                                                                                                                                                                                                              }0Qg&gSfObEg!eMa8e[8BaP1u|T7:aWf 7%6Dfy|)4P1NaNaR2N1u|z|80#6i}L1h2B3B3VbA3/7!0a}*aq|5ak2]8:5=dF8leXc|7|7y9V4le{8eg5f^e[cH8R2C9.9.9XcIfieLhVcVc7fTh",
"Z2egNaSh@9Xc<8{irdy9R2$3Vbxd_5Aehb[cUfc0]i'ird67'4'42[>4_8=6>4:8t|4aHfy|Df.78cYe)e,f90#d&h:aOb#d90Dfqg                                                                                                                                                                                                            )b8bYdWfEgrh;e6[:8T8V4^iRat|Zf'4(bVbJ1H8~iG8Pc 937x9S7]e|c:8R2H8W6c0'4h}#6Ve<a                                                                                                                                                                                                                                                  v3pe80.7dgNb*gP1_<<<k}90deWf`6<ay|k}R7L1R2Uf h6[Eb{eT7:b>f$3F8Rh@98fDg$3V6$3[cG8Na cB9{8VcIf|7P7Uc.9Fa.9Vc%4$3Y88fc0ec:827:817_bL1c0Uc]i(bc0D9",
" cVbhbfbfb/i'i<8<<Fh>42[(iUf}8H8_iWbwgR2[8%3P12[47:ib}4['4<it| h37d}@6807c.7ce.7T78b7c:a:a.7cede90od                                                                                                                                                                                                                XdEf#drh-i4b_8:8R2 927#7Qa)4)4<8Y8[i@9XcP1&3R7S7i}ud}cYb[8+6;4Ze~4Df90Ye.7.7                                                                                                                                                                                                                                                    }i-6<arhyfMa3[_<|ik}Z6#d8c:a<a{e@6[a5[rdM1#7~4i}80U7Eb5[W2|6XbE9>4;4L1b0X2<8P7]fXc1[R2|7c0c0y9Xc@9VcXc(b9c<8[<b}Ze1i7[a0_hd}[a>ft|Ng:8>4:8:8",
"2isc}83i_i4ire;42[5ixf1g:iZhvg1fxf1f5[[<(ic0[<2[60>fQ747h9>fd}t|60[audU7EfYgde`6U78bDf:a:a:aOb#d<aS8                                                                                                                                                                                                                X0)eYe!eNb7c6[R1R2<8_8d}6[R7u|,4%3#4>437)41ci}2f:b~447;4,4x9]e7c6i8c&hde#d8c                                                                                                                                                                                                                                                      F7Qg#d!e6bY0zb5[S7YedeObde&62fy|u|<<L1)0w|8b{eVe)e>f5[3[67b}&3b0_b:8b}b}X2<8@fP1c0c0|7y9.98f.9|7c0L1b}t|R7u|a0S7Hf{e{e8bS74a_hd}Ze'4'4Zh60",
"7i7iKfY2%h'i(i4[ hvg)g8i9i0i[ex9#iz|aibi'4b}N13[:8ciZet|'4'4d}d}27)0k}U7U7%6de`6Ef)eEfYeYe.7#dYe(f                                                                                                                                                                                                                    KeYdObMa;g)et9Xc[<Q7x9u|7[a0)460f}d}a0Hfi}EfEf7['4b})4,f<aZ6(a8c(ade:a`6:a                                                                                                                                                                                                                                                        cf90#dMak}Q1KfS7.7de#d 7%6Vey|Zf|867#7S7i}y|80x947,4t|t|37b}>4{i>4Oh>4|8P7<8[<[<P1XcV4Xcc0>4:8'4R7v|z|i}{e{e:by|U7{eHfw|a0x9_hbi#7<i>f1g",
"dieififieigiA|Tf#7bi(chi#i#i)eii{e:bji:b;i7[x9c}1g#7#7d}>ft|d}7[t|>fS7Dfy|&6:a&h<a80U7Ye90Z6.hU7                                                                                                                                                                                                                      Of7cOb6bObLee}ghN10[S7k}8bw|#7=6g}Hf{e#6Ve$6i}0[d}7[y|:arh-i-i`6Yg9090Df!h                                                                                                                                                                                                                                                          kiYeEgliLbb}k}Z6sede 7DfT780g}aft|d}z|x|T7]eZ0Q7g}a0x9<i57b}4[3[3[Y2%3<<Y2[<Y2P1<<5[=68i]e[ez|80EfDfDfVeVeVe:b:bAfz|w|w|7[w|mi[e7[Xdw|",
"  nioi[epihiMhqiri;i-esijijijijitiuiui~e7cjiU78b(c7[x9x9x9>f#77[>ft|7[T7:b<adede<a807cYeEf<ach                                                                                                                                                                                                                          U7#dyf6bdg.d[<'4w|)ey|80~4>f)0v|y|VeEfEfT7!4e}HfVeYg1b|fOb`6Df6h7cU7)e8b                                                                                                                                                                                                                                                            nf7b`6Nc&8w|Yd:aseZ6Ef2fU77[N1>fx9z|8080>fS1x9Hf8b~4_hQaZ047N1L1gh%3P1<8|i>44[f}d}z|Ve%6U7<aYgYeYe90%6DfDfVeU7siAf8b#iiiAfiiri;i8b-e",
"          qiviviwixiyiyiyiziAiti6hui~eBi~elgrgli80CiAf8bAf9[d}7[7[*38i80<a7b#dde<a80Yg&6EfU7                                                                                                                                                                                                                            80Wf6bVf6b8[|i>fi}U7U7y|v|6[!4i}T7$6$6Vex|ud)eEf90Di8c`6Yg~e:b80jiy|80si                                                                                                                                                                                                                                                              wi$6c}xf~4,g;ese.7DfVe<ai}Y0*37[z|8b,f#7Y08bU7:bHfa08ix9x9pe3[Kfaf3[1fxf)g2gMhsiU7~e%6YgYe3g`63gYeliEi<achch6h-eqg-e-e-e-e;i;iqgwi",
"                  Ciyi(fFiGiGi6hHich~elichlgkhkhli~ech7c$6T7ai4audXdK8)e90de8cde90U7%6DfQg                                                                                                                                                                                                                                 75bkduhx|3[*3T7$6U7-ex9#7w|80Ef%6Df:bT7<b<a&6 7Z6.h<a7cui:bjijijiji6h                                                                                                                                                                                                                                                                U7,fIiK88b4bLeJi%6VeYe$6w|g}K8~48bk})gv|T7$680@6a07[w|7[A|1gIixf<i8iMhCi-eU77clilg.h00rgrgrg.hKi~ech9e6hch6hCi                  ",
"                                LiMichchMiMi.hrgKilg00lglg%6{emiVeVeMh-eYgrh-i#d7bYeYgT7cf                                                                                                                                                                                                                                qg:a-i6b$6f}w|U7$6:bz|d}0[;iod%6%6VeVe<aYe&690%6Df7c7csijijiU7yi                                                                                                                                                                                                                                                                        nf#7Y0Xd4bceceYg$6;e.7)e[ebf8b(c7[w|U7Df%6{eMh8bmi;i(c2gbfbfbf;iiiCiTe-eCiji6hlilililiefchch9e                                ",
"                                          tiNi.hKi.hKi00Ye7bliCiDflgj}Qg90!eMa#d`67bYgU7                                                                                                                                                                                                                                    7c#dNh4bt|KeU7$6)ew|#7x9)ech<a$6VeDfZ6Ye<a%6Dfui!hchch~ejiji                                                                                                                                                                                                                                                                            mf0[ d,gse#dZ67cZ6:aU7h}K8k}w|;iTe.h90906h(fji-eqgviqiiiqi;i-e-eGiGi                                                        ",
"                                                  efNili00rg.h~e<a009080Yg-ivhrh8c7cjisi                                                                                                                                                                                                                                      Gide90_c[e80Ef80w|K8w|U7$680T7Df&6%6%6<a~echuiOiAi(f                                                                                                                                                                                                                                                                                    PiA|ndYeWf7b7c4bde908b)gh}XdMh~e:aYeYeAiyi-eviwiQi                                                                        ",
"                                                          .h.h.h<a907b<a90-iMaOb#dchRi                                                                                                                                                                                                                                          7cYe*3h}TeU7jiMhw|-e7cchji7c~e~elg90~e~ech6h                                                                                                                                                                                                                                                                                            SiR87cseYeVe&67bZ6802gXdmfqg.hrgTiliGiGi                                                                                ",
"                                                              Ui6hVi.hrgkh#d(akh(akh                                                                                                                                                                                                                                              ;fcfeimf-ekih}-eCi(f!hAi6huiui6hchOi                                                                                                                                                                                                                                                                                                    WiXinfchCi(fch9e{hwiCiqgAiLiYiGi                                                                                      ",
"                                                                                                                                                                                                                                                                                                                                          nfZiQi(fAiYi                                                                                                                                                                                                                                                                                                                            `i j.j    Yi                                                                                                  ",
"                                                                                                                                                                                                                                                                                                                                                                                                                                                                                                                                                                                                                                                                                                                                                                                                ",
"                                                                                                                                                                                                                                                                                                                                                                                                                                                                                                                                                                                                                                                                                                                                                                                                ",
"                                                                                                                                                                                                                                                                                                                                                                                                                                                                                                                                                                                                                                                                                                                                                                                                ",
"                                                                                                                                                                                                                                                                                                                                                                                                                                                                                                                                                                                                                                                                                                                                                                                                ",
"                                                                                                                                                                                                                                                                                                                                                                                                                                                                                                                                                                                                                                                                                                                                                                                                ",
"                                                                                                                                                                                                                                                                                                                                                                                                                                                                                                                                                                                                                                                                                                                                                                                                ",
"                                                                                                                                                                                                                                                                                                                                                                                                                                                                                                                                                                                                                                                                                                                                                                                                ",
"                                                                                                                                                                                                                                                                                                                                                                                                                                                                                                                                                                                                                                                                                                                                                                                                ",
"                                                                                                                                                                                                                                                                                                                                                                                                                                                                                                                                                                                                                                                                                                                                                                                                ",
"                                                                                                                                                                                                                                                                                                                                                                                                                                                                                                                                                                                                                                                                                                                                                                                                ",
"                                                                                                                                                                                                                                                                                                                                                                                                                                                                                                                                                                                                                                                                                                                                                                                                ",
"                                                                                                                                                                                                                                                                                                                                                                                                                                                                                                                                                                                                                                                                                                                                                                                                ",
"                                                                                                                                                                                                                                                                                                                                                                                                                                                                                                                                                                                                                                                                                                                                                                                                ",
"                                                                                                                                                                                                                                                                                                                                                                                                                                                                                                                                                                                                                                                                                                                                                                                                ",
"                                                                                                                                                                                                                                                                                                                                                                                                                                                                                                                                                                                                                                                                                                                                                                                                ",
"                                                                                                                                                                                                                                                                                                                                                                                                                                                                                                                                                                                                                                                                                                                                                                                                ",
"                                                                                                                                                                                                                                                                                                                                                                                                                                                                                                                                                                                                                                                                                                                                                                                                ",
"                                                                                                                                                                                                                                                                                                                                                                                                                                                                                                                                                                                                                                                                                                                                                                                                ",
"                                                                                                                                                                                                                                                                                                                                                                                                                                                                                                                                                                                                                                                                                                                                                                                                ",
"                                                                                                                                                                                                                                                                                                                                                                                                                                                                                                                                                                                                                                                                                                                                                                                                ",
"                                                                                                                                                                                                                                                                                                                                                                                                                                                                                                                                                                                                                                                                                                                                                                                                ",
"                                                                                                                                                                                                                                                                                                                                                                                                                                                                                                                                                                                                                                                                                                                                                                                                ",
"                                                                                                                                                                                                                                                                                                                                                                                                                                                                                                                                                                                                                                                                                                                                                                                                ",
"                                                                                                                                                                                                                                                                                                                                                                                                                                                                                                                                                                                                                                                                                                                                                                                                ",
"                                                                                                                                                                                                                                                                                                                                                                                                                                                                                                                                                                                                                                                                                                                                                                                                ",
"                                                                                                                                                                                                                                                                                                                                                                                                                                                                                                                                                                                                                                                                                                                                                                                                ",
"                                                                                                                                                                                                                                                                                                                                                                                                                                                                                                                                                                                                                                                                                                                                                                                                ",
"                                                                                                                                                                                                                                                                                                                                                                                                                                                                                                                                                                                                                                                                                                                                                                                                ",
"                                                                                                                                                                                                                                                                                                                                                                                                                                                                                                                                                                                                                                                                                                                                                                                                ",
"                                                                                                                                                                                                                                                                                                                                                                                                                                                                                                                                                                                                                                                                                                                                                                                                ",
"                                                                                                                                                                                                                                                                                                                                                                                                                                                                                                                                                                                                                                                                                                                                                                                                ",
"                                                                                                                                                                                                                                                                                                                                                                                                                                                                                                                                                                                                                                                                                                                                                                                                ",
"                                                                                                                                                                                                                                                                                                                                                                                                                                                                                                                                                                                                                                                                                                                                                                                                ",
"                                                                                                                                                                                                                                                                                                                                                                                                                                                                                                                                                                                                                                                                                                                                                                                                ",
"                                                                                                                                                                                                                                                                                                                                                                                                                                                                                                                                                                                                                                                                                                                                                                                                ",
"                                                                                                                                                                                                                                                                                                                                                                                                                                                                                                                                                                                                                                                                                                                                                                                                ",
"                                                                                                                                                                                                                                                                  +j@j#j$j%j                                                                                                                                                                                                                                                                                                                                                                                                                                                                                                                    ",
"                                                                                                                                                                                                                                                        &j*jh,=j-j;jA >j,j~^'j)j!j        ~j{j]j                                                                                                                                                                                                                                                                                                                                                                                                                                                                                                ",
"                                                                                                                                                                                                                                                      ^j/j(j_j:j<j[j}j>+|j1j2j3j@{4j  5j6j7jv[L@8j9j                                                                                                                                                                                                                                                                                                                                                                                                                                                                                            ",
"                                                                                                                                                                                                                                                      0jajbjcjdjejfjgjhjN!ijjjkjljmjp7njojpj[@F~n qj                                                                                                                                                                                                                                                                                                                                                                                                                                                                                            ",
"                                                                                                                                                            rjsjtjujvj                                                                                  wjxjyjzjAjBjCjDjEjFjFjGjHjr&i[IjJjKjF~^.F+LjMj                                                                                                                                                                                                                                                                                                                                      Nj                                                                                                                                                  ",
"                                                                                                                                          OjPj #Qj      RjSjTjUj;+q>VjWjXj0>                                                                              YjZj`j k.k+k@k#k$k6.0;&@%k&k*k=k-k;k7=>kY.,k4j                                                                                                                                                                                                                                                                                                                          'k)k.;!k~kB {k]k^k    /k(k_k:k<kW>                                                                                                                            ",
"                                                                                                                                      [kJ'1+./x[f=}k|k1kC 8@2k3k4k5k6k7k8k9k0k                                                                                akbkckdkekfkgkhkikL@F~:$jkkklkmkP+@,R+nkK-okpkqkrksk                                                                                                                                                                                                                                                                                                          tkN@ukvkwk6'I;> A xk1_ykzkAkG#Lj0+!.BkCkDkEk                                                                                                                        ",
"                                                                                                                                    FkH~-2GkHk'-Ik<$Jk> KkI;3#LkMkNkOkPkQkRkSk                                                                                      TkUkVkWkM!)kXkYkU }@Zk`k l.l+l@lY.#l$l%l&l*l9%=l                                                                                                                                                                                                                                                                                                      -l;lm&>l,l'l)l!l~lW)8@{l{l@;]l^l/l(l_lF~|@|+:l<l[l}l|l                                                                                                                ",
"                                                                                                                      1l2l3l%-4l5l6l:$3l-27lL&8l9l0l7)al1%blcldlelflglhliljlkl                                                                                        llmlnlolplqlrlsltlP'ulvlwl7~xlylzlWjAlBlk*ClDlEl                                                                                                                                                                                                                                                                                                    FlGlHlS!IlJlKlLlG*MlNlOlPl!ke4QlRlSlTl` Ul'jQlVlWl(lXle4b;Yl                                                                                                          ",
"                                                                                                                    Zl`l-2 m>=0).m^>+m_$r&d=@m2 #m$m%m&m*m=m-m-];^;m>m,m'm)m                                                                                            !m~m{m]m^m/m(m_mp<a':m<m[m}m-j|m1m2m3m4mk*5md%                                                                                                                                                                                                                                                                                                      6m7m8m9m0mambmcmdmemUj2k}mfmp<VlgmhmimjmkmP'Vl8@Vlpjlmmmnmom                                                                                                        ",
"                                                                                                                  pmqm6l@.@(rm9:a'f4smJ)tmVlg,umvmwmxmymzmAmBmCmDmEmFmGm                                                                                                HmImJ.'$JmKmF;wkLmNlMmNmG;OmPmQmRmSmTmUmClVmWmXm                                                                                                                                                                                      YmZmM@@,7@`m     n.nF~Z'8@]l+n@n                                                                                #n$n})%n&n+@&]*n=n-ns#;ne Lm>n,nZ'|mGj'n1#)n3kS#!n~n{n]n^nO+/n                                                                                                    ",
"                                                                                                                  t[Y^],(n_n2m2#sm:n;l<n[n9&}n|n1n2n3n)l4n5n6n7n8n9n                                                                                                      0nanbncndns>enfngnT#hninjnknlnmnnnonpnqnrnrnsntnun                                                                                                                                                                                vnwnxnN.T ynznAnBnCnDnEnFnGnHnclInJnKn                                                                                LnMnNnOnPnQnRnSnTnUnVnWnXnYnZn`n o.o+o@o3.#o$o%o6l&o*ox^=o-o;o                                                                                                ",
"                                                                                                            >o`-,o);'on$)o!o~ow[{o]o^o/o(o_o:o<o[o}o|o1o2o3o4o5o6o                                                                                                        7o8o9o0oao)lk&bocododneo;&foh$gohoioJjjo+2t]-~(;koP;lo                                                                                                                                                                          monooo.-poqorosoyl[nto{$uovowoxoyo/$zoAo                                                                                        BoCoDoEoFoao>+GoHoIoJoKoLoMoNoOoPoQoRo4'7lSoG)8%ToR&UoVox:Wo                                                                                          ",
"                                                                                                        XoYoZo`os ~, pc=^&.pEj.p+p@p#p$p%p&p*p=p-p;p>p,p'p)p!p~p                                                                                                          {p]p^p/p(p_p:p<p[p}p|p1p2p3p4p5pq=6pz.7p<&8ps]'{9p0p[-ap                                                                                                                                                          bp^ B#K'cpdpOjY.epA#pofpgphp'jip> jpM.kplpo=_>mpnpoppp                                                                                          qprpsptpupvpwpxpypzpApBpCpDpEpFpGpHpZ+,k{@Ip7pJpKpLpMpNpOpPpQp                                                                                      ",
"                                                                                                        o,x}RpSp=;}:TpUpVpWpXpYpZp`p q.q+q@q#q$q%q&q*q=q-q;q>q                                                                                                            ,qy['q)q!q~q{q]q^q/q(q]+Ip_q:q<q[q<-}q`+|qm-1q!{p*2q3qq64q                                                                                                                                                      5qR{ m6q7q8q9q0qaqWp` bqcqdq!k5#y*V eq=.6pfqgqhqiqjqkqlq                                                                                            mqnqoqpqqqrqsqtquqvqwqbnxqyq7;[lzq%'Aq(&]@BqCqDqEqFqGqHqIqJqKq                                                                                    ",
"                                                                                                      LqMqNqOqPqQqRqSq%!].TqUqz-E}@+w@VqWqXqYqZq`q r.r+r@r#r$r                                                                                                              %r&r*r=r-r;r/->r,r'r)rL-6>!r~r{rn#W/]r^r/r(r_r:r<rF|[r}r                                                                                                                                                      |rD@,=E}1rg<O'2ryk3r4r0+;j.;5rA 6rW#7rXp8r9r0rarbrcrdr                                                                                                erfrgrhrirjrkrlrmr%/nrorq r cpprZ  #qr/,J%rrsrtrFqurvrwrxrp}yr                                                                                  ",
"                                                                                                    zrArBrCrDrSpErFrGrHre@Irt${,qmO+$(JrKrLriri;i;MrNrOrUkPr                                                                                                                QrRr%rSrTrl; 19-Ur^&k I=&=]%VrWrXr[-YrZr`r sp*.s+s@s#s$s%s                                                                                                                                                  :&##2@&s*suoW#=s-sUj;sU)>s,s's)s!s~s+{Xp{s]s^s/s(s_s                                                                                                      :s<s[sa*}sw+,,|s1sM-2s3s4sg45sp;;;6sK=7s8s9sW&0sasbscsdsesfsgs                                                                                ",
"                                                                                                  hsisjskslsmsnsospsqsrs0%ssq,]='o]_tsq;m;,,Z+#)usvswsxsyszs                                                                                  AsBsCs                        DsEs'=Fs~,0-|s|s='M-GsU]==M;x$HsIsv=e<u=JsKse>LsMsNsOsPso3Qs                                                                                                                                                =,qm],RsSs3nn+Tsz UsVsWsXsYsZs`s t.t3j+t@t#t$t;1                                                                                                            %t&t*t=t%'-t;t>t-tb.6l,t`l't^ )t=!`%!tH=p,~t{tMqas]ths^t/t(t                                                                                ",
"                                                                                                  _t:t<t[t}t|t1t2t3t-'4t6s5t6t';7t:*8tp5l*| 9t#(0t`o5qatbtct                                                                              dtet5rft+;gthtK+                  it%~b-1>jt-;G=F===F=o,{,ktf-&~ltK|f'mtu}ntot sptqtrtS> *stttut                                                                                                                                            C~vtqrwtt%xtuoytztAtBtCtDtEtFtGtHtIt`$^*JtKtLtMt                                                                                                              NtOtPt6:;tQtRtl.StTtS&Too5UtVt;)WtXtq{R&Yto[Ztw;`t u.u+u@um}#u                                                                              ",
"                                                                                                $u%u&u*u=u=_-u;u>u;),u'uT;6t)u!uh<~uY^$${uE!i<]u^u/u(u_u:u<u                                                                            [u}ue&|u1u2u3u4u5uN$                Xr6u=;cp7uJ%G= #F=8sKp8u!%]=9ul# 20uauY*bucu|2dueufuguhuiujuku                                                                                                                                      lumunus ]@ou:-2sR{vo.mpuz#qurusutuuuvuwuxuyuzuAuBuCuDu                                                                                                              h@Eu$'L-FuQtGul.HuF)Vp'oIuJuKuLuMu>~k'NuOuPuQu-$Ru|&SuTuUuVuWu                                                                              ",
"                                                                                              Xu~:YuZu`u vx;.vk[w]OuNu+v@v-~I>#vClm'<,4$!;$v{uo,Bq%vq5&v:u*v                  S{km=v-v;v>vF$,v                                          'v)v!v~vE-{v]v^v/v(vKk]           _v:v]=x}G=H=f@f<<va-=;A>t;[v5tU;}vl#f'|vz&r61v2v *3v[24v5v6v7v8v                                                                                                                                    }:jt}t9v^@8u0vavj.Wppjbv$(cvdvevfvgvhvI*ivjvkvlv%,oqmv                        nvovpvqv                                                                                rvsvtvuv2lqsvv2:D!/,wvWtmkxvyvy]Luy]q{zvAvrnx^QuJ|BvH<Cv_4DvEvFv                                                                            ",
"                                                                                              GvHvIvJvKvLvMvNvP-q[OvPvQvRvrnU;'ut{E>Sv4$p{TvP;A>X@@!UvVvWvXv              Yva',jZv`vc& w.w+w@w#w                                        $w%w&w*w=w-w;w9o>w4%.;,wO{        'w[*)w{upr*)ktB>A>O;P;]=e<s;)~_{6/!wmt~w{w]wy/^w/w(w;$L0};_w:w_)<w                                                                                                                                [wN&}w|w1w2w3w4w5wTo6w6qD@7w8wpuy-#p#%9wq 0w]+{+;=aw1rbw                    )jcwdw7'Y)5%:j                                                                              ewfwgw0-f<f<hw]@D~K=,uiwJuyvjw'~kwlwmw;'nwo~y,owpwqwrwswtw4,uwvwww                                                                          ",
"                                                                                            xwywEvzwAwBwCwXmDwz^EwFwGwRvHwIwJwi~KwLw''a>p{e<Mw&~q,[,t Nwv60)            f4cwOw/vPwkjQwRwSwTwUwVw                                          WwXwYwZw`w x.xvo3#+x8'@x#x`     $x%xt;&~p5]=B>#$D:O;;;~{a>m'&x*xp!j~u]h!=x-xy/;x>x,x|{'x)x!x~x{xL,                                                                                                                                ]xDq^xC~m,w$x6/x/&(xR&X^qmqmbv_xb._#,k:xH~0w,=I=$'9-<x[x                zq}x|x1x2x<%3x4x5x6x                                                                            7x8x9x0xP;P;{{E>ax>)/{bxcxcx6]dxexfxgxhx,~o'n~ixjx#$[]f5(^kxlxmxnx                                                                          ",
"                                                                                            oxpxqxrxsx4-tx5(l#ixZ;uxvxwxxxyxzxy,3^U;~~m'|]74j'x$t;d<r]AxBxCx        DxEx8'Z'FxGxHx3pIxJxKxLxMxNx                                            OxPxQxRxSxTxUxVxWxT@Xx23&{YxZx`x yL|[,(3r,(3Q={uMwQ=u]l'snn~.y+y@yo'#yb~$y%y&y*y=y-y;yW->y,y'y)y                                                                                                                              Z-!y~y{y]yg'^y/y(y;'VmTq@$!u(&3l5sb-_y:yB.43S,2lI=0-tvpr<y              [y*2Z|}y4u;+|y1y2y3y4y                                              5yW@6yXx8'7y8y9y              0yayby|:<3!%n'(,u]a>I>y^cyx^,~,udyeyfygyhyu^s,iyjyp{kyi5k_lymynyoypyqy                                                                      ",
"                                                                                          rysytyuyvywyxyyyzyAyByCyDyEyFyGyHyIyJwH>j~R;v{Jyo6b~l,Kyf)LyMyNyOyH!//PyQyRySyTyslUyVyWyXyYyZy`y>m z.z                                              +z@zQx#z^r$z p.l%z}m&z*z13=z-z;z>zA/_/v{(,e</3,z(,7]6/l'j!'z)z!z@y~z.y{z]z^z!)/z(z_z:z()<z[z}z|z                                                                                                                            1z2z3z4z5z6z7zZtE>q{8z9zr$Yt0zazh#X+bzbz++4sczl.N;&=$)dzT&            ez!]fzgzt>>whzizjzkzlzmz                                          nzozpzqz2urzsztzuzvzwzxz            yz>zq]Jyg->;zzv{o'2]j~r{>~w^AzBzBzCzHwDzcy>~u{Ez2^FzGzHzIzq(K2v192g|R5p(Jz                                                                ",
"                                                                                        KzLzMzNzOzPzQzRzSzTzUzVz*xWzXzYzZz`z Am~.A~z3/+A@A#Ab($Ac(d~];%Az,&A*A6y=A-A;A>A,A'A)A!A~A{A]A^Adr{(                                                    /A(A_A:A<A[A.!}A|A1A2A3A4A5A6ABlP(l{r)n[}]7Aw{8Aiyj!649A0A`zaAbAcAg(dAeAfAgAhAiAjAkAlAmAnAC4oA                                                                                                                            pAnAqArAsAtAuAvA)))~wA&x>!w]/,/{;'a+xAyAo+zA2+==='i@i<l*g'          AABACAo<DAEAW,FAGAHAIAJA                                            KALAMANA-*OAPAQA=vRAu>SATAUA<mVA8j7>8-WAXAYA!=`;A/ZA`An~Nui~I>4^ B.B+By^b4$#o'Jw2^@B#B$B28I{v~G/%B;<%}L];|;|&B;<*B                                                            ",
"                                                                                      =B-B;Bo(T/n(>Bn(*B*|,Ba7'B)B!B!z~B{B]B^Bo!8]/B(B#A_B:B<B[B}B|B1B2Bjw|A3B4B5B6B7B&A8B9B0BaBbBcBdBeBfB                                                        gBhBiBjBkBlBmBU$nBd@oBmkpBqB0~P(b~rBc~f!sBm{tBj!p)|]p)Dy2^uBzxvBwBxByBzBAB#ABBCBDBEBFBGBHBIBJB                                                                                                                        7vKBLBMBNBOBPBQB!;L;RBSBW;VmA]u^TB5jUBrkVB^,4sczWBKpXBYBXB_n        ZB`B C0l[m` Wk.C+C@C#C$C%C                                            &C*C=C-CNk0k;C>CH!,Ctz9!|x`B'C)C!C~C{CN=]C^CP(m{f~m{YAixo{p)$#s{/C(Cyvcxk)7]r)_C:C<Cn(v_F{F/v_y_;|[CG^J/V(M^V(S/}CJ4;|                                                        ",
"                                                                                    |C1C4}2CY_I]Y_4}F^F{E{D{E^3C954C5C6C7C8C9C0CaC/Br!bCcCdCY[Y[c(eCfC'u'uClgChChCiC~=jCkClCmCdknCoCpCqC                                                            K3rCsCtCuCvCwCwCxCe%yCP=nwzCACf'd~BCdCCC8^k_DCo'u]p)ECFCjx:{GCHC$yICJCKCLCMCNCOC|}PCQCRCSCTCUC                                                                                                                      VCWC>yF|9po*XCg-ltBC!=7]#v4]Kw;'YCKuZC4tWBZoa+]_#$R;=$[3d-`C D.Dx +D`B@Dgz+l#D$D%D&D*D=D-D;D                                              >D,D'D)D!D~D{D]D^D/D(DY%>A_DSy:D<D[D}D~/)w6tj)Jyv'q)rBq)|Dt'$#b4Ouwv1Ds,q!')2D3D4DE^x_;<G/G/F{F{N]J/Q<Q<Q/`_{[R<02S/5D6D                                                      ",
"                                                                                7D%BH:I/M]O^K]L]I:G{x_y_F/v_F^E{S5x_8D9D0DGCaDbDiy5^5^^;Y*KyACcDf)Kymtg-g)dDeDfDgDhDiDjDkDlDmDnDoDpDqD                                                                  F6rDsDewtDuDiDvD^^wDu:QBi_v=c<x$[]J|xDY*^;u]PuyD,~zDOuq!ADBDCDDDEDK2y~FD![x~1}O9y~.}92W_=<&|GD                                                                                                                HDIDJDKDLDMDND$A:^ODW*/;PDXt3^3^Az.BQDAz,u!tRDw^K=<,m'h~d(Gyh{SDTD@x$2*z8!UDxvVD_nWDXDn8YDZD                                                  `D E.E+EZy@E#E$E%E&E*E.l=EWx-E;E>E,EXti~gCu{/;t,_/A/nwt]s,h#'En_owk-o[s})E!Er(D{G]G]x_F/F^J:P<G^H:R/S<~E{[-|{E]E.by0^E/E(E                                                  ",
"                                                                              I{48_EQ/{[O]J/H{J:J:F{x_68x_F{S5E{E{F/:E<E[E}EAD|E^;')n'n'j'5(1q1E6(2E3E4E5E6E7EM(8E9E0EaEbEcEdEeEfE                                                                          gEhEiEe8jEkElEmEnEoEpEqErEsEtEuEvEwEQ=xEyEQu4^:3`AzEAEBECEDEv~![W_![K2v13}y~.}.}F/~[E{g|8D&|&<                                                                                                          EEFEGEHEwyIEJEKE8^}/}/LE[^PDv&>~=~/{MEcy6]/{NE''s{q{u{5to'7]kwOEPEhtQERE5)6B=!e%SEB@TEUEVEWE                                                        XEYEZE`E F.F+F@FT|9B#Ft&$F%F&Fg#_,s;!;!tpw9uP;vA))$#!w{{vAvA~~!;Zt*F=F-F8Dq(F/.}L]v_H/F^V(G^L^{[;F-|{EJ:>F,F'F)F$:[5Xa=8B9B9!FE1M1O1                                    ",
"                                                                            O9~Fv_J:~EL/P/L^M^G^H/;<{Fy_E{S5v_O9W_92[1X_]F,B^F/F$A(Fm6D,_F:F<F[F(9}F|F1F2F3FA(4F5F^r6F7F8F6{9F                                                                                0FaFbFG_cFdFeFfFgFhFiFjFkFlFw=MD{3v:x$o[a>~~v{`AmFnFo(X_3}X_S5.}92v1T5H4T592E{E{y_5};|v_J:v_v1                                                                                                        `*oFpFqFrFsFtFuFvFwFxFyFBDzFZzo),;|^AF'~/{~~1]p{Nu&F&F,;o' BBFCF2mDFEF/{&Al!HsBxB@FFGF59p4                                                              HFIFJFKFLFMFNF9EOFPFQFkCRFSFTF:/y&_/x$j'I<s}}]UFVFIsd)WFl{XF[^YFNCOCZF[1v~28x_G{I:[CH:R<`FY(-|.bH7 G3121S4 3#3$3%3+6%3(<=8e6l2`2O481^<p|                            ",
"                                                                    .G+G@G#G$G%G&G*G=G-G;G>G*<N],GH:w_N]~['G82K2v1v1![w~&<X_)G!G~GT:{GhFE#]G^G/G(G_G:G<G[G}G|G1G2G3G4G5G6G                                                                                    7G8G9G0F0GaGbGcG{1dGeGF_fGgG:GU[hGiGjG!!h584j5kGlGS(w~![.}mGS592S5.}H4y_v_;<I:G{H{G^G^R/P<N]58S/;|                                                                                                  nGoGpGqGrG4DsGD^2C4DtGuGg/vG8/wGp!xGZA4/yGLwk)u]v{!~zGu,AGq!t{r{Xt|^h~BGCGDGEGFG0EGGHGIGJG                                                                  KGLGMGNGOGPGQGRGSGTGUGVGx<A(WGXGYG|-4EZG`G H.H+H@H#H$H%H$|&H*H=Hu1I2ZF![F/S5G{L]M]S/{[R/@}#8-H;H%:ab>Ho2G1B9|[^5ac*4bcab[5 3e6/7Q4n|T4p|2b.c                      ",
"                                                        B1h0j92aE3$a61/7B9hbE1J1#3,H&4'H)H!H]|I3A0;|{FI:T5T5y_}192G4x~x~*<u1'[~H{H]H^H/H(H_H:H<H[H}HaG|H121H2H3H4H5H6H7H8H                                                                                      9H0HaHbHcHdHeHfHgHhHiHN[jH0G0GkHlHmH=ynHoHpHqHrHOCmG3}w~S592S5sHF{~[J]J:G:N]N]O]Q<S/S5g|cdcdK7^[I2                                                                                            tHuHH]I]vHvHF^vH>BvHG{H]>Bx_wHZFxHyHzH3/AH54BHLwECD:CHs,a>k-m'D:n'(,Ky;{DHT=EHFH8E1*GHaFHHIH                                                                          JHKHLHMH^rkEm7NHOHPHC<(9PHQHE(F(RHSHTHQ_.|UHVHQ:WHXHYHZHI2D0=HNC`Hw~G]F^J:I/L^ I-9E7.I+c+I@IZ5cb-:660b7}|a8}:7>:#3Y8P1>4P1P1X2<8R1%31[wgE1#4                ",
"                                                    I8Paj2Bf46/5=4l2A3C1PaG8S2C1h0=8|[9}[5>H@:@:#I$IZ3y0J:Z(;<A0*<fa)[t1Q552'[%I&I*I=I-I;I>I,I'I|H'I)I!I~I{I]I^I/I(I_I:I                                                                                          <I[I}I|I1I2I3IbG4Io34I5I6IbG127I8Ix=aG9IlG&|0IOC723}![92T5D{S568I:H/S/G:#9x~aI>|bIcIdI>H>8eIfIgI<[|5e0hIEd                                                                              iIjIkIH{H:lIH^mImIY_Y_vHnI>BF/C{G]q([1oIpIqIrIsI')v]o[tIC>B:p[C>[-4zuIvI HwIxIeFyIzIAIlFBICIDI                                                                                  EIFIGIHIII`&JIKILIMI&$NIOIPIQIRISITIUIVIWIXIYIq1<}aI0|ZI`I J.J'Gv_I:G{dajb><da}<20;:>8$a*4[5Wa{<>8td&481+6,4g}Fb2fy|T72fT7i}7[u|,4S2B9+J30            ",
"                                                R2W6$3F8B3d626Ua@Jnc;dV8{0>:d6dbs|2bT4>:.3Z5S4#J$Jl|FDkbL2T5>FL2][jb%JaIQ5r3H2r3&J*J=J-J;J>J,J'J)J!J~J{J]J|I^J/J(J_J:J                                                                                              ^|*}<J[J}J|J1J2J3Jo34J5J6J7J8J9J0JaJbJcJNC0IdJ72.J![e|92T5S5;|S/'5eJ.:#8fJgJ!<.3hJ.6i9A3B9j2~8{8B9Sa`b]8m2f6.6^<                                                                    rH;<58`_+}iJN^J/K/lIjJH{G{x_S5v~'GS5.J.}u~]FkJlJmJ04!{!{nJa8_roJ4FwIE#pJqJkD1GKIyIKIrJPIsJtJuJ                                                                                      vJwJQ:xJyJ,IiHX}R>6JzJAJBJCJDJEJFJGJHJIJJJKJLJMJNJH2OJ0|PJ>[QJRJ92~[#8SJTJUJQ1Oc<[=:6676 3o2^5*4[[E1:8g}Hfy|%67b`6`6Ye7b7b$6Efi}!4AaX2(bR1Aa        ",
"                                            ~5G1 af2^5gdU67a-dicic>djcVJVJ)<`5Wao2s|B9A3n|76Xa6c91WJYa^E`hK4XJQ9jbYJ%JP5ZJ>G`J`J K.K+K@K#K$K1J%K&K*K=K]2r4-KN};K>K,K                                                                                                  'K)K!K~K=K{K]K^K/K(K_K:K<KzJDJ[K}Ka|>[t1%<`(QJ|K'GK292g|686D.b1Kha2K163K$Jp|@9R14K[8+6+6(b$4_5n2{5{<{<5KhJ6K-8a1Vd7K                                                            8KH:_E-<L/9K-<iJL^O]O]M]F^F^x_F/W_D{y~![u~&<&<0KaKbKcKVF(]dKeKfKgKpJhKiKjKkKlKW}mKnKV9X9oKpKqKrK                                                                                      sKtKuKvK6HwKxKyKzK,JAKmKBKCKDKEKBJ@[FKGKHKIKJKC7KKLKMK0|r1NKt1I2y0s3,7'|.GOK{|[5-:`2/7G1h0h00a61h2'4!4Fb80EfZ67bZ6.7Z6&6&6$6<aT7udv|u|)4=6O167      ",
"                                        Tb]8gg%aT4!0a}o2360cVJogV8S4!<W8{07}8}Y5*4D3@3q|A9>:PKgh40(<P2QKRKSKZ3jb$IWi`J>7><x8E4N5TKp1UKVKWKXKYKZK`K LG6.Le1+L@L#L                                                                                                          ;K$L%L&L*L=L-L;L>L$bB',L'L)L!L~LPCa|-5$<)[72!['Gu3%BL2.:i|0er|9} 3':1[67)0=6&3[<@9G1=4[[Pb!<&4r|^<{LE1I8(<S2H8/<]L+c                                                      'GJ]J/,GlIO^-<^LiJK//LjJ[CJ]f|G{v~'G'G)[QJR9 JR9OC$<(L_L:L!}<L[L}L|L1L2L3L~1CKW}4L>I5L6L7L8L=19L                                                                                            =10Lh1aLw4bLcLdLeLk3fLbGgLgLhL(}iLjLkL`7lLmLLJnLTKG2oLc|$Id|><pLK7qL5KrLL4|[uc_<[<60:</7[5#3<<Ze7[Hfa0!4w|]e7[_h)4Q7>f37c}Qa:847#7R7a01c[a_8=6  ",
"                                    A3we^hk2G1A3A3]8^8&d>:f22aQ4^h!03aQ4*a/b<7*4^0.3}[26A9U8Abb}LbLagh+4OKsL`htL>G_6`Jmb+8BcM5O6C2JKuLEcvLs2wL+LxLM3Z4yL_JzLAL                                                                                                              ^|M3B5BL!KCLDLELFLGLHLILJLKLoLLK$<(6I2I2721}F{T5K4;0xc~b=8A9 381V4<<R1I8]bLL:eS4W8W8Z5{5a}%4;4)48[ML8[~4xh~4g})05[!5                                            1626[5>8NLOLPL!HQLRLSLTLULU(X_H{VLH^H{x_v~v~.Jx~d|0IR9R952c|*HWLXLYLZL`L M.M+MG,@M#M$M)I%M1I&M{2=}eE*M                                                                                                G6=M-ME5;};M>M,M]J'MdL)M!M~MyJ{M]MKcU3]6^MC7JKW3LKoLNKP5r3ad>7=3]7o|O4hbBaKff})0f}wg7626F8<837_8,4M1P1@9fbB9xd(57171a}O4j9z3q|G1s|fbH8H8c0,4=6",
"                              Y85fqf)f/M'f9bJfPb:7VJjcjc9amgVJ51{<U2f2eb81Tal2m2m2T476[[m|%a':3[c}1gNc&gWd0efa#c@blb2d(M:6(M[0o9]6V39d_M:Mu7<M[M}M|M1M#L2M3M                                                                                                                  4M5MxL6MEc7M8M>c&L9M0M8|8|KLq10|a|t1t1Q9aM}1#8ZcbM`aOKo2A901G1-8a} 3)8.3&4-:{<Z5xg6c 9,4!4@6#6cMY6$6$6DfEfy|=iS7R7                                  LL a@e61(eVa:g%g[dncGd<dGddMeMfMkcgMhMiMA8G4;|-|G^v_e|v1x~d|-5s1(6Y3Q6jMkMlMmMnM)xoMpMqMrM<zsMtMuMvMg1%LsKwMxM                                                                                                      yMw2zMAMBMCMDMEM;MFMz2z2w4GMHMIM$5JMKMV3LM&5&5LKMMQ6o9NMtc183bOM_<pe#7#7Y0t|>470Z561Rh<8;4V4W2B3z3*a a6126<56176.3f0}[61(79b^5c6Ceo2!0:5Ca",
"                          BaT2]86a61PMl0VJ<g`f+gicic)d;dic<gV8)< 6e2&436]8dbG1k2d6T481z3@3m2W5Oc50GhK8Ii[6]aI3UiE7R6O6;0^6QM.8'a`7m9,aRMSMOdTMW4UMVMWMXM                                                                                                                          YMZM^|`M N.NGcEc+ND2W3p1E2%I(6}}*<t1Q9><i|Kacd@Nn|E3cbM4r|0a6661(7-:[5.3.3o2Pc|8,4d}~4EbFbEf$6EfDf$6<aZ6+7Ef8b                              VdG1G1B3dbk2.a^8Pftd9ajcngic31jc8}]5$a$aM4#N{|$NNMC0G^T<T5Z(aMd|t1F4>Gy8Y3ZJjMKL%N&N*N=N-N;N>N,N'Nv4)N!N_|7G~N{N                                                                                                            Z4]N^N)Kw2/N(N*}_NR3:N<N[N}N$5|N|N]61Na9KL2NLKTg,73N4NOM^7{7BaLaY0c},4[<a}96!<o2Cag23al2g0=:Z5'8W8!<56S426 ad6g2Jh*ae6f62a!0z3lh715adb",
"                      @9Tb5NU6|aY5VaRbmg6N@g@gqc$g!d7N8N{dqc9Nnc0N,8jcY5U8k2g2g2Q4/7(5 cPKaN[7#3A1f})gY0_cpeQ8}0O8bNbNcNcN|b'bdN<0<0>aeNfNgNhNiNWMjN                                                                                                                                kNlNr8mNnN[MoN`7a9pNC7+8LKY3%JqNZ3rN&fKbsN10tN01o2A9[[l|M4U8%aa}r|{<ac aE8i2.9+6|8:8,4Q7>fuNe}w|i}#6y|2fi}S7                        ucFa}7Xc@9%4Ca]8lh~g<751PbFd~0jc,8<djcF9]526^b01=a[i[ivNwNxNT5{F5};9A0v3$Imb><jaE2W3nLnLyNzNANBNCNDNENFNGNHNINEcJNKN                                                                                                                  +5LNMNLNNNQ3ONPNQNRNSNTNUNJM8dV3VNC2O6;7ZJ=gF7Q8>0P2=8=8+4=eb}N1_<Vb[7[5]5SbF9:7%gWNjcXNYNtd66n|i9p2$3W6.9Vc5fk2thj9]8]85ak2dbNa[c",
"                  Abm2-:f2eb6fZNk2d6eb'gU6Bd06icGd>dkc,d<g`N<ddM;d}g O.Ob65661e6|[+OxdD8gb1[=aP4J8|6pef}peTdkb}03d`h2d;0|b1e1e3dM8@O3e#O$O%O&O                                                                                                                                            *O=OUM-O=009JKC2N5P6MM>G%JYJ(MXJ;OtN'|~5I81[h2-8[7=4[7G1g2]<96 3]8J1S2H8PcS2W61[PcS2>OI8H8@91[Q1af3[3[                    ,Ot927&3<<W2NaE8T476<741jc-d:706.On0GdGdnc'O_7Va}5n|OKOc)O3bUJWdJ7$I+bZ(e|-5Y3M2P6(MM5b9W3KK!O~O{O=LC5I6Ec]O^O/Or2^|oN                                                                                                                        (O_O:O<O[O}O|O1O2OY7N8U3U33On9W3LM+8TK4eF7|0W710^7!F4O:<:<h2#3#32a.3Y58}b6ogeMkca6cb@3TbG8c02737{g1h|7teid*a3a!0]86f)fd6=dNaG8",
"              *8k22ag2@9+6_bX2>4Yb>4{iXc{8id*aH1Edic)d%gZ5<7{<S4f0e27aZ5 6>87aacM4n|TaB9fb|6_<B1C8/<.cUdzacf!alf)b5O2d@8/cIa]c6O@O@Ol97O                                                                                                                                                      8O9O<08dn91NO6x8ZJF7&cO8W00OT6aOUJ&8qeO1>4BaH3B1J1Q4>:^0ac@3d6SameF8{8NaT2j2C3bO4f]8e69}cO/5%a3a/7                (8,43757L1.9F8^he6|gdO9a,d`f~d@gFdeO}a%gic<d)dn0fOGdngabf0m2i9P2!5gOhOhacNjb>FQ9iO%cD7o9[0o9C2JK'bjOkOlOHcmOnOoOJNpOqOrO                                                                                                                              sOtOuOvOwOjNxOTNyO$53Om9U3C2^6MMD7Acd9Si;fNc20{L|6Ba*8uc71a}e6[7-:e0bcF9Z5m|h01[>4c047a0u|37E9G8:5 a^gebd6]85ak2Jhk2idxdZb",
"            E1h2|7E9_8'447b}b}:81h3[L1*d 91[V6 cd6H1{0lc[dU6^5!8!8m2 3 3 3>:^5^5M4}5@3/7p|Oc.c:<[i/<=aOcFeS8ch$8)7zOAOw8BOCO@O6g;a*f=7                                                                                                                                                          DOm9m98d-7a9+8>7y8ZcEO;OvN{7WdY0KeKe7[&8;4|6v9_<=4FO-:=4:5G1SaB3-4s|g2e6^5Wa96GOe2ac6136f6HOIOl2            2<@4}7C8p2l2>:Jfe0,d>dJO!d/d{dKO8NLO9NOg41e0^0U6Wa$aF9mgeMWN'8*4L4|[{7r9MOzaNORdM2>|Z3&cD7D7,7a9n9'a^c^cOOPO'KPOQOu7<MROSO                                                                                                                                            TO:0;ayO=7=78dn9O6P6'aWiS6 dlfh}afzaQ1|6OcQ4`2T4Xg%dA3/a.3|a!8W627Zea0R7}cR7L1[c*a76U6{<(7&aG1E8G15aid^h81g2Sa",
"      wg9c$3F8+9{8CaG1d6$f`e2a462ao2`e:5zeF8NaH8$3{8db76%gjcb60cf2T4e6z3j9z301z3j901[7T4n|01':BascvN{7{7UOnd8gGilfVOyb:6dNl96gWOXOYO>a                                                                                                                                                          ZO3dCO^c'bT0Bc>7R6ad30g910UdZ0TeTe807[af5[<<[8A32661o2d6G1Cadb]8=476>841'87a.3g0m2j9dbF8Fai2SaG1        10Ba1[bba}`OIOc6^80f{<hcOg@g>d P5651ogic@g.P+P@P06Oa(e8686>:>:9}f0$a[5^bWJhb&gTd!bkiIbNOQ8#8><2d:6'a'b1e1edN#P$P%PU<&P3M*P                                                                                                                                                  :0=P-Pl9;P$5]6^6>P4edfMOu9,Pcf50_c{4afC1OK{|+OAbP1M1c0 3f081.9_8a0Hf_hRa@9^h36sdOaY5^0Pfc6T4k2idE8g2k2k2lhz3",
"  &a=4gc'g>:@e<7{0'POg)P>d[g!P^d~P{dn0;dV8<7&4 3|[g2xdSa.aEdjc%g^086f6a}81g2G1g2J8hb_5z3z3[7OKghK8)0gh20zbY0Le$eSdHe{P`3dN*f]P]P^P6gN8                                                                                                                                                          /PGb,a1edN'a(PE4HbU0!5vNQ2Z0.dU7U7TeK83[3[(8E1^b&4^g`2z32a^5e2'8ogV8F9}[f6idJ1Sh8f 9P7D9^i(b%4Na  %d>OV4H8~8B9B3j25f-4j2+9hhF8db!0hdog_P&46a.a!8Wa:hUajc}g@PW8VaPb}[^5!8T43a#N[7!F~520afzaNcNf&fF7@bYJE7`h'bxb,aIa'b:P<P[P}P|P1P                                                                                                                                                    :0^P6g6g_0=7n9N6O62e2P>03P=3_cLa!bcfGh2071|[s|[8)0)0P161gc-4c0t|#7Q7E9{8c6_e`d56U651Fdtd&47686:ec64Peb&a*a3a",
" a6aU8 35P^89}ccRbOg@P>d@g>d;d;d>d>d>d6P7P@g)ddMog%g7a<7:7Rb,d,d'856e261z3Tas|Z2xdVbF8g2O401Abx980AiQg-68PNc$e>iSg$e9PIaIa2e]P=P0P;aaP                                                                                                                                                          DO]cCOm9'b'ambE7RdSi1820{4KeTe,g8e,gc}%3-6=6p20a76E361&4|aUa%g:7e2%a81NaW6y9K1c06737NgecW2C3dbsfZ24fT4.aeb.a.af636f2&d&d86/ecO~g!8gcVabPFd51f2ge]8`ecP9}*4VJjc@JV8'8^061o2/7/7O4j9-8p|D8/<3bTdzfTg#8kbJ7/cdNxb'b&7,a>adPePfP                                                                                                                                                        gP=P;ahP;aZ7]6[0xbLciP{ajP10LaA|Iih}LfQ1kP91|<g}8[w|B9^5l2Pc<8>4_bXcdbc6.326^5c6&4068}56}[76{<U2c6 aH1.a(5A3",
"G8Th8fPcShteh0A3*a+egcWaBdFd[d`f`N,dUatdmg:gVaZ556PbVa]551hcPbEd<7_eac.39}e65aA3p2Z2Rh$3h0#3/<K86hDf90,g!b!blfIeIbffwb4e,7&7*flPWO-P                                                                                                                                                            mP3d,a1eCO[0mbTg#cc9UdQ2ndQgU7,g8eTeO1La0[KfGg[[U20c$a>8_['8]5gc!0Sa-4B3NaVc#4D91717If7136(7;h$fPfhd^8 aebgg]8lh^h4fge46hgU67aW8{0{0tdV8ogFd7aF32a]8B3Ca*ac6{<41VJ{0Z5&4^53a/7(5#3O4nP=8':D8cdYiGeSikboP,7|b1e2epP2e>aqP                                                                                                                                                            rP]P-P;aXOZ7|No9hf`3d9a[3bsPf}KeLfR8,0+4^7:<x9,f)ef}3aH1*a{8[cF8dbl2}[76T4:5XgXhVg:7]576!82a!82a.ae6465aB3T2",
"f}'41f4[4[Y2[81[1[V6h2Ta}5UaictPuP7N]dGdId|asd26<h^8 aT4*a&a3aT4.a2a#e}50ar|n|j9/7TaVbwgwg^7/<Xd<a<aHeefSdR8JdJavPoe=gwP'b&7lPxPyP                                                                                                                                                                Z71e]c^c2dU5,7$8R8r9Lbqg6hU7Ci)e8[Z0h96[E1g0[[D3Wa&4{<Y5]5*4zPe2U6e2}[l2C3G8FaFaSa61Zd0c@eF3^gpf6a^hEai2keFa8f7fFaVhBe+e0ctd-dOg`N,dic,88aVJ0c>:86^881J1T2g2 3 6F9]566^5n|z3G1J8G1APhbBP{7Wd-6zfNf dU5Nfxbxb2ehfCPYO                                                                                                                                                                DP-PXO=PhP8d[0WO>5NOkb.I1<TdQgS8Nc:<C8sPc}Qg)e-e}82a}5^g46 3<5{<$a>:&a`b!0/5PfS4]5M46fd6*a.a`e/546]8SaCaSa",
"%h%3nh}8wgwgY8gbF8F8h2J1idc6PficEPFPGPHP{d;dW8Adf076 346l2]8G1xdzhTalh a@3U8c6e6j9i9_5Na1[Y8/<Tf<a:aoe8gkhSdki;gzfIbJbIP1e@OlP-P                                                                                                                                                                  JP'b,a1embJ7VOW7LfV5-6QgTe,fOfk}h}6[6[N1Q4c6m2eb!0m2U8KPf2c6(7<7|a!<e2LP!871,:61>8e0<7<7|gyd!0)fUg5fFaC9YcP7 9C9Pc5fideb767a0606419a<gId9a9ahc|g&dWagcT4Sa{8s|2aU6&4/bxge6MP]bB9hb c[iI8zbvc18e9%e)i)i#cLcwb3ehf3eYO                                                                                                                                                                  *7l9hP]P,a%5WOTg}0(f=3Lah}80Ci_c.c[iLa80<a)eK8h0eb>:26$aPbU626 aTbk2e6+3sd7af0^83aidd6e6.am2^86fE8Z2B3Ca",
"<5WaNPe0]5U6}[}[_e76Gg:5(5g2`276IdOPPP@gn09N>d_[QP0c}[&d}[^82aTbCaegxdz3n|RPRPT43a#3#3A3Wbscwgf}80_f_fkh|fJa$eJb%fSPJbIPWOWOIM                                                                                                                                                                      v8^cIa_6`3Tg~7SiQ2,0S8S8ndd}8[7[d}#7TPa}/ag6/7g2e6xg36f2/536E3&d^5!8f29bUPVPW8:7Oa e76WP^geb.fge)fig5aXg4fAh]8ge.a6a463666e2EdZ506l0tdBdW8W8Z5|g^576E3 a&aG1SaT466o2-82bi9J8h0E1Wbwg.cgh&g40d9@d(fU56}pPhflPhf3e^P                                                                                                                                                                  XP=P;a]P;aYPhf(PZP`h!7QfOfJeCiLf!5LbQgYd:aj}N1~5p271^89}U8]8G1Cadb3a^5.3e2$aU8d6s|Cae676f261 3d6xdVb{8me",
"'O,8'd<d,8>d+P;d,d9a41^0 3`e.aebc6td)d>d;dVJW806W8e0Y5Wa<7Pf616ad6Z2NaB3#3`bdbTa/7z33anPOc}8nhN1Ke#dUe>i5c_f>i*gIb5O&f`P QU3                                                                                                                                                                          v8BO6}kfSiwfR8Fec}ndXde}#7~4Xde}f}A3#3hbF8dbBf3a`2 ac6F3H16a]8814f.a26`5'8|aY5fe{0e0<7<7}[{0k0Pb51hc.QVa:706mg[dmgW8{0Z5Y551U6JfPfWa<7$aU6e07a76^8(7H1!8.ak2`bU8!8p2@99c(<gbH8re%3|6Q2Ii[fKa1bQe$86}3dgf+Q5g3e@Q                                                                                                                                                                      N8l9m96O4e>56}>5!aU0Ke,gCiLf#QqgHe:a#d,fQ2C1E1{8dbA3E1FafbA3d6/5&d66f026=4idxd:576e226>:2aG1SaSaB9Sa",
"31$QGdncJOoc)d>d;d,d06tdPb%QU6f2lhe6*4mgic{0sde2^0F9og_[{0|a^076^5d6G8VcB9TaxdVbB9g2aNp|D8wg[83[KeYe6b@dkdld=gReSg5O=gIP>a                                                                                                                                                                              8|[0VOJdyc9et9S1*3K8d}Y0g}u|0[DgO4h0I8@9Ta]8d6g2]8c661ahk2heid&Q}[51:7 6VJ,d'O;d~041BdU6 gOg[d[dVJ*Qic[gqc^d/d{d/d$grc)dic9a51Jff0hd26+3}[hc:7}[36c6Xh/5RPT42al2i9_< hb}=e_<%h50Q1Q1t9NcIikhld=Q>5ybxP+Qgfhf-Q                                                                                                                                                                        ;Q>Q;aBO,QoeU5$8}e9e{hOfwf&g4b_f_f:ad}h2VbW2C1H8c0:8X2G8TbE8 a760c=:26e6#3k2:e*40cf2!0`bzed6ge:5z3",
"V8`f}g$Q)d'Qnc$Q'Q[gmgPb0c<7VaVa(72aveEd,dVJ0c+3|g0cUa41VatdEdWahgT4s|1[H8s|=aG8H8C1Z2G1J8vN|64[Xd!g>i@dSP5c1b}dSeIbxb)Q                                                                                                                                                                                  D7Jac9lf$et9N1Z0c})0h96[6[1[p|Oc<<3[5[-4idSaB9!036 a^hd66aU2e0:7{08}Ubl0Rbhc*4hd86Xhd6!Ql0~Q:7feBdmg)PGd{d(d/dJO{Q>dic)P)P,d-d4151U6hd&d0cFdRb_eH1 a@3=4 a2az3s|y9h9#7d}'4ghN1Z0Lbt9Z0TdHe]QNfNfzO Q+Qgf3e                                                                                                                                                                                C2/cGeJd;fJbHe{hyc&8)iLe1b*g7bZ0=aA3H8{8Vc>427X2F881`bc6<70c*4}[@3.ac6EdVa66^g*a`e!8gc867676",
"e6/5@e&4{<Vaog'O;d>dic9a7a0cEdPg|aU676(e 6'8f0^8g0267a 6{0 6Y5f0 32ad6Vcy9NaB9G89c'i[8I8Oc/<^Q5[[e)echld5O>eld1bzOvPGe Q                                                                                                                                                                                    vfNO{hkfpeaf3[`0v9#4^a|6':Nav9u|!4'4Ca=dF8C36aH146'g@e3h06{051<7Y5+azP}heb^h5asfyg^ewe+fXh^gyd#h<7Uaic/Qqc@gic:gRbBdtdl0VJVJ,dbPjc06zP|g]5(Q7aD3&dF3#em2/5_QZ2<<'4x9v|Xd1gpe(cmfmfNcLf8g9PQe`h5g{P+Q3e=0                                                                                                                                                                                :Q^cvPR6)7Sgoe(f~abflfLe|f:a90N1J8g2Y8B9$3<8>4R2CaxdTb!8}[$a*4Wa>:U826Z5*4766166]5U67a0c&d36",
"[cfbG1k2d6.a61U6Vamg;d@g@PFdhcPb}aY5Y5Ed7a51{<Ce/7z32aU8E3.30c$a>: aa}B9[8Xch2{8|7>43[>4R2I8^Q}<d}S8)eHevP>e5c|fzOvP%f>a                                                                                                                                                                                    <QLfSdLeTdghQ2<<[8}8E1^7J1`0!4y|y|:8dbEah0z3(761}[:7fehc:7Pb51(gdc*4U6(7weiddb5fB3{8Zb5f5ad6)f>h6ahgU6Ua;d+g,dhcU69b26}[zdPb06[QV8<g{0+a}[{<Y5`d0fcOU82a ak2gb<8h9d}x9z|XdSfTeYece;gHeldXe&fQe9P9P5gCO                                                                                                                                                                                    Hb%f6}J7oe1b{h)iki,gHe_fYe7c|iA3-8fbB3{8V4y9H8{8F8F8eb76ac0c>:36H1SbZ5EdSb|aY526c6f6*a=dsf",
"@9H8NaCaCaidT4!8>:<7 6icqcn0ic:ghcVaRbVa5656Wa a}QxdTaSaF8A3`2:e@3:5d6CaTh<8R29f%3,4t|)0vg|igh50>fz|Ci8e>i@d%e>izf|Qyb                                                                                                                                                                                      2cyc{h1bLfQ2}7|6I8~5,iC1Q2~4j}&6x|R2CaZbd6F3Wa etdmg@Jmg)<VJ@JV8F9~Q{07aU6@e>:6a/546SadbG1-4B3^eNa-4z3U80c0641Bde0(e^8^g+ef2Wa e1Q26e2Oa*4f0S4U676`ez3_5s|G8%3L1Y247#7x9-e-e-eYeUe5c5c2Q3Q&f`hzOhf6g                                                                                                                                                                                      BOyb`3U5$e}dOi}08e8e8e.h;g)e3[D8A3 cF8CaG8c0;4*i$3Thlh7676@3&aeb>:*4e0 6S4}[36:5CaZb8f.9Pc",
"k2z32a@3@3^861}[(eU6|aOgGd/d~dqc'djcjcng@JV8^0c6i9Na cV6|7<<y9J1idE8G1B9G8E9YbR21[f}d}v|7[)g_cZ0c}XdCi80HeMf`c*g9P{P4Q                                                                                                                                                                                        ~aOfoeSdr920_<I85QE1<<d}80&6&6e}h2meme a.3D3U6{006-d!Q 6{0b66Q8}`5feU626H17Q5h*aBfVc7f(b 9IfIf[88fFaF8dbeb868Qe0 e'f6a6a*h^g'g alhk26f^5(726}[61`2G1VcR2<8'4'4gh[<f}#7w|U7Ke,f_fkdIe9Q0Qoe`3ybM8                                                                                                                                                                                        a9Se,7;fe9Le!7kiHeJa,gaQAi7[47/<2bJ1F8B3G8Yb:8R2H8.92a76 a81E8eb<h96{<}[;:d6Ea8fc0<8D9 9V6",
"51td|aVa|aVaogjcjcic'dnc{d(dpc$g~dqcn0nc<d.g%g61(58fShUfX2,4_847|7H8NaVbfb<8474[1[:8z|)e8bXdTe80*3h}Ci;g8e1b>e>g9P{P                                                                                                                                                                                          1KLf8g1b]a!5BaQ1Q1}<f}z|7cZ6bQN1Na$4Eac6E3^8!8!8360}&dI1H1F3}he2Pb`dc6]8C3s|FaC9D9F8meNa{8B3Saj2B3CaCa-4Ca(5gg3f(e+3'f^ggg&a.a2ad6egFa{8J8j9eb 3%axdVc|73[d}x9:8<<[<vgK86hU7cf(fLe}d3QzfIead=0                                                                                                                                                                                            &fHb3cJekfSiU0Jb|fj}!7S8h}bfscF8wg_<1[P1;4;4L1|7G8!82aA3F8id>:76A9/as|Th1[<8t|Qa67|7B3d6",
"Ual0Vae0PbEdhc41,8@gcQdQeQ]dn0qcqcqcoc)drc>d,d_e:5@9ThXcE957#7u|[a&3%3$3fb[84747%h|iw|U7808b8eYeMhK8S88eTe8gSPkdXepP                                                                                                                                                                                            Lf;e5cLa%35[S1f}h9g}T790DiU7[8Y8H8G1f6n|5as| fCaCaE8G1C3d6^g`d)8!0me8f;460Q7RcQ7^5ve!03a46462a2a!0!0eb5aSasfg25hve'f36.a)f)f&aweA3Pc%39c*iG8g25a_5Rh%3b}h}z|*3 h=eN1Sf80YeU7~anf;g2Q]QSPfQ                                                                                                                                                                                                &f6}U08ggQOf-fMaliS8S8k},g>OC1|7<8<8>4_b5[:8|7`bCeSa+9xdCe^5&a c|7&3>ft|R7_h47[8Ta=46f",
" 6517a>8f061V2hQ7ajcGd{d@goc!docn0rc<d.gogW8F926&ate.9P1<<Yb>f7[]ex9'4%3Rh*i3[Zh>4[<x9U7Ci8b,g90!hKe;i!hAi;gIb5c,a                                                                                                                                                                                              kb;g|fQfQ2N1Z0h9N1w|90`6.7v|H8$4h2a}@3Q4{8V4(b[8V4PcFaCaf6gdI181{8;4'4_h_h|c[aQ7 3!8/7k2k25a^h^h`b`Ogcf26ffg cB3d6c6^8+eeb^h:5]8Tb^eH8+65[<8R2~8s|G8[8'4w|y|-ex9'4N11gQgkhkh,gXd9eqd2Q4g                                                                                                                                                                                                  [0TgR6kf,PiQJaMaHe!7Sd,g!hJ8J1<< h:847vgOhYbCaT4db$3 cl2jQ#3H85[Zez|8b7[_hYb9flh az3Pa",
"0c0c$aU6D39bF3^5@e%QBdjc,dOg)d<d`f~0{0<7}[kQcO6ad6egPcy9|7L147u|z|Hf~4,4c0@9;437474[#7U7,g80!h:a:a,g8bU7,g8e*g%e                                                                                                                                                                                                lQ!h1b(f}<pec}pe=6U7de#d 7Z0$3S2s|a}Q4C1[8E9_bE9E9|7^e a9b6a-8@9X2Ze4a4a)477ec(bi2$3Pc$3V6[cF8s|B3Sa!0gcgcebs|Na5f^h;h^8f6ge5a:5^hdbJ1If172747<8te$3y9t|@6U77c80w|t|NcS8Le!eLeKeKe_fzf7e                                                                                                                                                                                                    6}U08gNOTd;gUe8g!77c90!7':h2L1b}b}'437>4H8T4idNaT2#3$fB3[8_8w|ud{e[ed}L1s|$f2aidH8|7",
"(7gcf276sdJf eAdU6mQPMl0og<g8ajc[d%gEd&dKP&a]8nQ(5 cVcR2Xc%3;4f}!4{eAfx9c}b}3[>ft|4['48b<a<aHe!e>i90,g,gTeliQe                                                                                                                                                                                                    #cLeJa18Z0h}Sf8[Z6ce#doQ3[1[@9s|A3@9(8M1b}4760OeYf aF33aF8 927Q7d}>f&3+6meE8k2y9IfV4V6V6NaSaid(5Ca f*af2gcm2qfB35febve 3eb81idz3^hB3(<+66747'4<8Xc 9Z0ud<aDf7cTeK8*38bkh>gUe!gkioe`c                                                                                                                                                                                                        >5#cJd!bJe>i8g!7Je#dS8^7H8L16047'4'4'i&al2Sadb:5d6hb<8#7:bEf:b]e>f.981T4lhJ8[c%3c0",
"/5vef27626Jf+a|aBdRbtd41[d[d,d<gV8Ua|a}[f2Ph(5Vhh0G8H8.9y9]ic0>4Raw|808ba0R7,4>fd}Z0'4w|8eYe8gMaUeOb90!hTeli                                                                                                                                                                                                      2dJbLeQ2f},f{h8edeWf:ak}(8[8#41[+6:8h9h9h927<<[ce6@3ZNi2c0=66[Qa60D9G881.a.ae6y9V4(b(<[c{8Caid4f#3J8E8*hgc>:/5)fCadb$f!8yed65a:5)fG19f8f|8173747<8%3h98b%6~e<a~eS8*3S8Le>g@d>iJe*g&f                                                                                                                                                                                                          %8SdW0$8JbYe(f9e_fmfD8H8[<3[L1X2(iTb 3@33aT4+O cL1_h80Yg7c8bx94[s|:5TbCa{8H8R2R2",
">:8686PfWaU63hY5~QpQbhhchc51^07a>8^0Z5PbU6!8:5Ca{8[c$3@9(b%3c02[67d};i)e8b]ed}#7K8#7t|K8<aOb8gdgkdUeOb.h6h;g                                                                                                                                                                                                        QeceLa[fj}liseEgOb906[%3<<M1,4)4=6,4'4_8&3$4]8e6g2S2L1RaR7_8*d[cid46c6^g46eb 97f1[H8G8meEaee81k2815a&ave^5^5c6)fG1+f$f`e!0^hTbiddb{8i2R2c0Ngb}>4P1:88[&6<a.hYg6hXdQg>ikdMf6b8gIb                                                                                                                                                                                                              #c|0%cOi;g$e$e`6Xd{7(<+6%3R2Wb{871Eeg0qQ:5vNb}0[)e807cT7]e,4y9CaBedbSaVh{8Na~8",
"2a6ac6F3F386#h e4hU6PfPf}[&d!8`e6a^8&d2666[he6(5B3NateH8Xcy9rd[<X2t|v|8b8bHfx9d}x9x9Y0d}U7>ikh|fkdkdldrgli                                                                                                                                                                                                            Sdpet9!g:aWfObWfU7h9(baf'4#7R7'4f}>fQa8fq|j9NaR2_bSc77M1E1d6f6f2c6eb]8ge^h+67fPcC1meB3B3A3Xg^hd6)f!0^g:e 3f246E8id]8!0T4lh81E8h0%4Na$3}8<8L12[P1>47[$6<aYeYe<aS8pgOb@d]QIe}d                                                                                                                                                                                                                  J7$c}0!hHeHe:aXdD8Y8R2H8F8G1_5g2rQT481H8f}Hf{e<aU7Ef807[b}R2F8db(5g2TaAeF8Na",
"fbF8CaG1d6!0.a6agc&dH1gcg0.aTbB3{8egzek2e62a_Qk2TaB3egE1@9y9|82[[< h)gHf]e7[[aTf*3d}d}e}Te!eLe!eqdqdMa8gJa                                                                                                                                                                                                              KbsQYdWf!eEg#dk}<<+6N1R7)4Q7)4!47[E95a*a{8<847Q7&3ke81=436f6!0=dCaEa(5g217;4R2$3Eakg-4dbBf5ak2ig`2=4^5'gU8`e.a^hTa=d5aQ481 f[cW6@9H8$3R2R2|7+65[x9Ef~eYe:aYe6h,gtQ@dzfkduQ                                                                                                                                                                                                                    ><vQSd90seYeKeD8H8(bwgNaNagb(<*iI81[b}w|Df<aYg$6Ef)ed}X2H8VbdbSaF8~8@9%3L1",
"[89cXc1[Sh+9F8Ca^h*ath!0.a$fd6F8H8XcUf1[V6{8{8VbZ2h0Na$3Fa.9|7L1>4>4=6~4z|7[d}Ze#7d}d}e}x|!e#d!eMfkdldLe                                                                                                                                                                                                                  Y0;gOb5bWfYe0[|8|8'40[)4#7w|z|372b*aB3*d27t|_bT2d6n|,:k2h0wdi2FaFaYf{8'427ec 9VcmeB3eeidk2g2E8d6!0c6/5!846l2]8dbF8NaB3B3%4W6|7L1;4R2R21[.9[8[<d}T7chYe:aYe!g!hObqdWeUe                                                                                                                                                                                                                        zclf~h:aYeQghbH8[8XcR2[8<<>4<<R2<<Zei}90&6wQDf{emi:8@9fbB9B3Vcc0D9:8'437",
"[8y9c0c0P1+6R2keV6{8{8_5Be6f.a5aVb1[|72hb0:83[(8re1[@9_<@9@9R2c0L13[h94a8bHfw|d}Y0#7d}7[)e!eMb5cVfvPObHe                                                                                                                                                                                                                  Ke:a-ild#d$63[(8[<f}#77[@6,f)0{871s| 9_bP7H8A3TaSah0@9(b+6y9.9Pci2NaYf4727&3X2c0V4$3h0F8SaE8E8dbg281z3eb ae6&ag2ZbUfy9.9Xc[8<8t|)4t|:8Y2%3:<[<*3j}00YeYe907c8e|fqdkd                                                                                                                                                                                                                          gQ}0nf;eWf90[iI8%3%3@9R21fh9P1[8:87[U7%6Ye00Dfz|47@9fbh2E1Th;447'4=647b}",
"H8@9UfR2[8|7Xc[8Xc@9Vc+9F8E8$f`2d6h0Vcc0>4ci0[d}#7xf3[<8|8y9[8[8c0L1:8*3@6)e8ba0d}#7)gw|Telddg6b@d6bJb                                                                                                                                                                                                                    Ke:aMbMb.78b<<;467Q7h}@6#60[A1d6k2NaFaG8Sai9-4H8+65[b}>4P7W6NaPaB3dbSa_bL1M1>4<8|7R2G8$3^eCaB3V6H8$3gbCak2:5)fE8Zb|7:8>4ecL13[#7~4]e7[0[275[M1d}U7Ye:aYe906h<a|fqd&f                                                                                                                                                                                                                            SiXd<a#d.7_<^Q|7%3$4[827b}%3%347]eod%6Yg%6:b#7%3teY8T8Ufc057t|'4b}M1<8",
"d6TbSaB3Vb9f+9[c$3V6FaSh$3egdb5a3ak2Z2R2L1Qa7[z|8b@6w|6[>fb}L1P1[8c0>4t|z|:b:b8b7[x9x9z|7cMaUe+d6bMa                                                                                                                                                                                                                        &6Wf#d;ed}<<5[=6g}@680i}(bQhd681g28181,iC1c0:8Ra=6,4X28fB3B3Sa81]8d6H8T8+6;4L1<8%3R2H8Na{8i2|7X2Y2<8P11[h2xdB9$3<8RaQ7_8&3,4#7~4i}2fjii}e}>fk}&6kh*g.h;g,g<ald}d                                                                                                                                                                                                                              U5mfTedese30E1P1[8E1;4'4f}nhP1c})e<a&690uiw|:8*i8fV4<85[b}'4473[<8c0c0",
" 3^8!82am2e6d6#3k2TaZ2F8NaNaF8xdk2j9g2{81[b}!4udj}U7:b@6Hfd}'4:8D9+6c05[d}i}y|i}w|7[7[8b<aMa6bMa!e90                                                                                                                                                                                                                        ,g`6de90>f5[=6~4z|y|:b>fJ1kP/7Q4z381{8[8>4'4Q7_8f}[<DgZ2-4s|81:5]8d681Sa$3[8+6c0+6y91[V6H81[:8Qa>f6[Qa'4>4W6$3Vc<<Ra[a)4=6'4Q77[udDf90<aVez|80Yg*gObYe<a6h90kf                                                                                                                                                                                                                                  Xdz|Yeseaf[i'iP1|7>f#7t|[8[<R780%6lg%6{e6[%3}8%3<83[>4671h[<y9.9XcXc",
"f2f2U8c6!8 am22ae66fz35adb5f9fYfegxdi9_5{8%3:iHf:bEfU7:b:bz|g}'4b}5[<8Y2b}#7a0Hfw|7[z|U790MaBhvh8g                                                                                                                                                                                                                            Z64bEf#73[g}y|)ey|Hfc0A3g2i9QhZ2W6<<47t|>f'4&3%3j2Z2J1{8Z2J8A3B3h0+Ok2h0$39c|7+6y9nhV41[|7b}[ax9S7]e]ex9b}P1y9<8'4[aR7)4c}'4_hHf$6YgYeZ68080Ye(a(a:a<ach8e                                                                                                                                                                                                                                    ;fTe8eYe dA1|63[f}i}Te(c4['4]eDf%6%6Dfa0671[R2L1>4>4>4L1XfUf@9Vc1[V4",
"e6e6T4e6$fe62a2a&a6fT43aj9g2Ca{8YfNaCaG1A3+9(i[aHfU7Ve7c%6Ef{e7[)4'4h9>4L1>4,4d}2g7[z|<aYe_a>g_f                                                                                                                                                                                                                              pg%6U7x9)0i}EfEfU7u|1[h0J1Na@9reM1t|R7#7>fb}|7h2^7{8H8@98f1[Xc(bXcxdG1J1E1@9(b|7|7%39c.9 9b}R7w|{e8080Fbu|'4;4L157)4|c_h[a'4Y08[7cYe`68c<aEf7b_fObkh00<a                                                                                                                                                                                                                                        Qg!h<aU7+4|6b}>fU77ck}1f)g)e~eDfui@647|7.9<<:8>4Y2rdXc@9H8Vc8fXc%3",
"VbZ2G1g2p2TaG1g2815aTb`b/7Tb81xdVh$3RhfcTaCaWb>4)g)eT77c%6%6<aU7Hf7[d}c}f}h9[<>4c}K8MhZ6Yg(a}d                                                                                                                                                                                                                                  y|y|i}~4Ef+7&6#647I8C1W2|7X2L127>fd}#7)4L1[c c%4R2c0P1<8;4_bL1_bV4Dg_<@91[R2[8%3+6(bThR2L1>f7[{eT7VeVeHfd}474[b}>fu|x9u|#7>f]e%6&hEgEg8g90.7(a>i:aYeOi                                                                                                                                                                                                                                          ,gU77cr9Q1N1h}Df~ek}pex9i}80:bHf>fL1|7c0:8:8(iR2@9ThXc'i9cc0X2N1",
"@9*i$3$3Rh[cSh$3[cNaG8 cxddbg2SaB9te8fShF8CaOc1[Kfx98bVe&6YeZ6xQ$6:b80z|x9z|)4N1f}Y0z|7blg`6                                                                                                                                                                                                                                    x|y|Dfx|&6Z6&68[|8H8_<=e:827b}Q7!4a0d}47S2fbWb%3>4:8:8b}603757Ra>4<8;4c0+6|7+6c0<8|7wgH8c0'4d}@6:b7c<a80w|>fh9:8'4g}4ax9d})48[%68c-iMa8c;e3g#d#d:aYe                                                                                                                                                                                                                                              :b7cf}%h3[v|$6$6;if}x9ud)e@6d}:8c0|8Y22hc0R21[Ufc0<8>4L11747b}",
"reXcyQUfUf9c%3c0(i<8(i'iUfShegVbeg+9VcThVc+9F8gbUf474a:bDfYg7b3g90<a<aU7U79090(cY0>fz|7bYg<a                                                                                                                                                                                                                                    !7Ef<aVeYeZ6:b=61[T8[<60Ohb}27)4~4]e[a<<H8(b;4b}'4Q7t|_8_8Qat|Ze'42747b}4[>4M1:83[E9R21[%3&3>f~4807c%6<bAf4a>f4747[aa07[g}#7a0Y6Ob6byf!e#d:a&h:arg90                                                                                                                                                                                                                                                zQLfQ1af7[<a<aXdvg>fz|z|4a47<8rdc0c0rd'i%3|7X2:8<8rd(i(i|7%h",
"%3y99cXc9cy9|7<8L1>417>4<8y9@9+9Nagb$3.9Uf.9$3Y8wg<847w|:b%6Yg7bZ6%6YeZ6DfYgWf7b8b7[z|Yg<a                                                                                                                                                                                                                                        od$6Ef`6+7Hf[<ThR11f'447'46[~4udAQf}P1c01747'4>f)4_8475737RaQa[aZfZe>f_8_8'4Zh'41h(i[8P1>4vg_hHf2f$6$6T7HfR7'447Qa4amiu|#7d}<arhBQuhvhOb#dkh7b00.h                                                                                                                                                                                                                                                  ,gafFeK8U77c[eN1t|7[u|t|[<|7y9y9y9rdc0c0<<2[[<y99c9c|7<<2[",
"'i'i'i9c9cy9|7c0>44[N1Oh4[<8 91[$3teSh.99cc0|7[89c<<b}Tfmi{eDf90%6%6Z67bDf<a8cOb0080x|Yg7c                                                                                                                                                                                                                                        Te{e80Z6cMg}:<|6M147=6'4d}w|vd@6u|3[X21f37'457b}>4<8c0P1^ird<8_h[ad}R7>fQaZeQ7)0_8&3[<<<b}1f>fx9udDf%6Ve{e7[>fxf:ix9w|!40[g}$6-i+dqdyfObce&hrg90                                                                                                                                                                                                                                                      a[UdY0)eT7d}N1'4d}t|>4|7[8y9.9y9Y2>4L1|8c0P1|7|7rd>4Q7d}",
"<<c0c0%3y9y9P1(i>4Yb1hb}:82h<8y9@9$3*i]i|7>4Kh473[:8b}vg#7]e)eVeVeDf00:aZ64b#d!e!eYe~e907c                                                                                                                                                                                                                                          )e)eZ6Ef=6ae%32747f}#7HfFb{eS7>fN1'4'4Kh3[<<c0'i$3E1+9$38f'i4au|R7#7ZeQ7Ze>f>ft|ci27>4b}h9'4R7S7T7$6DfVe8bd}Qa>f_hw|7[g}x9U7ObyfCg6btQ(akh:a                                                                                                                                                                                                                                                          t9Nc8b:bd}:847t|47[<'iXc1[@9[8L1L1c0'i%3%3c0<8b}#7]eS7",
"4[>4Y2P1rdrd%3c0L1>4 hh9h9b}:8<8'iUf1[|7Fh1fbiu|>ft|cih9ci#7x9x9w|{e%6:a:a`6`6Ob_a#d7bYeVi                                                                                                                                                                                                                                          mf8bEfy|5[R22[3767474ay|{ei}7[>ft|>f'4M1K11[I8E1G8gbC1H81[P1z|a0x9g}[aQa'447f}47vgt|>fQa*3[a>fa0:bDfDfY6jiS7d}#7d}x9!47[7[U7#dyfkd6b_aObkh;g                                                                                                                                                                                                                                                          Q86[8bjid}h9N1f}472[[81[@9Xcc03[:8<8rd(i<8:8t|d}w|#iHf",
"1f h5[<8<8(iP1c02[>4 hb}474747:8L1P1'i<8:8ci4a~44abi>fvgxft|_h#7#7a0U7Ye:a`6deObMatQ`63gch                                                                                                                                                                                                                                            8[{ez|[<Q147t|:8c}8bVe:bHf[a<ig})4'45[Q2Bay9y9(bR2R2%3P15[T7{e8bw|4a)4t|4747b} hRad}4amiai>f!4i}Ve7c~e7c{ew|_hd}!47[w|w|U7:a-i6bMa!eEg.h                                                                                                                                                                                                                                                              Y08b:b7[vg hh947X2[8ThThc0>447:8<8(iL1N1>fai]eHfudz|",
"cif}b}:8 h>4L1L15[>447'4f}RaQa'4b}Y2<<Ybb}>fa0S77[_hd}c}'4<i~4w|>f#7w|$6:ade:a`6ObObCQde                                                                                                                                                                                                                                              -6k}v|af3[c})04[R7udDQ:b!4Qad}mi4at|60h960:8N1>4>45[EQL1b0%6EfU7)eS7u|6[47b}M1Y2b}#7X68bz|d}x9z|{eU7%6%6Veud~47[v|w|S7~4y|kh_a6bMa-i8cef                                                                                                                                                                                                                                                                QgU7k}f}=evgt|60c0R2<<t|<i1g h>42[57Qax9]e@6Hfz|7[",
">ft|'41f,4b}3[4[b}b}47'4'4ci>f)0vgM1Y2L1:8Qa7[]e(caix9#7'4Qa7[S7R7t|#7,f%67b;e7b#d#dEglg                                                                                                                                                                                                                                                e}!4qe*3!4>fN1x9{eEfHft|t|7[z|1c#7t|0[0[t|t|b}b}67:8>4b}Yg&6%67c)eS77[Q7,45[rdc0b}8iFQ807[4az|)eT77c<aDf80S77[7[]eS7w|)e:a!eMa_aEg:a                                                                                                                                                                                                                                                                  Xd80x|>f|i'4>f'43[M1[ai}Hf7[)037ci[ad}4ami]ea0~4_h",
"2g#7civgci'41f:8b}47'4ciZeGQ[aZet|Ng2[|8Fh47bi8i8i!44ad}t|Zex98bS7d}>f!4jiYg90Yg7b7b90                                                                                                                                                                                                                                                  qev|Xd)ew|>fb}d}udi}d}b}#7]ew|4aR7)47[u|#7:ib02[2[M160t|7bZ6&6Y6T7udz|u|#727[<c0L1>fz|:bud]eHfud)e:b<a%6U7udz|w|w|~4w|U7&hMa@ivh-i                                                                                                                                                                                                                                                                      QgU7h}&8#7#7'4,4K8:b<a80#i4a#7Ze4a4ad}[a[a[a_hd}",
"7[8i#71gTf>f'447,457Rat|>f<i[a<iTf'4:8<<<81h#7[ad}x94a8it|Qa#7S7vd~4#7#7udEf7cDf&6$6                                                                                                                                                                                                                                                      v|)eU7ud#747K8ud7[:860e}HQv|u|_hR7h}g}[axfX25[:847>fd}`6`6Yg90$6Ve:b#iw|#7b}[<<<b}[e80{eududud{ey|<alg<ay|#iMhS7S7~4y|7b-iIQMaOb                                                                                                                                                                                                                                                                        )e)eh}x9#7Zh#7si%6YgVe{ew|d}>f4a2gQa'4cit|6[>f",
"Kew|ai2gd}bi>f1gt|ci>f#7<i[a<i>fZe>f'4Oh h'4#7#77[]emix9#7#7x9#i{eud7[0[~4U7VeuiDf:b                                                                                                                                                                                                                                                      8[@680:bg})0x9_h'4>4>fz|udw|!4x9!4S77[t|2[%3>4t|JQbia0:a`63g7bYg$6$6U7:b@6#760>4b})g)ejiKQ{e)e80Ef907bYeVeAfz|z|8b9[#6lgNhMa!e                                                                                                                                                                                                                                                                            w|~4h}c}Z0S7<a:aYeui80]e_h>f#7>ft|'4vg47xfxf",
"-e8b9[miw|4ag}bid}#7d}d}d}8i#7#7bi*3Qa47b}'4#7d}aiS79[7[d}[ax9S7)e{e;ix9x9Af:b:b{e                                                                                                                                                                                                                                                        Xdk})ei}x9Y02g60[<3[x9i})ez|]e]e]ez|h}47L1L1'4u|8[7[8b&h`6`6:aZ6+7Yg%6&6Vez|d}t|'4)g#iVeDfU7:bVeLQ907b:a$680;iz|udHf80%6MQ*g                                                                                                                                                                                                                                                                              d}w|7[c}_c-e00:aYgU7si]e_hTf)4>fRavg47b}h947",
"sisiAf8b#iHfw|miaiai[e[e7[a0x98iai7[)g<i:i<id}K8mi9[Hfw|8ix9x9z|{e:b)e9[mi{e)eud                                                                                                                                                                                                                                                            w|i}a0#76[Z0[<5[h9a0i}{ez|Hf-eud8[c}3[N1'4d}4aHf]e)e3g`67b7b7bYgYeYgZ6+7jiuda04a7[{ejiDf<a%67cDf<algYgDfU7@6]e@6{e<bKi;g                                                                                                                                                                                                                                                                                  cf~4t|f}8bZ67b90U7)e]e8iY0>ft|>ft|vg47h947",
"AiAisiCiAf-e9[9[w|AQ]ew|9[9[w|miw|z|7[aid}8iw|mi9[Hf8b8b(c7[e}z|{e:b)e-e9[)eud                                                                                                                                                                                                                                                              #7Ke!4)0Z0[f>4O1TfHfy|808bud{e8bx9'4h9:id}w|Hfy|)eU7`6NQ:a`67bYe:a7b7b7b~eVe80)e{eU7Ve%6YeYg90<a7cDflgDfU7Hf~4@6#6OQsi                                                                                                                                                                                                                                                                                      Xdx9c}8000YgDfGf8baid}Y0>f)0>f1gxfvgvgvg",
"Ci)eAfAf#i#i#iz|Mh9[#i#i#i#iz|z|;i;i9[9[9imi;i#i9[9[#i#iMhMh;i;iHf#i;iKeqiz|                                                                                                                                                                                                                                                                  bf#7O1N1N1h947d}]e8bsi8bud8bHfh}d}*3x97[z|80U7Ve%63g`6kh:a3g7b&h`67b7b00lguiVelg90007b#d&h00Yglg&690Y6U7)e(c8bDfDf-e                                                                                                                                                                                                                                                                                        bf*3!hHeYe6h)e9[7[X0c}Ncc})gY01g1gTfY0",
"Cixi-eii-e-eMhMhMhmivi;iri9[MhMhMhMh9[z|7[(c;i;iMhMhhiMh9[MhMh9[9[w|8b;i                                                                                                                                                                                                                                                                        Y0c}Y0NcZ0c}mi#iAfxi)eAfz|Kecfcf(cMhz|AfAiji6hch003g3grgrgYe&hkhrgYeKilgchchEili6i3g&hkhrg00.h.hKi<a6hsiz|8bui                                                                                                                                                                                                                                                                                              Y0wiyiAiCi-eki(coiX0TfTf)g)gA|ei)gX0"};
