/* XPM */
static char * arms_n_xpm[] = {
"666 375 7332 2",
"  	c None",
". 	c #58473E",
"+ 	c #5D4C44",
"@ 	c #615048",
"# 	c #65524D",
"$ 	c #65544E",
"% 	c #67554F",
"& 	c #66554B",
"* 	c #64534C",
"= 	c #63544A",
"- 	c #62514A",
"; 	c #635248",
"> 	c #605048",
", 	c #5E504A",
"' 	c #564846",
") 	c #5F4940",
"! 	c #60483E",
"~ 	c #634B3D",
"{ 	c #61493B",
"] 	c #5C4438",
"^ 	c #573F33",
"/ 	c #543C30",
"( 	c #523A2E",
"_ 	c #50382C",
": 	c #51392D",
"< 	c #533B2F",
"[ 	c #553D31",
"} 	c #543E33",
"| 	c #57463D",
"1 	c #584944",
"2 	c #614F49",
"3 	c #63544D",
"4 	c #61514C",
"5 	c #6C5250",
"6 	c #674D45",
"7 	c #65473B",
"8 	c #604333",
"9 	c #5C3F2F",
"0 	c #583B2B",
"a 	c #573A2A",
"b 	c #563929",
"c 	c #543727",
"d 	c #523525",
"e 	c #513424",
"f 	c #503323",
"g 	c #4F3325",
"h 	c #4C3428",
"i 	c #4B372C",
"j 	c #4F3830",
"k 	c #523E35",
"l 	c #59473C",
"m 	c #624F46",
"n 	c #6A574F",
"o 	c #6B5957",
"p 	c #6F605C",
"q 	c #5F4F4B",
"r 	c #685449",
"s 	c #695347",
"t 	c #654840",
"u 	c #62443A",
"v 	c #604335",
"w 	c #5D4030",
"x 	c #5A3D2D",
"y 	c #553828",
"z 	c #4F3222",
"A 	c #4E3121",
"B 	c #4B2F21",
"C 	c #4A3023",
"D 	c #4C3225",
"E 	c #4E3427",
"F 	c #543C32",
"G 	c #584139",
"H 	c #5B443C",
"I 	c #5A463F",
"J 	c #634E47",
"K 	c #67544D",
"L 	c #61504D",
"M 	c #574743",
"N 	c #614E46",
"O 	c #6A5A4C",
"P 	c #6D584A",
"Q 	c #654D41",
"R 	c #5F4337",
"S 	c #5D3F34",
"T 	c #614134",
"U 	c #5B3F31",
"V 	c #593D2F",
"W 	c #573B2D",
"X 	c #583C2E",
"Y 	c #563A2C",
"Z 	c #533729",
"` 	c #523628",
" .	c #513527",
"..	c #4E3224",
"+.	c #4D3123",
"@.	c #4C2F1F",
"#.	c #4C2F21",
"$.	c #4B2F23",
"%.	c #4C3024",
"&.	c #4D3227",
"*.	c #4F3429",
"=.	c #50382E",
"-.	c #513B30",
";.	c #503C33",
">.	c #524036",
",.	c #57463E",
"'.	c #584A41",
").	c #7A6460",
"!.	c #756059",
"~.	c #7E6A61",
"{.	c #846E61",
"].	c #7A6456",
"^.	c #644D3D",
"/.	c #5E4131",
"(.	c #5F3F30",
"_.	c #583829",
":.	c #593D31",
"<.	c #573D30",
"[.	c #573C31",
"}.	c #563C2F",
"|.	c #553A2F",
"1.	c #543A2D",
"2.	c #52372C",
"3.	c #51372A",
"4.	c #4D3326",
"5.	c #4E3328",
"6.	c #513529",
"7.	c #523321",
"8.	c #533324",
"9.	c #523223",
"0.	c #4E3123",
"a.	c #4D3022",
"b.	c #4D3125",
"c.	c #493125",
"d.	c #473124",
"e.	c #49352A",
"f.	c #503C31",
"g.	c #564238",
"h.	c #56453D",
"i.	c #7B685E",
"j.	c #856B64",
"k.	c #795C53",
"l.	c #7A5D55",
"m.	c #8B6F64",
"n.	c #8E7266",
"o.	c #7A6053",
"p.	c #644A3B",
"q.	c #5B402F",
"r.	c #5A3F2E",
"s.	c #5B3E2C",
"t.	c #553D33",
"u.	c #51392F",
"v.	c #4F372D",
"w.	c #4D3529",
"x.	c #553B2E",
"y.	c #553624",
"z.	c #573826",
"A.	c #563725",
"B.	c #543425",
"C.	c #503325",
"D.	c #503428",
"E.	c #473022",
"F.	c #452E20",
"G.	c #4B3527",
"H.	c #533F36",
"I.	c #55473D",
"J.	c #53423D",
"K.	c #55473F",
"L.	c #5C4B44",
"M.	c #62514C",
"N.	c #695A53",
"O.	c #6E5C57",
"P.	c #6F584A",
"Q.	c #7B6352",
"R.	c #775B4B",
"S.	c #745447",
"T.	c #7F5D51",
"U.	c #876559",
"V.	c #866458",
"W.	c #745445",
"X.	c #684839",
"Y.	c #5F4232",
"Z.	c #5E4332",
"`.	c #5B402D",
" +	c #533825",
".+	c #543926",
"++	c #563B30",
"@+	c #54392E",
"#+	c #53382D",
"$+	c #51362B",
"%+	c #593A28",
"&+	c #5C3D2B",
"*+	c #5A3A2B",
"=+	c #573728",
"-+	c #563627",
";+	c #4B2E20",
">+	c #4A3021",
",+	c #472D1E",
"'+	c #513D34",
")+	c #53433D",
"!+	c #493E3E",
"~+	c #4E4641",
"{+	c #534742",
"]+	c #584A47",
"^+	c #594946",
"/+	c #5A4A47",
"(+	c #5C4946",
"_+	c #5B4A44",
":+	c #57473F",
"<+	c #55463E",
"[+	c #54413A",
"}+	c #47332E",
"|+	c #48342D",
"1+	c #49332A",
"2+	c #473126",
"3+	c #463025",
"4+	c #493328",
"5+	c #4F392E",
"6+	c #654E46",
"7+	c #6F5A53",
"8+	c #73625B",
"9+	c #675752",
"0+	c #735F50",
"a+	c #785D4A",
"b+	c #775844",
"c+	c #7B5845",
"d+	c #886150",
"e+	c #926B5C",
"f+	c #8A6354",
"g+	c #795243",
"h+	c #6B4636",
"i+	c #644332",
"j+	c #5F402E",
"k+	c #5D422F",
"l+	c #5D4231",
"m+	c #593F2E",
"n+	c #543A29",
"o+	c #4F3524",
"p+	c #573B2F",
"q+	c #583C30",
"r+	c #563A2E",
"s+	c #55392D",
"t+	c #52362A",
"u+	c #53372B",
"v+	c #5A3E30",
"w+	c #5B3E2E",
"x+	c #614132",
"y+	c #624233",
"z+	c #604031",
"A+	c #5D3D2E",
"B+	c #5B3B2C",
"C+	c #59392A",
"D+	c #533827",
"E+	c #513625",
"F+	c #4F3423",
"G+	c #4F3528",
"H+	c #49302B",
"I+	c #513A37",
"J+	c #52403D",
"K+	c #4B3B3B",
"L+	c #534443",
"M+	c #564946",
"N+	c #594541",
"O+	c #52403C",
"P+	c #503D39",
"Q+	c #4E3B35",
"R+	c #4E3934",
"S+	c #4E3A33",
"T+	c #4F3832",
"U+	c #4C352D",
"V+	c #49322A",
"W+	c #462E24",
"X+	c #483024",
"Y+	c #492F22",
"Z+	c #492D21",
"`+	c #482C20",
" @	c #492D1F",
".@	c #4C3126",
"+@	c #533B31",
"@@	c #624B43",
"#@	c #705F56",
"$@	c #786760",
"%@	c #695A54",
"&@	c #72615A",
"*@	c #735948",
"=@	c #775740",
"-@	c #7D5A46",
";@	c #86614E",
">@	c #8A614F",
",@	c #815747",
"'@	c #754B3B",
")@	c #6D4635",
"!@	c #6A4533",
"~@	c #624130",
"{@	c #5E412F",
"]@	c #5C4130",
"^@	c #573D2C",
"/@	c #563C2B",
"(@	c #583E2D",
"_@	c #593C2E",
":@	c #5A3D2F",
"<@	c #5A3E32",
"[@	c #54382C",
"}@	c #583B2D",
"|@	c #644435",
"1@	c #664637",
"2@	c #5C3C2D",
"3@	c #5E3E2F",
"4@	c #503426",
"5@	c #4D3229",
"6@	c #4D342D",
"7@	c #553F38",
"8@	c #523E3A",
"9@	c #4C3B37",
"0@	c #48352F",
"a@	c #46312C",
"b@	c #443029",
"c@	c #462F29",
"d@	c #462F27",
"e@	c #4A312A",
"f@	c #493127",
"g@	c #4A2F26",
"h@	c #492E25",
"i@	c #4B2F24",
"j@	c #4C3025",
"k@	c #4E3226",
"l@	c #503524",
"m@	c #4E3322",
"n@	c #4C3120",
"o@	c #472B1D",
"p@	c #4B3025",
"q@	c #4C342A",
"r@	c #533C34",
"s@	c #5F4840",
"t@	c #6A554F",
"u@	c #705B58",
"v@	c #72605B",
"w@	c #785B50",
"x@	c #755546",
"y@	c #745340",
"z@	c #7F5C48",
"A@	c #876250",
"B@	c #835E4C",
"C@	c #785341",
"D@	c #6F4A3A",
"E@	c #694535",
"F@	c #674333",
"G@	c #674635",
"H@	c #654536",
"I@	c #5D4032",
"J@	c #5A3A2D",
"K@	c #583A2F",
"L@	c #593B30",
"M@	c #593E33",
"N@	c #583D34",
"O@	c #503A2F",
"P@	c #4E382D",
"Q@	c #523A30",
"R@	c #5B4035",
"S@	c #5B3E30",
"T@	c #634336",
"U@	c #69493C",
"V@	c #6A4A3D",
"W@	c #66493B",
"X@	c #634638",
"Y@	c #644739",
"Z@	c #65483A",
"`@	c #624535",
" #	c #5F4230",
".#	c #5D3E2C",
"+#	c #543729",
"@#	c #4F3327",
"##	c #56443B",
"$#	c #4D3B45",
"%#	c #4A3434",
"&#	c #482F28",
"*#	c #4A3226",
"=#	c #4B3327",
"-#	c #4B3426",
";#	c #533628",
">#	c #553A27",
",#	c #513824",
"'#	c #533928",
")#	c #503627",
"!#	c #4A2F24",
"~#	c #492E23",
"{#	c #503429",
"]#	c #573B30",
"^#	c #62463B",
"/#	c #6C5044",
"(#	c #7B5D53",
"_#	c #80665A",
":#	c #75584D",
"<#	c #7A5744",
"[#	c #7C5643",
"}#	c #825D4B",
"|#	c #845F4D",
"1#	c #815C4A",
"2#	c #785542",
"3#	c #6F4B3B",
"4#	c #6B4737",
"5#	c #664534",
"6#	c #654433",
"7#	c #5C3F31",
"8#	c #563E34",
"9#	c #553C35",
"0#	c #543D35",
"a#	c #4D372C",
"b#	c #5B4134",
"c#	c #5A3C31",
"d#	c #67473A",
"e#	c #684B3D",
"f#	c #674A3C",
"g#	c #664A3C",
"h#	c #674B3D",
"i#	c #674A3A",
"j#	c #664939",
"k#	c #654838",
"l#	c #634636",
"m#	c #624331",
"n#	c #614230",
"o#	c #61402F",
"p#	c #603F2E",
"q#	c #5A3B29",
"r#	c #56443E",
"s#	c #442F37",
"t#	c #473133",
"u#	c #4B2F2B",
"v#	c #4D2F25",
"w#	c #4E3227",
"x#	c #54382A",
"y#	c #55392B",
"z#	c #553A29",
"A#	c #55382A",
"B#	c #5D3C2D",
"C#	c #5E3F2D",
"D#	c #5A3E29",
"E#	c #583C27",
"F#	c #583B29",
"G#	c #573C29",
"H#	c #4F3526",
"I#	c #4B3124",
"J#	c #4A2E22",
"K#	c #4D2F24",
"L#	c #523527",
"M#	c #644533",
"N#	c #6B4C3A",
"O#	c #795D4F",
"P#	c #80665C",
"Q#	c #6F5C53",
"R#	c #745F56",
"S#	c #775B4D",
"T#	c #855F4C",
"U#	c #886351",
"V#	c #815E4B",
"W#	c #775343",
"X#	c #6E4A3A",
"Y#	c #664536",
"Z#	c #644334",
"`#	c #634334",
" $	c #5E4133",
".$	c #563A2F",
"+$	c #563B32",
"@$	c #4F372B",
"#$	c #604436",
"$$	c #664639",
"%$	c #6D4D40",
"&$	c #6D5042",
"*$	c #6C4F41",
"=$	c #6A4E40",
"-$	c #684C3E",
";$	c #694D3F",
">$	c #684B3B",
",$	c #644737",
"'$	c #584740",
")$	c #44362F",
"!$	c #483628",
"~$	c #4B3424",
"{$	c #543427",
"]$	c #57372A",
"^$	c #5B3B2E",
"/$	c #603E32",
"($	c #624132",
"_$	c #5F3E2F",
":$	c #634231",
"<$	c #664232",
"[$	c #66412F",
"}$	c #65422F",
"|$	c #633F2F",
"1$	c #5E3D2C",
"2$	c #4A3325",
"3$	c #493224",
"4$	c #452F21",
"5$	c #463022",
"6$	c #473123",
"7$	c #4E382B",
"8$	c #563E32",
"9$	c #5E463A",
"0$	c #735B50",
"a$	c #806C5F",
"b$	c #766057",
"c$	c #726157",
"d$	c #765F51",
"e$	c #755848",
"f$	c #886350",
"g$	c #805D4A",
"h$	c #795643",
"i$	c #714D3D",
"j$	c #694837",
"k$	c #543930",
"l$	c #4F382A",
"m$	c #593C2C",
"n$	c #604033",
"o$	c #624235",
"p$	c #624638",
"q$	c #5E4234",
"r$	c #60412F",
"s$	c #553F36",
"t$	c #5B4A41",
"u$	c #513F31",
"v$	c #533F26",
"w$	c #533B21",
"x$	c #5A3B27",
"y$	c #603F30",
"z$	c #694537",
"A$	c #6B4739",
"B$	c #6A4636",
"C$	c #684434",
"D$	c #6A4938",
"E$	c #6B4435",
"F$	c #6B4433",
"G$	c #694434",
"H$	c #654131",
"I$	c #503929",
"J$	c #4D3827",
"K$	c #4C3628",
"L$	c #493627",
"M$	c #453424",
"N$	c #443224",
"O$	c #3E2C22",
"P$	c #45322B",
"Q$	c #4E3A31",
"R$	c #583E31",
"S$	c #634739",
"T$	c #765949",
"U$	c #87695C",
"V$	c #8C6D63",
"W$	c #766053",
"X$	c #795F50",
"Y$	c #745747",
"Z$	c #805F4E",
"`$	c #896653",
" %	c #7F5C49",
".%	c #765242",
"+%	c #6F4E3D",
"@%	c #6B4A39",
"#%	c #684937",
"$%	c #674836",
"%%	c #664735",
"&%	c #614434",
"*%	c #583E2F",
"=%	c #523C31",
"-%	c #523932",
";%	c #513220",
">%	c #58382B",
",%	c #64483A",
"'%	c #5D4133",
")%	c #62463A",
"!%	c #65493D",
"~%	c #564139",
"{%	c #5F4A43",
"]%	c #5D5048",
"^%	c #554234",
"/%	c #5A442C",
"(%	c #5B4128",
"_%	c #62432F",
":%	c #6E4939",
"<%	c #6F493C",
"[%	c #6E483B",
"}%	c #684738",
"|%	c #6C4B3C",
"1%	c #6E4E3F",
"2%	c #6D4D3E",
"3%	c #6B4B3C",
"4%	c #6C483A",
"5%	c #6C4737",
"6%	c #6D4838",
"7%	c #6E4937",
"8%	c #6B4835",
"9%	c #674431",
"0%	c #5D402E",
"a%	c #533C2C",
"b%	c #503A2C",
"c%	c #4D3A2B",
"d%	c #453327",
"e%	c #4C3B33",
"f%	c #3F2E27",
"g%	c #3E2A21",
"h%	c #553421",
"i%	c #603D29",
"j%	c #724D3A",
"k%	c #7B5847",
"l%	c #896B5A",
"m%	c #846B5F",
"n%	c #7D6251",
"o%	c #795A46",
"p%	c #805F4C",
"q%	c #83624F",
"r%	c #7C5B48",
"s%	c #795847",
"t%	c #634634",
"u%	c #624736",
"v%	c #604534",
"w%	c #513A32",
"x%	c #503931",
"y%	c #4B3122",
"z%	c #543523",
"A%	c #533326",
"B%	c #563629",
"C%	c #513426",
"D%	c #6D5143",
"E%	c #614537",
"F%	c #5C4235",
"G%	c #62483B",
"H%	c #664A3E",
"I%	c #543E31",
"J%	c #604C45",
"K%	c #605049",
"L%	c #55453A",
"M%	c #5F493B",
"N%	c #644A39",
"O%	c #674A38",
"P%	c #694A38",
"Q%	c #69493A",
"R%	c #6D4B3F",
"S%	c #6C4A3E",
"T%	c #6B493F",
"U%	c #6C4A40",
"V%	c #67473C",
"W%	c #644439",
"X%	c #63453A",
"Y%	c #684E3F",
"Z%	c #674D40",
"`%	c #654B3E",
" &	c #6C4B3A",
".&	c #6E4D3C",
"+&	c #6B4A37",
"@&	c #664532",
"#&	c #644330",
"$&	c #634430",
"%&	c #593F30",
"&&	c #563F31",
"*&	c #523C2E",
"=&	c #4D3A2C",
"-&	c #49352C",
";&	c #4A362D",
">&	c #483227",
",&	c #452B1E",
"'&	c #482B1B",
")&	c #53321F",
"!&	c #5D3826",
"~&	c #613C29",
"{&	c #65402E",
"]&	c #715446",
"^&	c #806A5C",
"/&	c #77645D",
"(&	c #776052",
"_&	c #7E614F",
":&	c #805D49",
"<&	c #825E48",
"[&	c #88654F",
"}&	c #7E5E49",
"|&	c #725341",
"1&	c #725545",
"2&	c #6B4E3C",
"3&	c #684B39",
"4&	c #614635",
"5&	c #634837",
"6&	c #5C4233",
"7&	c #593F32",
"8&	c #553E30",
"9&	c #4F3B32",
"0&	c #4C382D",
"a&	c #4A362B",
"b&	c #442E21",
"c&	c #483123",
"d&	c #563C2D",
"e&	c #604637",
"f&	c #5F4433",
"g&	c #5E3E31",
"h&	c #573A2C",
"i&	c #654B3C",
"j&	c #674D3E",
"k&	c #5B3F32",
"l&	c #64493E",
"m&	c #654A3F",
"n&	c #634F42",
"o&	c #64534D",
"p&	c #5B444A",
"q&	c #624C4C",
"r&	c #664E42",
"s&	c #654D3E",
"t&	c #654D40",
"u&	c #664A3D",
"v&	c #64483F",
"w&	c #64453F",
"x&	c #60433D",
"y&	c #5E413C",
"z&	c #5C4038",
"A&	c #583D38",
"B&	c #573E37",
"C&	c #543D37",
"D&	c #554239",
"E&	c #554339",
"F&	c #56443C",
"G&	c #57443C",
"H&	c #58473C",
"I&	c #57463C",
"J&	c #554337",
"K&	c #574136",
"L&	c #5D4838",
"M&	c #684F3C",
"N&	c #6E4F3D",
"O&	c #6E4D3A",
"P&	c #674633",
"Q&	c #684532",
"R&	c #634233",
"S&	c #5E4035",
"T&	c #523829",
"U&	c #4D2D20",
"V&	c #513124",
"W&	c #5E4236",
"X&	c #5D4336",
"Y&	c #6B5247",
"Z&	c #7A5F52",
"`&	c #705D57",
" *	c #806456",
".*	c #866049",
"+*	c #876248",
"@*	c #7F5B45",
"#*	c #7B5A47",
"$*	c #745948",
"%*	c #694E3D",
"&*	c #664937",
"**	c #654A39",
"=*	c #644938",
"-*	c #5F4536",
";*	c #543D2F",
">*	c #4E3A2F",
",*	c #432D22",
"'*	c #483225",
")*	c #533D30",
"!*	c #5C4537",
"~*	c #5B4337",
"{*	c #63493C",
"]*	c #64463B",
"^*	c #6B5142",
"/*	c #6F5548",
"(*	c #5F4738",
"_*	c #584234",
":*	c #61493F",
"<*	c #63483D",
"[*	c #6A4D3F",
"}*	c #674637",
"|*	c #5F3E2B",
"1*	c #5B3A27",
"2*	c #593825",
"3*	c #583927",
"4*	c #52382B",
"5*	c #59473E",
"6*	c #65544F",
"7*	c #5A493C",
"8*	c #59493D",
"9*	c #5B453E",
"0*	c #5D473A",
"a*	c #6A4F3E",
"b*	c #715240",
"c*	c #694835",
"d*	c #6D4A37",
"e*	c #6B4634",
"f*	c #684333",
"g*	c #664234",
"h*	c #633F33",
"i*	c #5E3D2E",
"j*	c #4B3329",
"k*	c #4E362C",
"l*	c #4F342B",
"m*	c #614436",
"n*	c #846052",
"o*	c #957465",
"p*	c #8F7567",
"q*	c #8C7467",
"r*	c #695A57",
"s*	c #7A6459",
"t*	c #7C5F4F",
"u*	c #815E48",
"v*	c #856046",
"w*	c #805D47",
"x*	c #735440",
"y*	c #6A5041",
"z*	c #695244",
"A*	c #684D3C",
"B*	c #664B3A",
"C*	c #614736",
"D*	c #5E4435",
"E*	c #584133",
"F*	c #4C362B",
"G*	c #473328",
"H*	c #463227",
"I*	c #432F24",
"J*	c #3D2920",
"K*	c #422E25",
"L*	c #544037",
"M*	c #624E44",
"N*	c #625044",
"O*	c #5E4B44",
"P*	c #604439",
"Q*	c #624537",
"R*	c #705649",
"S*	c #533A2F",
"T*	c #553D35",
"U*	c #62473E",
"V*	c #63422F",
"W*	c #64412D",
"X*	c #613E2A",
"Y*	c #5D3A27",
"Z*	c #5B3A29",
"`*	c #5F4D44",
" =	c #695854",
".=	c #544237",
"+=	c #654E40",
"@=	c #705343",
"#=	c #6F4C39",
"$=	c #6D4836",
"%=	c #6C4735",
"&=	c #674134",
"*=	c #643F2F",
"==	c #64412E",
"-=	c #463229",
";=	c #44312B",
">=	c #46332D",
",=	c #704B39",
"'=	c #7F5644",
")=	c #89604C",
"!=	c #9A7461",
"~=	c #886552",
"{=	c #826553",
"]=	c #927867",
"^=	c #948374",
"/=	c #76675B",
"(=	c #776660",
"_=	c #745C50",
":=	c #7D5E4C",
"<=	c #835F49",
"[=	c #845E47",
"}=	c #805C44",
"|=	c #785843",
"1=	c #715442",
"2=	c #695242",
"3=	c #675042",
"4=	c #624837",
"5=	c #574032",
"6=	c #523C2F",
"7=	c #503A2D",
"8=	c #4B352A",
"9=	c #483429",
"0=	c #453128",
"a=	c #412F25",
"b=	c #46332C",
"c=	c #54453C",
"d=	c #5F4E48",
"e=	c #5B4B43",
"f=	c #554240",
"g=	c #533F38",
"h=	c #5A3E33",
"i=	c #5F3F34",
"j=	c #5F4234",
"k=	c #56392B",
"l=	c #72584B",
"m=	c #6E5349",
"n=	c #583C32",
"o=	c #583E33",
"p=	c #6A4936",
"q=	c #6C4935",
"r=	c #684330",
"s=	c #633E2B",
"t=	c #5E3B28",
"u=	c #66554D",
"v=	c #625250",
"w=	c #564B42",
"x=	c #5B493D",
"y=	c #5A4437",
"z=	c #694C3C",
"A=	c #6D4C3B",
"B=	c #704C3C",
"C=	c #6A4535",
"D=	c #664330",
"E=	c #61402D",
"F=	c #4A362F",
"G=	c #46352E",
"H=	c #463430",
"I=	c #46332F",
"J=	c #4E352E",
"K=	c #704938",
"L=	c #7F5441",
"M=	c #8A5D48",
"N=	c #9B6E57",
"O=	c #A37961",
"P=	c #97715A",
"Q=	c #84644F",
"R=	c #896E59",
"S=	c #957C6A",
"T=	c #806C5E",
"U=	c #736862",
"V=	c #735F56",
"W=	c #7D6354",
"X=	c #7E5D4C",
"Y=	c #815E4A",
"Z=	c #805C46",
"`=	c #78553F",
" -	c #72533F",
".-	c #6F5441",
"+-	c #644D3F",
"@-	c #664C3B",
"#-	c #63493A",
"$-	c #624839",
"%-	c #614738",
"&-	c #5F4538",
"*-	c #5E4437",
"=-	c #5A4335",
"--	c #594135",
";-	c #584034",
">-	c #533C2E",
",-	c #4D392E",
"'-	c #423026",
")-	c #453029",
"!-	c #4C3A32",
"~-	c #4C3C34",
"{-	c #573A31",
"]-	c #5B3D32",
"^-	c #5F4136",
"/-	c #543928",
"(-	c #664C3D",
"_-	c #6F5549",
":-	c #5B3F34",
"<-	c #604239",
"[-	c #654538",
"}-	c #684736",
"|-	c #6A4734",
"1-	c #67422F",
"2-	c #5C453D",
"3-	c #6B5953",
"4-	c #60524F",
"5-	c #5E4E48",
"6-	c #523F38",
"7-	c #563B2A",
"8-	c #654632",
"9-	c #654634",
"0-	c #5C4032",
"a-	c #5A4033",
"b-	c #47342D",
"c-	c #4A332B",
"d-	c #4D352B",
"e-	c #5F3F32",
"f-	c #795241",
"g-	c #855A47",
"h-	c #92644C",
"i-	c #A27359",
"j-	c #AA7E65",
"k-	c #A07B61",
"l-	c #916F56",
"m-	c #83644F",
"n-	c #846B56",
"o-	c #927665",
"p-	c #81675D",
"q-	c #7E6F69",
"r-	c #79655A",
"s-	c #795F52",
"t-	c #806353",
"u-	c #7E5D4A",
"v-	c #73533E",
"w-	c #6E513F",
"x-	c #6D5241",
"y-	c #694F40",
"z-	c #634C3C",
"A-	c #594234",
"B-	c #533D32",
"C-	c #4D3932",
"D-	c #4C3934",
"E-	c #56382D",
"F-	c #5F4335",
"G-	c #6D5145",
"H-	c #765A4D",
"I-	c #6C5146",
"J-	c #5C3E34",
"K-	c #684F48",
"L-	c #6C524F",
"M-	c #1B2B50",
"N-	c #11234D",
"O-	c #1D2E55",
"P-	c #293C60",
"Q-	c #615151",
"R-	c #685654",
"S-	c #624F49",
"T-	c #513C37",
"U-	c #442C22",
"V-	c #43291C",
"W-	c #604532",
"X-	c #5D422D",
"Y-	c #5F4431",
"Z-	c #624734",
"`-	c #614539",
" ;	c #50352A",
".;	c #664438",
"+;	c #715041",
"@;	c #7E5746",
"#;	c #8C5E47",
"$;	c #9B6950",
"%;	c #A4765C",
"&;	c #A97F66",
"*;	c #A27D62",
"=;	c #916F54",
"-;	c #88664D",
";;	c #886853",
">;	c #947363",
",;	c #907469",
"';	c #816E68",
");	c #776154",
"!;	c #7E6254",
"~;	c #795845",
"{;	c #705341",
"];	c #6F5240",
"^;	c #654B3A",
"/;	c #583D32",
"(;	c #5A4238",
"_;	c #5C443A",
":;	c #5A413B",
"<;	c #5B443B",
"[;	c #583C31",
"};	c #5C3E33",
"|;	c #533626",
"1;	c #715549",
"2;	c #5F4436",
"3;	c #6A4A3B",
"4;	c #694633",
"5;	c #5A3724",
"6;	c #684C41",
"7;	c #765A50",
"8;	c #5D4C4A",
"9;	c #283658",
"0;	c #1C2D57",
"a;	c #11255A",
"b;	c #0F235E",
"c;	c #051B55",
"d;	c #05194C",
"e;	c #1B2D53",
"f;	c #36445E",
"g;	c #4B545E",
"h;	c #61524D",
"i;	c #6C5754",
"j;	c #5D4640",
"k;	c #472F25",
"l;	c #482D22",
"m;	c #5B4132",
"n;	c #604635",
"o;	c #5D4430",
"p;	c #5D4332",
"q;	c #5E4433",
"r;	c #61463B",
"s;	c #5F4439",
"t;	c #5D4237",
"u;	c #5C4136",
"v;	c #614338",
"w;	c #6B4D42",
"x;	c #795547",
"y;	c #8B5E4B",
"z;	c #91614B",
"A;	c #93674E",
"B;	c #9C7259",
"C;	c #A78267",
"D;	c #A88368",
"E;	c #987358",
"F;	c #8A654B",
"G;	c #906A55",
"H;	c #997363",
"I;	c #96756A",
"J;	c #7A695F",
"K;	c #7E685A",
"L;	c #785744",
"M;	c #86634F",
"N;	c #7E5B48",
"O;	c #755441",
"P;	c #6F5242",
"Q;	c #684D3A",
"R;	c #654836",
"S;	c #654A37",
"T;	c #5D4334",
"U;	c #5B3F33",
"V;	c #5D4135",
"W;	c #5F4338",
"X;	c #60453C",
"Y;	c #684D44",
"Z;	c #6A4F4A",
"`;	c #6C4E46",
" >	c #705043",
".>	c #705041",
"+>	c #70513F",
"@>	c #6F503E",
"#>	c #6B4F43",
"$>	c #795D54",
"%>	c #5E4237",
"&>	c #63402D",
"*>	c #5C3B2C",
"=>	c #684A40",
"->	c #695755",
";>	c #454958",
">>	c #3A4B60",
",>	c #3D4E5E",
"'>	c #293456",
")>	c #182957",
"!>	c #11265F",
"~>	c #12296C",
"{>	c #0B236B",
"]>	c #071F67",
"^>	c #061B5E",
"/>	c #071A52",
"(>	c #121F4B",
"_>	c #292D4F",
":>	c #434359",
"<>	c #56555F",
"[>	c #594F51",
"}>	c #65544A",
"|>	c #6C5650",
"1>	c #6C564B",
"2>	c #664B40",
"3>	c #482E21",
"4>	c #64483C",
"5>	c #53392C",
"6>	c #684C40",
"7>	c #745246",
"8>	c #825848",
"9>	c #845744",
"0>	c #885E48",
"a>	c #956D54",
"b>	c #9E795E",
"c>	c #9D785B",
"d>	c #9D7659",
"e>	c #A57C60",
"f>	c #A0735C",
"g>	c #9A6F5C",
"h>	c #956E5F",
"i>	c #A48478",
"j>	c #786C63",
"k>	c #816B5E",
"l>	c #825F49",
"m>	c #88624B",
"n>	c #80583F",
"o>	c #87614A",
"p>	c #7A5743",
"q>	c #745543",
"r>	c #6E5141",
"s>	c #6B503F",
"t>	c #684934",
"u>	c #654934",
"v>	c #5A3F34",
"w>	c #573F35",
"x>	c #553F34",
"y>	c #553F32",
"z>	c #68483B",
"A>	c #6E4E41",
"B>	c #765649",
"C>	c #7B5B50",
"D>	c #7B5D52",
"E>	c #74584D",
"F>	c #72564B",
"G>	c #715348",
"H>	c #705345",
"I>	c #725245",
"J>	c #725243",
"K>	c #735241",
"L>	c #72513E",
"M>	c #765542",
"N>	c #745541",
"O>	c #775846",
"P>	c #7A5D4D",
"Q>	c #76594B",
"R>	c #7A5F54",
"S>	c #7E6862",
"T>	c #78615D",
"U>	c #705A52",
"V>	c #775C55",
"W>	c #7C6054",
"X>	c #846553",
"Y>	c #826150",
"Z>	c #805C4C",
"`>	c #765544",
" ,	c #775647",
".,	c #77574A",
"+,	c #736066",
"@,	c #454C76",
"#,	c #354A85",
"$,	c #36487F",
"%,	c #374979",
"&,	c #374770",
"*,	c #212F5E",
"=,	c #142762",
"-,	c #11286E",
";,	c #122C79",
">,	c #092377",
",,	c #072273",
"',	c #071E6A",
"),	c #091A62",
"!,	c #0C1556",
"~,	c #151752",
"{,	c #232055",
"],	c #352B50",
"^,	c #5B4955",
"/,	c #5D4B4A",
"(,	c #5A4949",
"_,	c #6E5954",
":,	c #70554C",
"<,	c #4D321F",
"[,	c #492E19",
"},	c #492E1B",
"|,	c #4D3322",
"1,	c #4C3221",
"2,	c #614136",
"3,	c #634338",
"4,	c #654337",
"5,	c #674539",
"6,	c #644437",
"7,	c #7A5344",
"8,	c #7E5845",
"9,	c #805A43",
"0,	c #8D694F",
"a,	c #9A7558",
"b,	c #A07759",
"c,	c #A27659",
"d,	c #A97A60",
"e,	c #B0806A",
"f,	c #A87A6A",
"g,	c #9A7364",
"h,	c #9F8378",
"i,	c #827163",
"j,	c #856A59",
"k,	c #7A5B47",
"l,	c #84604A",
"m,	c #835B42",
"n,	c #7B553E",
"o,	c #76533F",
"p,	c #694A36",
"q,	c #634732",
"r,	c #5C4034",
"s,	c #6A493A",
"t,	c #6F4E3F",
"u,	c #735243",
"v,	c #704E42",
"w,	c #6B4B3E",
"x,	c #684A3F",
"y,	c #65493E",
"z,	c #624439",
"A,	c #604237",
"B,	c #60453A",
"C,	c #664F49",
"D,	c #65504B",
"E,	c #69544F",
"F,	c #6F5B52",
"G,	c #735B51",
"H,	c #6E564A",
"I,	c #6B5144",
"J,	c #6E5143",
"K,	c #624034",
"L,	c #6F4D41",
"M,	c #8F6F62",
"N,	c #8B6B60",
"O,	c #6A5963",
"P,	c #374176",
"Q,	c #233B83",
"R,	c #1E347D",
"S,	c #1B3276",
"T,	c #182D6C",
"U,	c #172A62",
"V,	c #283665",
"W,	c #1B2F6B",
"X,	c #162E76",
"Y,	c #112C7D",
"Z,	c #0A297C",
"`,	c #092A7B",
" '	c #072676",
".'	c #082171",
"+'	c #0B1D69",
"@'	c #0E1860",
"#'	c #101356",
"$'	c #171650",
"%'	c #241943",
"&'	c #432F3A",
"*'	c #59413D",
"='	c #6A5550",
"-'	c #6B5855",
";'	c #5A4D47",
">'	c #5D5046",
",'	c #6B574E",
"''	c #634B41",
")'	c #4D2D22",
"!'	c #513122",
"~'	c #4B2E1C",
"{'	c #4E321D",
"]'	c #4C301B",
"^'	c #4F3421",
"/'	c #583D2A",
"('	c #5D4136",
"_'	c #5C3F37",
":'	c #5B4038",
"<'	c #5E423C",
"['	c #60443C",
"}'	c #63453C",
"|'	c #7D594B",
"1'	c #7D5848",
"2'	c #795442",
"3'	c #7A5640",
"4'	c #856149",
"5'	c #916C51",
"6'	c #9D7458",
"7'	c #A97B61",
"8'	c #AB7C62",
"9'	c #A77761",
"0'	c #B58571",
"a'	c #A67B6A",
"b'	c #A27C6E",
"c'	c #A3867A",
"d'	c #8E7769",
"e'	c #856654",
"f'	c #81614C",
"g'	c #84614D",
"h'	c #785541",
"i'	c #674C3B",
"j'	c #644936",
"k'	c #614A38",
"l'	c #5F4836",
"m'	c #5D4634",
"n'	c #5C4533",
"o'	c #5B4434",
"p'	c #5A4333",
"q'	c #594232",
"r'	c #584131",
"s'	c #5A4031",
"t'	c #6C4C3D",
"u'	c #57392E",
"v'	c #55372C",
"w'	c #54362B",
"x'	c #4E332A",
"y'	c #4F362F",
"z'	c #4D362E",
"A'	c #544035",
"B'	c #513D32",
"C'	c #55392E",
"D'	c #54362E",
"E'	c #573931",
"F'	c #5D3F37",
"G'	c #664840",
"H'	c #6F5348",
"I'	c #695C65",
"J'	c #2C3A67",
"K'	c #122F71",
"L'	c #092770",
"M'	c #082875",
"N'	c #092676",
"O'	c #051F6C",
"P'	c #0C2164",
"Q'	c #1C2A60",
"R'	c #223465",
"S'	c #12276D",
"T'	c #0C2B7D",
"U'	c #0D3084",
"V'	c #062C7D",
"W'	c #092F78",
"X'	c #04266D",
"Y'	c #06226B",
"Z'	c #0E2269",
"`'	c #0F1C60",
" )	c #0F154F",
".)	c #171C42",
"+)	c #2B283B",
"@)	c #402D2F",
"#)	c #553E36",
"$)	c #5F493E",
"%)	c #6C564D",
"&)	c #715B50",
"*)	c #614B3E",
"=)	c #624C41",
"-)	c #472C21",
";)	c #492D22",
">)	c #4A2C21",
",)	c #503023",
"')	c #553526",
"))	c #5B3C2A",
"!)	c #59453A",
"~)	c #52413C",
"{)	c #50423D",
"])	c #5E443A",
"^)	c #63473B",
"/)	c #5E4338",
"()	c #593E35",
"_)	c #51362D",
":)	c #53372C",
"<)	c #715444",
"[)	c #7A5948",
"})	c #7E5947",
"|)	c #7E5946",
"1)	c #7B5643",
"2)	c #7C5641",
"3)	c #865D49",
"4)	c #966C56",
"5)	c #A57861",
"6)	c #A3755E",
"7)	c #AE8069",
"8)	c #A67763",
"9)	c #AC7F6A",
"0)	c #A67B68",
"a)	c #A37D6A",
"b)	c #9F7865",
"c)	c #857163",
"d)	c #8C6B59",
"e)	c #83604C",
"f)	c #7F5E4B",
"g)	c #755642",
"h)	c #6A4D3B",
"i)	c #604937",
"j)	c #5E4936",
"k)	c #5B4432",
"l)	c #5A402F",
"m)	c #674738",
"n)	c #52362B",
"o)	c #483026",
"p)	c #473529",
"q)	c #48342B",
"r)	c #4B322B",
"s)	c #4C312A",
"t)	c #4D322B",
"u)	c #4F342D",
"v)	c #553A33",
"w)	c #5E433A",
"x)	c #5A4E52",
"y)	c #364063",
"z)	c #193066",
"A)	c #062164",
"B)	c #052270",
"C)	c #03237A",
"D)	c #001D73",
"E)	c #031E6D",
"F)	c #0E2566",
"G)	c #283862",
"H)	c #142A70",
"I)	c #0B277A",
"J)	c #092D83",
"K)	c #082E83",
"L)	c #09307D",
"M)	c #0C3178",
"N)	c #112D77",
"O)	c #12266B",
"P)	c #111C5A",
"Q)	c #161A49",
"R)	c #23253A",
"S)	c #363135",
"T)	c #3F2D29",
"U)	c #4E362A",
"V)	c #705549",
"W)	c #765D4F",
"X)	c #755A4B",
"Y)	c #614638",
"Z)	c #6B4F41",
"`)	c #644A3D",
" !	c #513328",
".!	c #56362B",
"+!	c #5A3A2F",
"@!	c #5C3C2F",
"#!	c #61473A",
"$!	c #594336",
"%!	c #58433B",
"&!	c #53423B",
"*!	c #53382F",
"=!	c #52372E",
"-!	c #52352D",
";!	c #7A5441",
">!	c #825947",
",!	c #906552",
"'!	c #9B705D",
")!	c #A47762",
"!!	c #AB7E69",
"~!	c #A87A63",
"{!	c #AD7F68",
"]!	c #A97962",
"^!	c #A97C66",
"/!	c #756459",
"(!	c #8C7769",
"_!	c #826351",
":!	c #825F4C",
"<!	c #775643",
"[!	c #694C3A",
"}!	c #5E4735",
"|!	c #5C4535",
"1!	c #54382D",
"2!	c #4C3128",
"3!	c #442B24",
"4!	c #432C24",
"5!	c #442D25",
"6!	c #472E27",
"7!	c #452C25",
"8!	c #432F26",
"9!	c #443027",
"0!	c #47332A",
"a!	c #462D26",
"b!	c #4F3F40",
"c!	c #49475C",
"d!	c #2D355A",
"e!	c #142458",
"f!	c #0B2063",
"g!	c #062172",
"h!	c #012073",
"i!	c #001F6F",
"j!	c #042165",
"k!	c #0E2458",
"l!	c #223369",
"m!	c #112770",
"n!	c #0C277E",
"o!	c #092A87",
"p!	c #002580",
"q!	c #072B83",
"r!	c #0D297C",
"s!	c #0F2267",
"t!	c #171E52",
"u!	c #292645",
"v!	c #3C3139",
"w!	c #483730",
"x!	c #473028",
"y!	c #806659",
"z!	c #6E5447",
"A!	c #482C1E",
"B!	c #462A1C",
"C!	c #5D3D30",
"D!	c #5C463B",
"E!	c #57453B",
"F!	c #56433B",
"G!	c #53443D",
"H!	c #5A3F36",
"I!	c #563D36",
"J!	c #513831",
"K!	c #6A4D3D",
"L!	c #765745",
"M!	c #7C5945",
"N!	c #795340",
"O!	c #895E4B",
"P!	c #916653",
"Q!	c #A27560",
"R!	c #A67964",
"S!	c #A87B66",
"T!	c #A67962",
"U!	c #A47760",
"V!	c #AB7E67",
"W!	c #9A7A6A",
"X!	c #8C786B",
"Y!	c #7E5F4B",
"Z!	c #825F4B",
"`!	c #7D5A47",
" ~	c #50352C",
".~	c #452D23",
"+~	c #422B23",
"@~	c #483129",
"#~	c #4B342C",
"$~	c #483632",
"%~	c #4B3E47",
"&~	c #383349",
"*~	c #202449",
"=~	c #0E1B50",
"-~	c #041B61",
";~	c #011E6C",
">~	c #001F6C",
",~	c #001C62",
"'~	c #072256",
")~	c #2E4266",
"!~	c #20316A",
"~~	c #132975",
"{~	c #0B257C",
"]~	c #0A2986",
"^~	c #0C2A84",
"/~	c #102775",
"(~	c #162461",
"_~	c #282A51",
":~	c #3F3445",
"<~	c #4D3837",
"[~	c #4A3429",
"}~	c #685044",
"|~	c #735749",
"1~	c #4E2E1F",
"2~	c #604438",
"3~	c #60483A",
"4~	c #59493F",
"5~	c #55473E",
"6~	c #4D4241",
"7~	c #6C5547",
"8~	c #543B34",
"9~	c #503730",
"0~	c #7B5844",
"a~	c #795642",
"b~	c #785340",
"c~	c #7B5542",
"d~	c #835A46",
"e~	c #8A5F4C",
"f~	c #996C59",
"g~	c #9E715C",
"h~	c #A77A65",
"i~	c #AA7D68",
"j~	c #A97C65",
"k~	c #A2755E",
"l~	c #A27D6B",
"m~	c #887469",
"n~	c #846A5B",
"o~	c #7C5F4D",
"p~	c #7D5C49",
"q~	c #735442",
"r~	c #4C332C",
"s~	c #452E26",
"t~	c #47302A",
"u~	c #49322C",
"v~	c #4B342E",
"w~	c #4C382F",
"x~	c #443226",
"y~	c #433125",
"z~	c #48302C",
"A~	c #453236",
"B~	c #322840",
"C~	c #181A41",
"D~	c #07164F",
"E~	c #051C60",
"F~	c #032066",
"G~	c #001C5C",
"H~	c #021C4F",
"I~	c #182A54",
"J~	c #263569",
"K~	c #16296D",
"L~	c #122574",
"M~	c #112270",
"N~	c #272B58",
"O~	c #3F374E",
"P~	c #523F45",
"Q~	c #5C3D3A",
"R~	c #5A3930",
"S~	c #533A33",
"T~	c #4D3930",
"U~	c #73574B",
"V~	c #7A5D4F",
"W~	c #715142",
"X~	c #5D3C2B",
"Y~	c #543320",
"Z~	c #5C3B28",
"`~	c #5F4635",
" {	c #62493D",
".{	c #5C4840",
"+{	c #6A5850",
"@{	c #725E55",
"#{	c #4E372F",
"${	c #73523F",
"%{	c #7A5542",
"&{	c #966B58",
"*{	c #A07660",
"={	c #A47A64",
"-{	c #9F725B",
";{	c #9E7561",
">{	c #AB8779",
",{	c #847068",
"'{	c #8B7164",
"){	c #7E5F4D",
"!{	c #82614E",
"~{	c #7A5946",
"{{	c #4D3630",
"]{	c #523B33",
"^{	c #533F34",
"/{	c #523E33",
"({	c #4F332F",
"_{	c #41303A",
":{	c #27213B",
"<{	c #111844",
"[{	c #0A1950",
"}{	c #051B54",
"|{	c #02194F",
"1{	c #041B48",
"2{	c #2E3765",
"3{	c #202962",
"4{	c #242961",
"5{	c #2E3057",
"6{	c #3E3A51",
"7{	c #4F4347",
"8{	c #5C4440",
"9{	c #63413F",
"0{	c #64433E",
"a{	c #5C413A",
"b{	c #432F28",
"c{	c #604639",
"d{	c #785849",
"e{	c #7F5E4D",
"f{	c #614232",
"g{	c #715F55",
"h{	c #7D675A",
"i{	c #704F3C",
"j{	c #775441",
"k{	c #7B5644",
"l{	c #7C5744",
"m{	c #805A47",
"n{	c #855C4A",
"o{	c #8D6450",
"p{	c #936855",
"q{	c #9B715B",
"r{	c #9F755F",
"s{	c #AC7F68",
"t{	c #A3765F",
"u{	c #9F725D",
"v{	c #A37867",
"w{	c #AD8979",
"x{	c #7C6B64",
"y{	c #8F7569",
"z{	c #7F6252",
"A{	c #85624F",
"B{	c #785945",
"C{	c #6D503E",
"D{	c #6C4F3F",
"E{	c #6B4E3E",
"F{	c #5B3D33",
"G{	c #593D32",
"H{	c #4A3228",
"I{	c #594137",
"J{	c #584235",
"K{	c #5C4639",
"L{	c #4F392C",
"M{	c #4E3729",
"N{	c #4F3328",
"O{	c #453133",
"P{	c #36293A",
"Q{	c #23203F",
"R{	c #161B41",
"S{	c #111A43",
"T{	c #111D45",
"U{	c #222D4B",
"V{	c #424454",
"W{	c #494262",
"X{	c #4D445F",
"Y{	c #554955",
"Z{	c #5C4C4C",
"`{	c #5F4D3F",
" ]	c #614A3C",
".]	c #604441",
"+]	c #604242",
"@]	c #573C35",
"#]	c #4A3730",
"$]	c #704F3E",
"%]	c #7A5B49",
"&]	c #5F4739",
"*]	c #7E6C62",
"=]	c #826A5E",
"-]	c #65493B",
";]	c #472F23",
">]	c #45312A",
",]	c #46322B",
"']	c #745342",
")]	c #7D5846",
"!]	c #805B48",
"~]	c #835D4A",
"{]	c #88624D",
"]]	c #906753",
"^]	c #946B55",
"/]	c #9A715B",
"(]	c #A0765E",
"_]	c #A47A62",
":]	c #A67C64",
"<]	c #A3715A",
"[]	c #B48772",
"}]	c #B29787",
"|]	c #8F776E",
"1]	c #81604D",
"2]	c #5A3C32",
"3]	c #593B31",
"4]	c #4F3B30",
"5]	c #4F3D31",
"6]	c #5F483A",
"7]	c #5D4739",
"8]	c #5E4739",
"9]	c #503629",
"0]	c #4A3532",
"a]	c #483940",
"b]	c #3E3548",
"c]	c #302C45",
"d]	c #2E2E48",
"e]	c #32354D",
"f]	c #4F424F",
"g]	c #58454D",
"h]	c #5E4B45",
"i]	c #604A3C",
"j]	c #624E36",
"k]	c #654F3A",
"l]	c #634A46",
"m]	c #5E4443",
"n]	c #61463D",
"o]	c #49362F",
"p]	c #6D554D",
"q]	c #655148",
"r]	c #806F68",
"s]	c #80685E",
"t]	c #422E27",
"u]	c #47332C",
"v]	c #775645",
"w]	c #7B5747",
"x]	c #7C5946",
"y]	c #805B49",
"z]	c #815C49",
"A]	c #845E4B",
"B]	c #8B6550",
"C]	c #916852",
"D]	c #986F59",
"E]	c #9A7058",
"F]	c #9C725A",
"G]	c #A97B63",
"H]	c #AA775A",
"I]	c #B6846B",
"J]	c #AC8774",
"K]	c #857167",
"L]	c #84685B",
"M]	c #80614F",
"N]	c #876450",
"O]	c #87614C",
"P]	c #7F5944",
"Q]	c #795A48",
"R]	c #785947",
"S]	c #745745",
"T]	c #5C4035",
"U]	c #503E30",
"V]	c #534232",
"W]	c #574435",
"X]	c #5F4838",
"Y]	c #523D38",
"Z]	c #4A3A3B",
"`]	c #443741",
" ^	c #453A4A",
".^	c #4D4556",
"+^	c #58463B",
"@^	c #604B36",
"#^	c #634F34",
"$^	c #655139",
"%^	c #644E43",
"&^	c #644B46",
"*^	c #4C3831",
"=^	c #4B3730",
"-^	c #4B3027",
";^	c #59423A",
">^	c #614B46",
",^	c #66544F",
"'^	c #60504C",
")^	c #74615A",
"!^	c #806E65",
"~^	c #786056",
"{^	c #654435",
"]^	c #412D26",
"^^	c #433029",
"/^	c #835E4B",
"(^	c #85614B",
"_^	c #8B654E",
":^	c #916B54",
"<^	c #99705A",
"[^	c #9F7660",
"}^	c #A27A61",
"|^	c #A67A5F",
"1^	c #B47F60",
"2^	c #B27F62",
"3^	c #B78A75",
"4^	c #B59483",
"5^	c #7C685D",
"6^	c #896D62",
"7^	c #836656",
"8^	c #87624F",
"9^	c #855F4A",
"0^	c #7C5842",
"a^	c #725543",
"b^	c #6D5040",
"c^	c #574636",
"d^	c #594836",
"e^	c #5E4938",
"f^	c #61453A",
"g^	c #5F4139",
"h^	c #5D3F35",
"i^	c #504040",
"j^	c #524148",
"k^	c #594937",
"l^	c #5C4C35",
"m^	c #604E38",
"n^	c #634D40",
"o^	c #644C42",
"p^	c #584237",
"q^	c #564239",
"r^	c #4F3B34",
"s^	c #452E28",
"t^	c #48312B",
"u^	c #4E3731",
"v^	c #56423B",
"w^	c #5D4942",
"x^	c #634F46",
"y^	c #695048",
"z^	c #6C554B",
"A^	c #795F55",
"B^	c #84695C",
"C^	c #7E6256",
"D^	c #705247",
"E^	c #654133",
"F^	c #442C20",
"G^	c #422F28",
"H^	c #47352B",
"I^	c #513B2E",
"J^	c #735344",
"K^	c #755644",
"L^	c #89654F",
"M^	c #8F6952",
"N^	c #9E755F",
"O^	c #A37B62",
"P^	c #A97D62",
"Q^	c #AC795A",
"R^	c #BA8566",
"S^	c #B3836C",
"T^	c #B08876",
"U^	c #AC8D87",
"V^	c #7B6861",
"W^	c #846B60",
"X^	c #866959",
"Y^	c #83604D",
"Z^	c #85604D",
"`^	c #825D4A",
" /	c #755846",
"./	c #6E5342",
"+/	c #594635",
"@/	c #594733",
"#/	c #5D4636",
"$/	c #5C4638",
"%/	c #5D453B",
"&/	c #5F443D",
"*/	c #60433F",
"=/	c #57433A",
"-/	c #55443F",
";/	c #564743",
">/	c #55483D",
",/	c #5B473E",
"'/	c #63473C",
")/	c #5A4439",
"!/	c #574038",
"~/	c #544039",
"{/	c #513D36",
"]/	c #4A322E",
"^/	c #4B332F",
"//	c #75584A",
"(/	c #7B5B4C",
"_/	c #79594A",
":/	c #644032",
"</	c #5E3A2C",
"[/	c #422A1E",
"}/	c #432B21",
"|/	c #422E23",
"1/	c #443228",
"2/	c #48362C",
"3/	c #4B372E",
"4/	c #564033",
"5/	c #5B4436",
"6/	c #694C3E",
"7/	c #735646",
"8/	c #7C5D49",
"9/	c #82624D",
"0/	c #85624E",
"a/	c #87634D",
"b/	c #8B6751",
"c/	c #926C55",
"d/	c #9A745D",
"e/	c #A77D64",
"f/	c #AA7B5D",
"g/	c #B07F61",
"h/	c #B4826B",
"i/	c #B18373",
"j/	c #B89286",
"k/	c #896F63",
"l/	c #886B5D",
"m/	c #856451",
"n/	c #775A48",
"o/	c #6C5140",
"p/	c #553F35",
"q/	c #564035",
"r/	c #594338",
"s/	c #5B4538",
"t/	c #584534",
"u/	c #5A4532",
"v/	c #5D4134",
"w/	c #564438",
"x/	c #58463A",
"y/	c #59453C",
"z/	c #59443D",
"A/	c #5E4441",
"B/	c #5C4540",
"C/	c #5A473D",
"D/	c #544340",
"E/	c #59423B",
"F/	c #5C4139",
"G/	c #5D4539",
"H/	c #563F39",
"I/	c #503C35",
"J/	c #4F3733",
"K/	c #4D3531",
"L/	c #4B322E",
"M/	c #472E29",
"N/	c #472C25",
"O/	c #472C23",
"P/	c #4A2E23",
"Q/	c #4E3025",
"R/	c #6D493B",
"S/	c #422C21",
"T/	c #49372D",
"U/	c #4A382E",
"V/	c #7C5D4B",
"W/	c #85624C",
"X/	c #967059",
"Y/	c #9F775E",
"Z/	c #A57B62",
"`/	c #AB7F62",
" (	c #A8795D",
".(	c #B3836F",
"+(	c #AF8575",
"@(	c #BB9D90",
"#(	c #846F63",
"$(	c #896D5F",
"%(	c #886754",
"&(	c #715645",
"*(	c #533B30",
"=(	c #584439",
"-(	c #59463D",
";(	c #55413A",
">(	c #564237",
",(	c #5C4736",
"'(	c #6D4C3D",
")(	c #754F42",
"!(	c #785245",
"~(	c #785448",
"{(	c #73564A",
"](	c #60463C",
"^(	c #5E4C40",
"/(	c #553E39",
"((	c #564439",
"_(	c #574338",
":(	c #5B453A",
"<(	c #5E483B",
"[(	c #61493D",
"}(	c #634B3F",
"|(	c #664C3F",
"1(	c #63483F",
"2(	c #5F473D",
"3(	c #5C433C",
"4(	c #553E38",
"5(	c #503732",
"6(	c #4F3224",
"7(	c #785746",
"8(	c #4B392F",
"9(	c #4D3B31",
"0(	c #785B49",
"a(	c #7B5F4A",
"b(	c #80614C",
"c(	c #8D6951",
"d(	c #936F57",
"e(	c #9A755B",
"f(	c #A17960",
"g(	c #AB7F66",
"h(	c #AD7D66",
"i(	c #AE7E68",
"j(	c #B6917E",
"k(	c #998172",
"l(	c #78665D",
"m(	c #8E7567",
"n(	c #866755",
"o(	c #835D46",
"p(	c #75594B",
"q(	c #705544",
"r(	c #504039",
"s(	c #755143",
"t(	c #7F574B",
"u(	c #855D53",
"v(	c #886458",
"w(	c #86685D",
"x(	c #50443D",
"y(	c #51403B",
"z(	c #524139",
"A(	c #624A3E",
"B(	c #694D41",
"C(	c #5D443D",
"D(	c #5B423B",
"E(	c #5A413A",
"F(	c #5B4039",
"G(	c #462E22",
"H(	c #452D21",
"I(	c #6F4F40",
"J(	c #4C3A30",
"K(	c #4E3C30",
"L(	c #534032",
"M(	c #694B40",
"N(	c #6F5244",
"O(	c #795C4A",
"P(	c #7F604C",
"Q(	c #81624D",
"R(	c #84644D",
"S(	c #896650",
"T(	c #926E56",
"U(	c #987359",
"V(	c #9C765F",
"W(	c #A17864",
"X(	c #AA806A",
"Y(	c #A87B64",
"Z(	c #AB7D65",
"`(	c #B68A6F",
" _	c #AC846A",
"._	c #C4A48F",
"+_	c #817164",
"@_	c #876D5E",
"#_	c #815B44",
"$_	c #725648",
"%_	c #6C5042",
"&_	c #4B3831",
"*_	c #684438",
"=_	c #71493F",
"-_	c #7A4F46",
";_	c #7F574F",
">_	c #845F56",
",_	c #83685D",
"'_	c #4C4139",
")_	c #4F3E36",
"!_	c #62473C",
"~_	c #46342A",
"{_	c #453126",
"]_	c #473426",
"^_	c #4B3528",
"/_	c #4C3A2E",
"(_	c #674B3F",
"__	c #6F5443",
":_	c #745946",
"<_	c #7D5E4A",
"[_	c #7F604B",
"}_	c #82624B",
"|_	c #87644E",
"1_	c #8B674F",
"2_	c #8F6B53",
"3_	c #9A745F",
"4_	c #9C7564",
"5_	c #A17866",
"6_	c #A87E66",
"7_	c #A87F63",
"8_	c #AD8262",
"9_	c #B3876A",
"0_	c #BF9680",
"a_	c #817066",
"b_	c #8C7668",
"c_	c #826555",
"d_	c #815D47",
"e_	c #7E5B47",
"f_	c #725547",
"g_	c #6E5244",
"h_	c #5F473B",
"i_	c #645044",
"j_	c #4D3B36",
"k_	c #5C3A30",
"l_	c #643E33",
"m_	c #694137",
"n_	c #70453C",
"o_	c #744C42",
"p_	c #77554B",
"q_	c #7A5F56",
"r_	c #4A3D37",
"s_	c #4F3E34",
"t_	c #544236",
"u_	c #64473F",
"v_	c #4A3427",
"w_	c #684935",
"x_	c #65473C",
"y_	c #4A3729",
"z_	c #4E3B2D",
"A_	c #503D2F",
"B_	c #574133",
"C_	c #735847",
"D_	c #80604B",
"E_	c #946E57",
"F_	c #98725D",
"G_	c #997263",
"H_	c #A47E67",
"I_	c #A17C5F",
"J_	c #B18664",
"K_	c #AE8160",
"L_	c #B3856D",
"M_	c #C79D8C",
"N_	c #8C7363",
"O_	c #856652",
"P_	c #816250",
"Q_	c #7F604E",
"R_	c #775A4A",
"S_	c #765647",
"T_	c #503E34",
"U_	c #59392C",
"V_	c #91705D",
"W_	c #967B67",
"X_	c #553B39",
"Y_	c #5B3A33",
"Z_	c #613C33",
"`_	c #663E32",
" :	c #6B4135",
".:	c #6B4337",
"+:	c #6B493D",
"@:	c #6A4F46",
"#:	c #6E5C58",
"$:	c #4F4540",
"%:	c #4D433F",
"&:	c #4E4540",
"*:	c #564940",
"=:	c #685143",
"-:	c #6B4B40",
";:	c #694841",
">:	c #684740",
",:	c #6C4C3F",
"':	c #4D3628",
"):	c #543E30",
"!:	c #564032",
"~:	c #81614A",
"{:	c #936F59",
"]:	c #9A7563",
"^:	c #9B7B62",
"/:	c #A28162",
"(:	c #A7815D",
"_:	c #AC7F5E",
"::	c #B98369",
"<:	c #C08C7D",
"[:	c #B68E87",
"}:	c #8A7363",
"|:	c #8B6E5C",
"1:	c #866651",
"2:	c #7B604F",
"3:	c #785C4E",
"4:	c #75523F",
"5:	c #74513E",
"6:	c #584036",
"7:	c #523F31",
"8:	c #58382D",
"9:	c #614031",
"0:	c #7C5544",
"a:	c #99705C",
"b:	c #A77D67",
"c:	c #A98473",
"d:	c #544141",
"e:	c #593F3B",
"f:	c #5D3C35",
"g:	c #613F33",
"h:	c #5B463E",
"i:	c #4D4D45",
"j:	c #47443E",
"k:	c #554B3D",
"l:	c #5C4939",
"m:	c #705448",
"n:	c #704F48",
"o:	c #67463F",
"p:	c #65473D",
"q:	c #583B33",
"r:	c #563931",
"s:	c #553830",
"t:	c #51342C",
"u:	c #50392B",
"v:	c #523B2D",
"w:	c #584537",
"x:	c #594638",
"y:	c #7B5C4A",
"z:	c #84614B",
"A:	c #906C56",
"B:	c #997462",
"C:	c #9A7A61",
"D:	c #9E7F60",
"E:	c #A4805C",
"F:	c #BA8269",
"G:	c #C08776",
"H:	c #C3948A",
"I:	c #877369",
"J:	c #8C7465",
"K:	c #886955",
"L:	c #795E4D",
"M:	c #765A4C",
"N:	c #74584A",
"O:	c #554136",
"P:	c #8B6453",
"Q:	c #A77C69",
"R:	c #B58871",
"S:	c #B5917A",
"T:	c #5B4A46",
"U:	c #5F4740",
"V:	c #5F463B",
"W:	c #503D36",
"X:	c #4A3F36",
"Y:	c #62483D",
"Z:	c #6C4E43",
"`:	c #6D4F45",
" <	c #66483E",
".<	c #67493E",
"+<	c #573C33",
"@<	c #7F5F4A",
"#<	c #83604A",
"$<	c #86634D",
"%<	c #8A664E",
"&<	c #8D6953",
"*<	c #97705F",
"=<	c #997960",
"-<	c #9D7B5F",
";<	c #A57E5D",
"><	c #AE8162",
",<	c #BB8470",
"'<	c #C09285",
")<	c #A6837C",
"!<	c #7E6C65",
"~<	c #8F776C",
"{<	c #8C6F5D",
"]<	c #7F5F48",
"^<	c #765B4A",
"/<	c #71503D",
"(<	c #6C4E44",
"_<	c #805E52",
":<	c #AD806D",
"<<	c #BB8972",
"[<	c #BE917A",
"}<	c #634F4B",
"|<	c #614C42",
"1<	c #5C483D",
"2<	c #58453C",
"3<	c #5D4534",
"4<	c #614335",
"5<	c #67493F",
"6<	c #6B4D43",
"7<	c #553A31",
"8<	c #5A4236",
"9<	c #5D4638",
"0<	c #936C5B",
"a<	c #987360",
"b<	c #9A785F",
"c<	c #9C795D",
"d<	c #A27B5E",
"e<	c #AC7F62",
"f<	c #B58169",
"g<	c #B6826D",
"h<	c #B88A7A",
"i<	c #BA988E",
"j<	c #877168",
"k<	c #896F60",
"l<	c #8A6956",
"m<	c #775C4B",
"n<	c #6E4F3B",
"o<	c #573D2E",
"p<	c #75574F",
"q<	c #8C6A61",
"r<	c #A2786A",
"s<	c #B38271",
"t<	c #C28C72",
"u<	c #C8947C",
"v<	c #BA9384",
"w<	c #63503D",
"x<	c #6A4F40",
"y<	c #6B4E40",
"z<	c #7B5C48",
"A<	c #8A6650",
"B<	c #8E6855",
"C<	c #96705D",
"D<	c #9A765E",
"E<	c #9C775D",
"F<	c #A0765D",
"G<	c #B17F66",
"H<	c #B88975",
"I<	c #B7937E",
"J<	c #AD9084",
"K<	c #886F68",
"L<	c #8F7366",
"M<	c #886551",
"N<	c #88644E",
"O<	c #825E46",
"P<	c #755A49",
"Q<	c #6D4E3A",
"R<	c #6A4B37",
"S<	c #553B2C",
"T<	c #573C2B",
"U<	c #775A54",
"V<	c #8A6761",
"W<	c #9D7367",
"X<	c #B28170",
"Y<	c #C88C72",
"Z<	c #CE957A",
"`<	c #C79A88",
" [	c #806655",
".[	c #A58676",
"+[	c #7A5A4B",
"@[	c #926C57",
"#[	c #9C735D",
"$[	c #9E745C",
"%[	c #A4785F",
"&[	c #AC7C65",
"*[	c #B08167",
"=[	c #B88A72",
"-[	c #B1876D",
";[	c #C3A08A",
">[	c #8B7166",
",[	c #8B6E5E",
"'[	c #775A56",
")[	c #886762",
"![	c #9A6F66",
"~[	c #B68372",
"{[	c #C6886F",
"][	c #CC8F73",
"^[	c #CB9682",
"/[	c #AF917D",
"([	c #C19C8A",
"_[	c #B18A79",
":[	c #7A5543",
"<[	c #5B4339",
"[[	c #8D6752",
"}[	c #956C58",
"|[	c #9C715E",
"1[	c #A07360",
"2[	c #A37661",
"3[	c #A87C63",
"4[	c #AD8166",
"5[	c #B08366",
"6[	c #B28568",
"7[	c #BA8E78",
"8[	c #BC9B87",
"9[	c #8B7569",
"0[	c #8C6C5D",
"a[	c #896855",
"b[	c #8A6753",
"c[	c #855F48",
"d[	c #86624A",
"e[	c #745344",
"f[	c #7E5E4D",
"g[	c #684D42",
"h[	c #725653",
"i[	c #83615F",
"j[	c #916961",
"k[	c #B17E6D",
"l[	c #C28269",
"m[	c #CA886E",
"n[	c #CA8F7D",
"o[	c #C09986",
"p[	c #BB907F",
"q[	c #C89A8A",
"r[	c #AF8474",
"s[	c #714D3F",
"t[	c #5C4138",
"u[	c #83634E",
"v[	c #8A644F",
"w[	c #926957",
"x[	c #9A6F5E",
"y[	c #A17363",
"z[	c #A07562",
"A[	c #A98062",
"B[	c #AA7D5C",
"C[	c #B78968",
"D[	c #B48569",
"E[	c #BC907C",
"F[	c #8C7064",
"G[	c #8C6B58",
"H[	c #8A644D",
"I[	c #88644C",
"J[	c #87634B",
"K[	c #5F4534",
"L[	c #9D7C6D",
"M[	c #916F64",
"N[	c #6B5446",
"O[	c #694D4A",
"P[	c #7C5A58",
"Q[	c #8D675E",
"R[	c #A67564",
"S[	c #BD7F66",
"T[	c #CB896F",
"U[	c #CE917F",
"V[	c #A58176",
"W[	c #BE9080",
"X[	c #C28F7E",
"Y[	c #BD8A79",
"Z[	c #B38375",
"`[	c #9B7769",
" }	c #604035",
".}	c #6F4F42",
"+}	c #68463A",
"@}	c #5E4139",
"#}	c #5B4037",
"$}	c #906554",
"%}	c #986A5B",
"&}	c #9C7161",
"*}	c #A27766",
"=}	c #A37A5C",
"-}	c #B38261",
";}	c #B98465",
">}	c #B78770",
",}	c #BD9889",
"'}	c #897166",
")}	c #8D6D5E",
"!}	c #8F6A57",
"~}	c #8C6852",
"{}	c #8D6750",
"]}	c #7D5D48",
"^}	c #6C4F3D",
"/}	c #634938",
"(}	c #917368",
"_}	c #A17D73",
":}	c #8D6F64",
"<}	c #69554A",
"[}	c #534039",
"}}	c #614544",
"|}	c #715250",
"1}	c #9D6F5F",
"2}	c #B77B63",
"3}	c #C8886F",
"4}	c #CE9081",
"5}	c #AF8779",
"6}	c #BA897A",
"7}	c #BB8676",
"8}	c #B88373",
"9}	c #A8786A",
"0}	c #977367",
"a}	c #69493E",
"b}	c #6A4A3F",
"c}	c #69473B",
"d}	c #604238",
"e}	c #5D4038",
"f}	c #86624C",
"g}	c #8E6454",
"h}	c #946959",
"i}	c #9B6F62",
"j}	c #A07666",
"k}	c #A17B64",
"l}	c #AF8261",
"m}	c #AF7E5D",
"n}	c #BC8567",
"o}	c #BA866E",
"p}	c #BF9886",
"q}	c #8B7568",
"r}	c #8D7163",
"s}	c #8E6B58",
"t}	c #8F6954",
"u}	c #775742",
"v}	c #7A5C51",
"w}	c #96786E",
"x}	c #9E7B74",
"y}	c #8B7068",
"z}	c #695550",
"A}	c #5B4140",
"B}	c #6A4B49",
"C}	c #7B5950",
"D}	c #936959",
"E}	c #AC765E",
"F}	c #C28570",
"G}	c #CB8F83",
"H}	c #896762",
"I}	c #B1867D",
"J}	c #B28173",
"K}	c #AF7A6C",
"L}	c #AC766A",
"M}	c #996A60",
"N}	c #86655C",
"O}	c #755A53",
"P}	c #6C4C41",
"Q}	c #614339",
"R}	c #8C6252",
"S}	c #906658",
"T}	c #986E60",
"U}	c #9F7565",
"V}	c #A07A63",
"W}	c #9F7A5D",
"X}	c #A97E5E",
"Y}	c #B07F5F",
"Z}	c #B78062",
"`}	c #B9866B",
" |	c #BA8D7A",
".|	c #BD9E8E",
"+|	c #7A6258",
"@|	c #917567",
"#|	c #8F6B55",
"$|	c #8E6853",
"%|	c #71523E",
"&|	c #6F503C",
"*|	c #6D5146",
"=|	c #785A4F",
"-|	c #82645A",
";|	c #927472",
">|	c #564941",
",|	c #593F40",
"'|	c #634543",
")|	c #74534A",
"!|	c #876252",
"~|	c #9F6F59",
"{|	c #B8816D",
"]|	c #C48E83",
"^|	c #90736C",
"/|	c #A57D75",
"(|	c #A87A6D",
"_|	c #9F6F63",
":|	c #95665C",
"<|	c #875F57",
"[|	c #715450",
"}|	c #69534D",
"||	c #5F4944",
"1|	c #5B403B",
"2|	c #664A3F",
"3|	c #5F4137",
"4|	c #896251",
"5|	c #8D6657",
"6|	c #966C5E",
"7|	c #9B7463",
"8|	c #9D7961",
"9|	c #A3775A",
"0|	c #B38466",
"a|	c #B17B5F",
"b|	c #B38470",
"c|	c #BB9A86",
"d|	c #897262",
"e|	c #8F725E",
"f|	c #94705A",
"g|	c #936D56",
"h|	c #906A53",
"i|	c #715146",
"j|	c #80625A",
"k|	c #8C6E72",
"l|	c #574C46",
"m|	c #553D3D",
"n|	c #5B3D3B",
"o|	c #664941",
"p|	c #765546",
"q|	c #A87967",
"r|	c #B98883",
"s|	c #6A5A5B",
"t|	c #886C68",
"u|	c #87655C",
"v|	c #8E685D",
"w|	c #845E53",
"x|	c #77524A",
"y|	c #73544F",
"z|	c #634E49",
"A|	c #5B4A47",
"B|	c #5A423C",
"C|	c #725746",
"D|	c #896452",
"E|	c #8B6656",
"F|	c #926B5A",
"G|	c #97725F",
"H|	c #9B7761",
"I|	c #9D785E",
"J|	c #A1785C",
"K|	c #AD8063",
"L|	c #B17E63",
"M|	c #B7836B",
"N|	c #B2846D",
"O|	c #B68D7D",
"P|	c #816E64",
"Q|	c #947B6A",
"R|	c #976F56",
"S|	c #946F55",
"T|	c #56382E",
"U|	c #795A55",
"V|	c #876C70",
"W|	c #5D514C",
"X|	c #574141",
"Y|	c #583A38",
"Z|	c #976B5E",
"`|	c #AC807D",
" 1	c #605353",
".1	c #6A524E",
"+1	c #5E453C",
"@1	c #594538",
"#1	c #5F493C",
"$1	c #7A5D4B",
"%1	c #81624E",
"&1	c #8B6654",
"*1	c #8F6A58",
"=1	c #946F5C",
"-1	c #99755F",
";1	c #A37960",
">1	c #9F735A",
",1	c #B1816A",
"'1	c #B07E67",
")1	c #B5856F",
"!1	c #BB8E79",
"~1	c #BB9480",
"{1	c #8E786B",
"]1	c #967765",
"^1	c #966D51",
"/1	c #906B51",
"(1	c #735644",
"_1	c #5C4439",
":1	c #64473C",
"<1	c #654C40",
"[1	c #583A30",
"}1	c #644540",
"|1	c #745861",
"11	c #5F4B4B",
"21	c #5F413E",
"31	c #6C4B38",
"41	c #835D50",
"51	c #9D7575",
"61	c #53413F",
"71	c #574238",
"81	c #5A4537",
"91	c #614A3A",
"01	c #5D4239",
"a1	c #846350",
"b1	c #876653",
"c1	c #8A6754",
"d1	c #8C6956",
"e1	c #926D5A",
"f1	c #97735D",
"g1	c #A07761",
"h1	c #B3836D",
"i1	c #BA8C75",
"j1	c #BC8F78",
"k1	c #A38071",
"l1	c #897570",
"m1	c #947A6D",
"n1	c #92725D",
"o1	c #9A7258",
"p1	c #936A4E",
"q1	c #8A664C",
"r1	c #554138",
"s1	c #6B5149",
"t1	c #614641",
"u1	c #553B3A",
"v1	c #5A444D",
"w1	c #614848",
"x1	c #594740",
"y1	c #574134",
"z1	c #72544C",
"A1	c #8F6F70",
"B1	c #524338",
"C1	c #5D4A3C",
"D1	c #604B3A",
"E1	c #5F443B",
"F1	c #7C5C4D",
"G1	c #876655",
"H1	c #8B6855",
"I1	c #8F6C58",
"J1	c #97715C",
"K1	c #9C7661",
"L1	c #AB816B",
"M1	c #AE8269",
"N1	c #B4846D",
"O1	c #BC8C75",
"P1	c #BE9B86",
"Q1	c #8E7672",
"R1	c #967971",
"S1	c #967564",
"T1	c #947058",
"U1	c #906B50",
"V1	c #8B664B",
"W1	c #553F31",
"X1	c #5A4331",
"Y1	c #55443C",
"Z1	c #57463F",
"`1	c #665752",
" 2	c #5B4B47",
".2	c #544240",
"+2	c #504242",
"@2	c #604F4F",
"#2	c #54413D",
"$2	c #5B4643",
"%2	c #614A49",
"&2	c #6A5757",
"*2	c #56453B",
"=2	c #705446",
"-2	c #8D6A56",
";2	c #946E59",
">2	c #9B7560",
",2	c #A17862",
"'2	c #A27862",
")2	c #A77A63",
"!2	c #B08069",
"~2	c #B4856B",
"{2	c #BB8C72",
"]2	c #BB957E",
"^2	c #86706B",
"/2	c #97776F",
"(2	c #9A766A",
"_2	c #95705E",
":2	c #8A674B",
"<2	c #846247",
"[2	c #574231",
"}2	c #6A4C41",
"|2	c #58453F",
"12	c #5F5049",
"22	c #605656",
"32	c #55494B",
"42	c #4B4243",
"52	c #625456",
"62	c #5C4A4B",
"72	c #4E3E42",
"82	c #594C43",
"92	c #5B4740",
"02	c #66483D",
"a2	c #624B3D",
"b2	c #7F5F50",
"c2	c #836452",
"d2	c #916C59",
"e2	c #99735E",
"f2	c #A27963",
"g2	c #AC8067",
"h2	c #AE8066",
"i2	c #B28369",
"j2	c #B8896D",
"k2	c #BA9078",
"l2	c #AF917C",
"m2	c #987A71",
"n2	c #9B796D",
"o2	c #987363",
"p2	c #916B58",
"q2	c #846249",
"r2	c #7D5D44",
"s2	c #604733",
"t2	c #574640",
"u2	c #5F5249",
"v2	c #5A4941",
"w2	c #5D463E",
"x2	c #64483D",
"y2	c #6A4E42",
"z2	c #6E5246",
"A2	c #866552",
"B2	c #906B58",
"C2	c #B08268",
"D2	c #B6876D",
"E2	c #B78D75",
"F2	c #BE9B88",
"G2	c #997C70",
"H2	c #9C7B6A",
"I2	c #956C5A",
"J2	c #7C5C45",
"K2	c #765742",
"L2	c #70513D",
"M2	c #563F2F",
"N2	c #5C4231",
"O2	c #614834",
"P2	c #634A36",
"Q2	c #56433C",
"R2	c #5D4C45",
"S2	c #615852",
"T2	c #5D4841",
"U2	c #604740",
"V2	c #664B42",
"W2	c #735648",
"X2	c #795C4C",
"Y2	c #96725C",
"Z2	c #9F7662",
"`2	c #A77D65",
" 3	c #AF8169",
".3	c #B5866C",
"+3	c #B78B72",
"@3	c #BB9685",
"#3	c #A58878",
"$3	c #867062",
"%3	c #9A7F6C",
"&3	c #997460",
"*3	c #986F5B",
"=3	c #936953",
"-3	c #8B614B",
";3	c #825C47",
">3	c #7B5842",
",3	c #715540",
"'3	c #6D523D",
")3	c #664B38",
"!3	c #55423B",
"~3	c #564944",
"{3	c #5E5049",
"]3	c #5E4C49",
"^3	c #5F4743",
"/3	c #614841",
"(3	c #654A41",
"_3	c #8D6855",
":3	c #9D7460",
"<3	c #AE8068",
"[3	c #B1836B",
"}3	c #B78971",
"|3	c #BC927A",
"13	c #C09A8C",
"23	c #837061",
"33	c #917862",
"43	c #987861",
"53	c #90634C",
"63	c #8B5E47",
"73	c #835943",
"83	c #74543F",
"93	c #6C513E",
"03	c #684F3B",
"a3	c #593E2D",
"b3	c #5C4D48",
"c3	c #5B4746",
"d3	c #5E4642",
"e3	c #644942",
"f3	c #674B40",
"g3	c #6F5146",
"h3	c #A97F67",
"i3	c #B0826A",
"j3	c #BC8C76",
"k3	c #BF9686",
"l3	c #867565",
"m3	c #8D7664",
"n3	c #8B6F59",
"o3	c #87654C",
"p3	c #8A6249",
"q3	c #895D44",
"r3	c #855841",
"s3	c #7E553F",
"t3	c #77523F",
"u3	c #5C483F",
"v3	c #5F5153",
"w3	c #5E4A49",
"x3	c #604742",
"y3	c #674A42",
"z3	c #6E5045",
"A3	c #956F5A",
"B3	c #A57B63",
"C3	c #AF836A",
"D3	c #B3856B",
"E3	c #BC8870",
"F3	c #BE8F7D",
"G3	c #B29282",
"H3	c #907A70",
"I3	c #8D776B",
"J3	c #8A705F",
"K3	c #876C57",
"L3	c #876750",
"M3	c #855C46",
"N3	c #825A41",
"O3	c #77533D",
"P3	c #724F3C",
"Q3	c #5A473E",
"R3	c #594842",
"S3	c #64524C",
"T3	c #5F4D4D",
"U3	c #644940",
"V3	c #7E5E4F",
"W3	c #AA7D66",
"X3	c #B4866E",
"Y3	c #B7886E",
"Z3	c #BB856B",
"`3	c #C5937C",
" 4	c #C29A88",
".4	c #977A6C",
"+4	c #947565",
"@4	c #90715F",
"#4	c #8B6C58",
"$4	c #876853",
"%4	c #765340",
"&4	c #6D4E3C",
"*4	c #513A2C",
"=4	c #664733",
"-4	c #644735",
";4	c #594335",
">4	c #574436",
",4	c #54433B",
"'4	c #52433C",
")4	c #584B45",
"!4	c #5D534E",
"~4	c #5E4945",
"{4	c #624942",
"]4	c #6C5243",
"^4	c #6F5345",
"/4	c #AA8067",
"(4	c #AD8168",
"_4	c #C0886F",
":4	c #BE8870",
"<4	c #C09580",
"[4	c #B59A87",
"}4	c #8D7466",
"|4	c #947966",
"14	c #93725A",
"24	c #8C6850",
"34	c #7B5B46",
"44	c #4C392B",
"54	c #55443A",
"64	c #574942",
"74	c #584D47",
"84	c #625652",
"94	c #594744",
"04	c #684E41",
"a4	c #7B5E4C",
"b4	c #926F5B",
"c4	c #98745E",
"d4	c #9B755E",
"e4	c #BE886E",
"f4	c #C1957C",
"g4	c #BE9E88",
"h4	c #907B67",
"i4	c #977B66",
"j4	c #96735D",
"k4	c #91674E",
"l4	c #91654A",
"m4	c #8B6148",
"n4	c #815D45",
"o4	c #553E2E",
"p4	c #4F392B",
"q4	c #604F47",
"r4	c #615850",
"s4	c #594039",
"t4	c #583F38",
"u4	c #9E7861",
"v4	c #A57D64",
"w4	c #A67E65",
"x4	c #B18369",
"y4	c #BB886D",
"z4	c #BC896E",
"A4	c #C09278",
"B4	c #C09C85",
"C4	c #897769",
"D4	c #957968",
"E4	c #987762",
"F4	c #927057",
"G4	c #8C674D",
"H4	c #8E6549",
"I4	c #8D6146",
"J4	c #885E45",
"K4	c #845C43",
"L4	c #7F5B43",
"M4	c #664F3F",
"N4	c #574030",
"O4	c #543D2D",
"P4	c #5C493F",
"Q4	c #604D41",
"R4	c #5A4942",
"S4	c #896652",
"T4	c #916E5A",
"U4	c #A47C63",
"V4	c #B7886C",
"W4	c #B9876C",
"X4	c #BD8E72",
"Y4	c #BB9178",
"Z4	c #BA9B86",
"`4	c #89766A",
" 5	c #967E72",
".5	c #9B7E6D",
"+5	c #93745F",
"@5	c #8E6C53",
"#5	c #8B664C",
"$5	c #845F45",
"%5	c #7D5941",
"&5	c #7B5741",
"*5	c #775440",
"=5	c #674D3C",
"-5	c #634C3A",
";5	c #5B4130",
">5	c #533D2F",
",5	c #513B2D",
"'5	c #4E382A",
")5	c #513A2A",
"!5	c #543A2B",
"~5	c #5B473F",
"{5	c #5D4C42",
"]5	c #604F4A",
"^5	c #5E433C",
"/5	c #5D423B",
"(5	c #60493B",
"_5	c #8B6854",
":5	c #99735C",
"<5	c #AE846B",
"[5	c #B3876C",
"}5	c #B6896C",
"|5	c #B98B71",
"15	c #C19B84",
"25	c #968071",
"35	c #987F6C",
"45	c #9A7B67",
"55	c #957560",
"65	c #916D55",
"75	c #8E694F",
"85	c #654C38",
"95	c #4D3729",
"05	c #4D372A",
"a5	c #523B2B",
"b5	c #5A463D",
"c5	c #604E42",
"d5	c #67584C",
"e5	c #5C4E41",
"f5	c #5A4739",
"g5	c #A37A64",
"h5	c #AD836B",
"i5	c #AE866C",
"j5	c #B38A6E",
"k5	c #BD8E70",
"l5	c #BA8B6F",
"m5	c #C1947D",
"n5	c #907767",
"o5	c #A0816D",
"p5	c #9C7963",
"q5	c #8F6A50",
"r5	c #835F47",
"s5	c #755141",
"t5	c #73503D",
"u5	c #704D3A",
"v5	c #624732",
"w5	c #5F4632",
"x5	c #4C3629",
"y5	c #513C2B",
"z5	c #5E4C3F",
"A5	c #67544A",
"B5	c #5B4739",
"C5	c #9B725C",
"D5	c #AA8269",
"E5	c #AA856B",
"F5	c #B18A6D",
"G5	c #B8896B",
"H5	c #BC8B6D",
"I5	c #BF8F78",
"J5	c #BA9683",
"K5	c #897369",
"L5	c #967E6B",
"M5	c #A3856E",
"N5	c #976F55",
"O5	c #966F52",
"P5	c #926B4E",
"Q5	c #8C644A",
"R5	c #866146",
"S5	c #835E44",
"T5	c #7F5C46",
"U5	c #765947",
"V5	c #6F4E3B",
"W5	c #624631",
"X5	c #5C432F",
"Y5	c #5F4B41",
"Z5	c #554841",
"`5	c #9D745E",
" 6	c #A47F65",
".6	c #A88369",
"+6	c #AF886B",
"@6	c #B18264",
"#6	c #BB886B",
"$6	c #BF8D74",
"%6	c #C29983",
"&6	c #8C7A6B",
"*6	c #9B8370",
"=6	c #9B7C67",
"-6	c #957159",
";6	c #966E54",
">6	c #8E674A",
",6	c #896245",
"'6	c #835E43",
")6	c #7F5B41",
"!6	c #7C5A41",
"~6	c #795942",
"{6	c #755641",
"]6	c #6B4C38",
"^6	c #624533",
"/6	c #4B382A",
"(6	c #4A3728",
"_6	c #4B3829",
":6	c #4F3C2D",
"<6	c #553F3A",
"[6	c #624B3B",
"}6	c #5D413D",
"|6	c #8C6651",
"16	c #A77F65",
"26	c #AE8265",
"36	c #BD876B",
"46	c #BC8A71",
"56	c #BE947E",
"66	c #AA917E",
"76	c #968372",
"86	c #9C856F",
"96	c #967762",
"06	c #957056",
"a6	c #926A50",
"b6	c #90664D",
"c6	c #8B6349",
"d6	c #856045",
"e6	c #815D43",
"f6	c #7D5B42",
"g6	c #785841",
"h6	c #674B36",
"i6	c #634835",
"j6	c #493628",
"k6	c #615047",
"l6	c #64504E",
"m6	c #5B443F",
"n6	c #5E463C",
"o6	c #5C433E",
"p6	c #5E423E",
"q6	c #4F3C2E",
"r6	c #845F4C",
"s6	c #A78063",
"t6	c #AF8366",
"u6	c #B17E61",
"v6	c #B88266",
"w6	c #B69584",
"x6	c #9A8573",
"y6	c #9D8470",
"z6	c #997A66",
"A6	c #94715B",
"B6	c #926A51",
"C6	c #8E644C",
"D6	c #8C624A",
"E6	c #886047",
"F6	c #7C5943",
"G6	c #5A4940",
"H6	c #5C4B43",
"I6	c #554039",
"J6	c #59423C",
"K6	c #7F5A47",
"L6	c #9F7962",
"M6	c #A47F64",
"N6	c #AF8668",
"O6	c #B18062",
"P6	c #B78165",
"Q6	c #BB8368",
"R6	c #C08E77",
"S6	c #C29A87",
"T6	c #A68C7D",
"U6	c #9C8779",
"V6	c #A38676",
"W6	c #A2836F",
"X6	c #987863",
"Y6	c #93705A",
"Z6	c #936A54",
"`6	c #8E664D",
" 7	c #8A614B",
".7	c #885F49",
"+7	c #835D48",
"@7	c #584B46",
"#7	c #534239",
"$7	c #57403A",
"%7	c #68483D",
"&7	c #A07C62",
"*7	c #AD8669",
"=7	c #B18266",
"-7	c #B98367",
";7	c #C0876C",
">7	c #C79884",
",7	c #B99986",
"'7	c #9D8277",
")7	c #AA8573",
"!7	c #906751",
"~7	c #8C634D",
"{7	c #8D644E",
"]7	c #875E4A",
"^7	c #845E49",
"/7	c #7A5646",
"(7	c #755443",
"_7	c #614633",
":7	c #483527",
"<7	c #594840",
"[7	c #51453F",
"}7	c #513C36",
"|7	c #68473E",
"17	c #6C473E",
"27	c #6B463D",
"37	c #49372B",
"47	c #725140",
"57	c #916E58",
"67	c #9B7960",
"77	c #B88568",
"87	c #C4886C",
"97	c #C68A70",
"07	c #C8927A",
"a7	c #C59887",
"b7	c #9E7E73",
"c7	c #A88572",
"d7	c #A1755C",
"e7	c #9B7158",
"f7	c #976D55",
"g7	c #936951",
"h7	c #755445",
"i7	c #574840",
"j7	c #5F4F48",
"k7	c #544440",
"l7	c #533E39",
"m7	c #64463E",
"n7	c #68463D",
"o7	c #68463C",
"p7	c #5E4737",
"q7	c #463428",
"r7	c #81604F",
"s7	c #896954",
"t7	c #96745B",
"u7	c #9F7C60",
"v7	c #AA8163",
"w7	c #B58466",
"x7	c #C08769",
"y7	c #C68B6D",
"z7	c #CB8F75",
"A7	c #CC9984",
"B7	c #B99684",
"C7	c #A38879",
"D7	c #9E7257",
"E7	c #A17359",
"F7	c #9B6F54",
"G7	c #8E644B",
"H7	c #8A6048",
"I7	c #7F5A48",
"J7	c #7D5949",
"K7	c #725142",
"L7	c #5C4A3E",
"M7	c #5D4D46",
"N7	c #55433F",
"O7	c #573E38",
"P7	c #453329",
"Q7	c #4A382C",
"R7	c #98745A",
"S7	c #A67F62",
"T7	c #B08364",
"U7	c #BB8666",
"V7	c #C38B6A",
"W7	c #CC8F72",
"X7	c #CF977E",
"Y7	c #CDA38C",
"Z7	c #948275",
"`7	c #A48A78",
" 8	c #A4816F",
".8	c #A07258",
"+8	c #9B6D53",
"@8	c #93674C",
"#8	c #8F634A",
"$8	c #8D654B",
"%8	c #6A4B39",
"&8	c #5B4842",
"*8	c #54423F",
"=8	c #543E37",
"-8	c #956F58",
";8	c #AD8464",
">8	c #B48664",
",8	c #C08B69",
"'8	c #CA8F6F",
")8	c #CE9578",
"!8	c #CC9E87",
"~8	c #998574",
"{8	c #A28673",
"]8	c #A17F66",
"^8	c #9E765C",
"/8	c #9E7056",
"(8	c #9C6E54",
"_8	c #8E664C",
":8	c #8C644B",
"<8	c #6C4D3B",
"[8	c #684734",
"}8	c #56473D",
"|8	c #65574E",
"18	c #544944",
"28	c #4B3F34",
"38	c #845D4C",
"48	c #916854",
"58	c #A58161",
"68	c #AD8561",
"78	c #B78965",
"88	c #C58F6D",
"98	c #CD9476",
"08	c #CC967C",
"a8	c #D5A891",
"b8	c #9C8375",
"c8	c #A3856D",
"d8	c #A37F65",
"e8	c #9E775A",
"f8	c #9A6E51",
"g8	c #98694F",
"h8	c #94664C",
"i8	c #6B4F3A",
"j8	c #674732",
"k8	c #644531",
"l8	c #63544C",
"m8	c #52483E",
"n8	c #514038",
"o8	c #66463B",
"p8	c #493326",
"q8	c #7F5545",
"r8	c #936F55",
"s8	c #9C7B5C",
"t8	c #A3815C",
"u8	c #AD865F",
"v8	c #BC8A67",
"w8	c #C68F70",
"x8	c #D1997E",
"y8	c #CD9A85",
"z8	c #CDA695",
"A8	c #928177",
"B8	c #A28A7A",
"C8	c #A4866E",
"D8	c #A37E63",
"E8	c #9E7557",
"F8	c #976A4D",
"G8	c #93654B",
"H8	c #8D634B",
"I8	c #775B46",
"J8	c #715643",
"K8	c #705542",
"L8	c #6D523F",
"M8	c #6B503D",
"N8	c #694E39",
"O8	c #674C37",
"P8	c #664A35",
"Q8	c #644832",
"R8	c #644530",
"S8	c #614530",
"T8	c #5D4940",
"U8	c #604F48",
"V8	c #51443F",
"W8	c #513E36",
"X8	c #60453E",
"Y8	c #64463C",
"Z8	c #604A3D",
"`8	c #463325",
" 9	c #7B5141",
".9	c #845948",
"+9	c #937457",
"@9	c #9C7B5A",
"#9	c #B18562",
"$9	c #BA8867",
"%9	c #C48C71",
"&9	c #C9937B",
"*9	c #CA9D8A",
"=9	c #B89586",
"-9	c #A78D82",
";9	c #9F806B",
">9	c #9E7B5F",
",9	c #9C7355",
"'9	c #9A6F4F",
")9	c #976B4E",
"!9	c #95694E",
"~9	c #8F654D",
"{9	c #725744",
"]9	c #6E5340",
"^9	c #6A4F3C",
"/9	c #694E3B",
"(9	c #654A35",
"_9	c #634833",
":9	c #60442F",
"<9	c #5E4330",
"[9	c #594C44",
"}9	c #534A44",
"|9	c #54423E",
"19	c #5B423D",
"29	c #5F463F",
"39	c #604A3F",
"49	c #614B40",
"59	c #48362A",
"69	c #785142",
"79	c #805745",
"89	c #8B6C50",
"99	c #927354",
"09	c #9B7956",
"a9	c #A67D5D",
"b9	c #AE805F",
"c9	c #BB8569",
"d9	c #C79177",
"e9	c #C7947F",
"f9	c #CFA493",
"g9	c #998175",
"h9	c #A58678",
"i9	c #A4816B",
"j9	c #9B7457",
"k9	c #986F51",
"l9	c #956C4E",
"m9	c #725641",
"n9	c #6F533E",
"o9	c #6D513C",
"p9	c #6C503B",
"q9	c #54453F",
"r9	c #52443E",
"s9	c #53413D",
"t9	c #58463C",
"u9	c #5B473C",
"v9	c #5D493E",
"w9	c #624C3F",
"x9	c #493325",
"y9	c #734F3F",
"z9	c #8A684D",
"A9	c #937052",
"B9	c #A4785B",
"C9	c #B78469",
"D9	c #C49078",
"E9	c #C5957F",
"F9	c #C49E8D",
"G9	c #9F8376",
"H9	c #AA8571",
"I9	c #9C7357",
"J9	c #9D7456",
"K9	c #997052",
"L9	c #946D50",
"M9	c #8F6A4F",
"N9	c #6A4E39",
"O9	c #5B504B",
"P9	c #534740",
"Q9	c #4F4038",
"R9	c #694F3E",
"S9	c #4A3426",
"T9	c #483224",
"U9	c #8C684E",
"V9	c #957055",
"W9	c #A6795C",
"X9	c #A6775B",
"Y9	c #B68368",
"Z9	c #BE937C",
"`9	c #BC9680",
" 0	c #91765E",
".0	c #9F8477",
"+0	c #AC8A72",
"@0	c #A77B60",
"#0	c #A27151",
"$0	c #A17050",
"%0	c #9B6E4F",
"&0	c #836450",
"*0	c #6E4E39",
"=0	c #6C4C37",
"-0	c #6A4B36",
";0	c #644833",
">0	c #513E30",
",0	c #5F4E42",
"'0	c #56463C",
")0	c #554336",
"!0	c #564333",
"~0	c #6A503F",
"{0	c #443025",
"]0	c #664D39",
"^0	c #845B49",
"/0	c #8A614D",
"(0	c #946F54",
"_0	c #A1785A",
":0	c #B38166",
"<0	c #AD7A5F",
"[0	c #AE7E67",
"}0	c #BE947A",
"|0	c #B4947B",
"10	c #A9917D",
"20	c #A38C7E",
"30	c #A07F6C",
"40	c #9D735A",
"50	c #A07153",
"60	c #A06F4F",
"70	c #9A6949",
"80	c #986B4E",
"90	c #6D4C39",
"00	c #614432",
"a0	c #5A463B",
"b0	c #594739",
"c0	c #5F4C43",
"d0	c #534139",
"e0	c #604A35",
"f0	c #684D38",
"g0	c #7D5645",
"h0	c #815B48",
"i0	c #8B674D",
"j0	c #926D52",
"k0	c #AB7C60",
"l0	c #AC7E64",
"m0	c #AC876C",
"n0	c #B3937A",
"o0	c #B69B88",
"p0	c #968076",
"q0	c #A4887A",
"r0	c #A68570",
"s0	c #A07D69",
"t0	c #9C745B",
"u0	c #996F56",
"v0	c #956B52",
"w0	c #92684F",
"x0	c #8D654C",
"y0	c #4E3C32",
"z0	c #4E3B34",
"A0	c #4D3A33",
"B0	c #5C4B41",
"C0	c #53463D",
"D0	c #564540",
"E0	c #5E4A3F",
"F0	c #644E40",
"G0	c #5C412E",
"H0	c #593C2A",
"I0	c #433127",
"J0	c #644B37",
"K0	c #8C664F",
"L0	c #986E55",
"M0	c #9F7358",
"N0	c #A3775C",
"O0	c #A77B5E",
"P0	c #AC8063",
"Q0	c #B18467",
"R0	c #B98669",
"S0	c #C8997D",
"T0	c #C29881",
"U0	c #A48877",
"V0	c #A6826C",
"W0	c #9A7259",
"X0	c #966D57",
"Y0	c #89634C",
"Z0	c #524239",
"`0	c #5A504A",
" a	c #5E4F4C",
".a	c #5E4C43",
"+a	c #5D3E2A",
"@a	c #413026",
"#a	c #674C39",
"$a	c #795944",
"%a	c #A87B5E",
"&a	c #AF7E5E",
"*a	c #BF8766",
"=a	c #B57D5C",
"-a	c #B9886A",
";a	c #CAA289",
">a	c #BDA08E",
",a	c #AA8A7A",
"'a	c #A8846E",
")a	c #A27C65",
"!a	c #A0785F",
"~a	c #9B735A",
"{a	c #89634E",
"]a	c #5E483D",
"^a	c #51433C",
"/a	c #5C4940",
"(a	c #5F402C",
"_a	c #4C392A",
":a	c #423024",
"<a	c #91694F",
"[a	c #9B7254",
"}a	c #A67B5B",
"|a	c #A97C5D",
"1a	c #B88B6C",
"2a	c #C08F71",
"3a	c #B98A6E",
"4a	c #C5977E",
"5a	c #CCA18E",
"6a	c #B29482",
"7a	c #A78A7E",
"8a	c #AD8270",
"9a	c #9E765D",
"0a	c #997158",
"aa	c #926D53",
"ba	c #755540",
"ca	c #54413B",
"da	c #5F5248",
"ea	c #976E52",
"fa	c #A0775B",
"ga	c #A67E64",
"ha	c #A67D61",
"ia	c #AF8064",
"ja	c #BC896C",
"ka	c #C58E70",
"la	c #C69074",
"ma	c #C79A80",
"na	c #CAA392",
"oa	c #92817A",
"pa	c #A98D80",
"qa	c #A98472",
"ra	c #A4765E",
"sa	c #A4755B",
"ta	c #9D735B",
"ua	c #8E6851",
"va	c #71503F",
"wa	c #4D3B2F",
"xa	c #524034",
"ya	c #534135",
"za	c #544339",
"Aa	c #443123",
"Ba	c #433022",
"Ca	c #453224",
"Da	c #58412F",
"Ea	c #72523D",
"Fa	c #7D5943",
"Ga	c #886349",
"Ha	c #986F53",
"Ia	c #AE7F63",
"Ja	c #B58362",
"Ka	c #BD8763",
"La	c #C58D6A",
"Ma	c #CA9573",
"Na	c #C99C7F",
"Oa	c #C9A48D",
"Pa	c #876D5F",
"Qa	c #9B837D",
"Ra	c #AB8D81",
"Sa	c #A3806D",
"Ta	c #A37963",
"Ua	c #A87861",
"Va	c #9F7159",
"Wa	c #7E5A44",
"Xa	c #765641",
"Ya	c #503E32",
"Za	c #564639",
"`a	c #544437",
" b	c #5B4D44",
".b	c #5C4D43",
"+b	c #553E2C",
"@b	c #966C53",
"#b	c #9F755D",
"$b	c #A97A5E",
"%b	c #B7835E",
"&b	c #BD8761",
"*b	c #C38D67",
"=b	c #C59370",
"-b	c #CE9F81",
";b	c #CEA88D",
">b	c #A38775",
",b	c #AD8877",
"'b	c #A47B65",
")b	c #986E58",
"!b	c #7D5A44",
"~b	c #524032",
"{b	c #544234",
"]b	c #554538",
"^b	c #544639",
"/b	c #554B3F",
"(b	c #614F45",
"_b	c #543D2B",
":b	c #966850",
"<b	c #A17258",
"[b	c #AA7D5E",
"}b	c #AD815E",
"|b	c #B38561",
"1b	c #BA8863",
"2b	c #BE8862",
"3b	c #C58F6B",
"4b	c #D09B7B",
"5b	c #D7A890",
"6b	c #B68E7D",
"7b	c #A88C7B",
"8b	c #A9856E",
"9b	c #AE8164",
"0b	c #A97A5C",
"ab	c #956F5C",
"bb	c #896451",
"cb	c #8B6653",
"db	c #795640",
"eb	c #75523E",
"fb	c #71513C",
"gb	c #534133",
"hb	c #544435",
"ib	c #504638",
"jb	c #5F554E",
"kb	c #634C3E",
"lb	c #503B2A",
"mb	c #7E5B45",
"nb	c #89654D",
"ob	c #8F674E",
"pb	c #9A6C54",
"qb	c #A77C5C",
"rb	c #B4825F",
"sb	c #C38964",
"tb	c #C68E69",
"ub	c #C99474",
"vb	c #D0A288",
"wb	c #C5A28E",
"xb	c #A9907E",
"yb	c #AB856E",
"zb	c #AD8061",
"Ab	c #AB7958",
"Bb	c #A57352",
"Cb	c #9D7053",
"Db	c #876856",
"Eb	c #54483C",
"Fb	c #574B42",
"Gb	c #604E47",
"Hb	c #5B493F",
"Ib	c #644E41",
"Jb	c #4F3828",
"Kb	c #4E3727",
"Lb	c #7A5A45",
"Mb	c #815F46",
"Nb	c #88644A",
"Ob	c #8D684D",
"Pb	c #A3755B",
"Qb	c #AA785D",
"Rb	c #B07D5E",
"Sb	c #B6815F",
"Tb	c #BC8863",
"Ub	c #BF8B64",
"Vb	c #C2926C",
"Wb	c #C49776",
"Xb	c #C99F86",
"Yb	c #CDA793",
"Zb	c #AF9180",
"`b	c #A99281",
" c	c #A3816C",
".c	c #A87A59",
"+c	c #A57453",
"@c	c #9E704F",
"#c	c #956C50",
"$c	c #816452",
"%c	c #71523D",
"&c	c #534336",
"*c	c #514336",
"=c	c #524A40",
"-c	c #5C4A40",
";c	c #634D3F",
">c	c #836148",
",c	c #866449",
"'c	c #9D6D56",
")c	c #A47259",
"!c	c #AE7B5C",
"~c	c #AC7B5A",
"{c	c #B0825E",
"]c	c #BA8C68",
"^c	c #BC906D",
"/c	c #BF9273",
"(c	c #CB9E81",
"_c	c #D3A58D",
":c	c #C49F89",
"<c	c #AA8F7D",
"[c	c #A4806A",
"}c	c #A98064",
"|c	c #A17455",
"1c	c #9B6F52",
"2c	c #946C52",
"3c	c #55463D",
"4c	c #5B534A",
"5c	c #584A42",
"6c	c #604D3F",
"7c	c #7D5E49",
"8c	c #95674D",
"9c	c #9B6C50",
"0c	c #A07155",
"ac	c #A37659",
"bc	c #AD8164",
"cc	c #B28669",
"dc	c #B78A6B",
"ec	c #BA8969",
"fc	c #C59070",
"gc	c #D29A77",
"hc	c #D5A083",
"ic	c #CEAA99",
"jc	c #AA8E7A",
"kc	c #AB866A",
"lc	c #A67A5D",
"mc	c #A6795A",
"nc	c #9E7255",
"oc	c #8C6953",
"pc	c #806049",
"qc	c #7E5E47",
"rc	c #72533E",
"sc	c #513F33",
"tc	c #5B4E46",
"uc	c #5C4C3E",
"vc	c #664F41",
"wc	c #886348",
"xc	c #92694B",
"yc	c #A97D64",
"zc	c #BB8869",
"Ac	c #C28C68",
"Bc	c #C88E68",
"Cc	c #C6906C",
"Dc	c #D0A089",
"Ec	c #D5B29E",
"Fc	c #968176",
"Gc	c #AA8F7E",
"Hc	c #A5795C",
"Ic	c #916D57",
"Jc	c #805E45",
"Kc	c #4E3E31",
"Lc	c #53453E",
"Mc	c #635951",
"Nc	c #5A4A43",
"Oc	c #624C3D",
"Pc	c #463629",
"Qc	c #453528",
"Rc	c #876448",
"Sc	c #8B684A",
"Tc	c #926D50",
"Uc	c #987056",
"Vc	c #AA7C65",
"Wc	c #B07E65",
"Xc	c #B58265",
"Yc	c #BC8765",
"Zc	c #C6926D",
"`c	c #C69376",
" d	c #D0A28A",
".d	c #D6AD97",
"+d	c #9F816F",
"@d	c #AD8F83",
"#d	c #A98672",
"$d	c #A77B62",
"%d	c #AA7B5F",
"&d	c #9C6D51",
"*d	c #9C7055",
"=d	c #866657",
"-d	c #816454",
";d	c #7E5A40",
">d	c #7B573D",
",d	c #504033",
"'d	c #4D3D30",
")d	c #5A4B44",
"!d	c #5E4B41",
"~d	c #5A4436",
"{d	c #4B392D",
"]d	c #47372A",
"^d	c #7E5E45",
"/d	c #816246",
"(d	c #916C52",
"_d	c #A77962",
":d	c #AB7B64",
"<d	c #AC7A61",
"[d	c #B68364",
"}d	c #B98766",
"|d	c #BD8B68",
"1d	c #CD9876",
"2d	c #C69171",
"3d	c #CB9C80",
"4d	c #D6AC94",
"5d	c #B0907F",
"6d	c #A47F6C",
"7d	c #A57C66",
"8d	c #9A6D56",
"9d	c #956B55",
"0d	c #8C6754",
"ad	c #896555",
"bd	c #836354",
"cd	c #7B573F",
"dd	c #79553D",
"ed	c #6C4D39",
"fd	c #504031",
"gd	c #4B3E2E",
"hd	c #524233",
"id	c #56473B",
"jd	c #5C4841",
"kd	c #5F4B40",
"ld	c #654F42",
"md	c #4A3A2D",
"nd	c #48382B",
"od	c #49392C",
"pd	c #72523B",
"qd	c #75553C",
"rd	c #7B5B44",
"sd	c #A07356",
"td	c #A47557",
"ud	c #B3846A",
"vd	c #B78668",
"wd	c #CE9770",
"xd	c #D49E7C",
"yd	c #CF9D82",
"zd	c #D8AB97",
"Ad	c #B89588",
"Bd	c #907D75",
"Cd	c #B29281",
"Dd	c #A57F6A",
"Ed	c #A77E68",
"Fd	c #986B56",
"Gd	c #926852",
"Hd	c #836251",
"Id	c #77543E",
"Jd	c #4E3E2F",
"Kd	c #554536",
"Ld	c #604D46",
"Md	c #665045",
"Nd	c #644C40",
"Od	c #564130",
"Pd	c #513E2F",
"Qd	c #4F3D2F",
"Rd	c #694D38",
"Sd	c #6E4F3A",
"Td	c #72543C",
"Ud	c #976E50",
"Vd	c #9F7454",
"Wd	c #A87A60",
"Xd	c #BE8967",
"Yd	c #C08863",
"Zd	c #CB9370",
"`d	c #CF987A",
" e	c #CC9880",
".e	c #DBAC98",
"+e	c #CAA495",
"@e	c #A08573",
"#e	c #B28D7B",
"$e	c #A37D66",
"%e	c #524235",
"&e	c #564942",
"*e	c #554542",
"=e	c #604943",
"-e	c #53402F",
";e	c #52412F",
">e	c #534031",
",e	c #8C674C",
"'e	c #936B51",
")e	c #997054",
"!e	c #A07459",
"~e	c #A4785D",
"{e	c #B38468",
"]e	c #B98868",
"^e	c #C28D6D",
"/e	c #C99170",
"(e	c #CE9673",
"_e	c #D39D7B",
":e	c #D5A486",
"<e	c #D5AB90",
"[e	c #AB9080",
"}e	c #AF8972",
"|e	c #9E795F",
"1e	c #99745A",
"2e	c #7C5C47",
"3e	c #584D44",
"4e	c #605654",
"5e	c #5D4845",
"6e	c #664B44",
"7e	c #6A4E43",
"8e	c #5B4530",
"9e	c #57422F",
"0e	c #55432F",
"ae	c #544132",
"be	c #755944",
"ce	c #795A45",
"de	c #7C5E46",
"ee	c #8D684E",
"fe	c #9A7057",
"ge	c #A5775D",
"he	c #C38D69",
"ie	c #CB916C",
"je	c #D19570",
"ke	c #D49C79",
"le	c #D6A384",
"me	c #D6AA93",
"ne	c #A78C82",
"oe	c #AA8577",
"pe	c #AA846F",
"qe	c #977258",
"re	c #936E54",
"se	c #574537",
"te	c #564A3D",
"ue	c #5E4C47",
"ve	c #594431",
"we	c #70543F",
"xe	c #785A42",
"ye	c #8F674D",
"ze	c #946A51",
"Ae	c #A17558",
"Be	c #A47D5E",
"Ce	c #A98060",
"De	c #B08362",
"Ee	c #C08A68",
"Fe	c #C88D6D",
"Ge	c #CE9373",
"He	c #D1987B",
"Ie	c #E0A890",
"Je	c #D1A491",
"Ke	c #B18C80",
"Le	c #AA8F83",
"Me	c #A78375",
"Ne	c #A57E6D",
"Oe	c #58483B",
"Pe	c #5E5048",
"Qe	c #5D4A43",
"Re	c #7E5C43",
"Se	c #89644A",
"Te	c #9A6E55",
"Ue	c #9B7256",
"Ve	c #A07958",
"We	c #A47C59",
"Xe	c #AB8060",
"Ye	c #B18362",
"Ze	c #B88566",
"`e	c #C0896B",
" f	c #C98D71",
".f	c #CD9175",
"+f	c #CB9277",
"@f	c #D8A28A",
"#f	c #DFB29F",
"$f	c #A78D81",
"%f	c #A1826F",
"&f	c #AA816F",
"*f	c #52443D",
"=f	c #5C4941",
"-f	c #614D42",
";f	c #584332",
">f	c #4A382A",
",f	c #4B392B",
"'f	c #4E3B2C",
")f	c #503D2E",
"!f	c #6E523D",
"~f	c #76563F",
"{f	c #7B5940",
"]f	c #8B634A",
"^f	c #A07555",
"/f	c #A37856",
"(f	c #A87D5D",
"_f	c #B28367",
":f	c #C28A6F",
"<f	c #C78E71",
"[f	c #CF9476",
"}f	c #D79B7F",
"|f	c #D6A086",
"1f	c #D9AA95",
"2f	c #C0A291",
"3f	c #A08D7B",
"4f	c #A78B74",
"5f	c #A57B65",
"6f	c #8E6A52",
"7f	c #745540",
"8f	c #534137",
"9f	c #54463D",
"0f	c #544841",
"af	c #584B43",
"bf	c #5B4C42",
"cf	c #5A4534",
"df	c #564332",
"ef	c #524131",
"ff	c #493729",
"gf	c #73543F",
"hf	c #90684F",
"if	c #966A4F",
"jf	c #9D7051",
"kf	c #A27355",
"lf	c #C08B6C",
"mf	c #CF9474",
"nf	c #CB906E",
"of	c #D2997B",
"pf	c #D3A083",
"qf	c #D1A991",
"rf	c #C4A292",
"sf	c #A58A7F",
"tf	c #A18472",
"uf	c #A4846D",
"vf	c #9D7B60",
"wf	c #9F7A60",
"xf	c #926850",
"yf	c #534238",
"zf	c #52453D",
"Af	c #584C41",
"Bf	c #604C43",
"Cf	c #674C43",
"Df	c #694B41",
"Ef	c #564533",
"Ff	c #534230",
"Gf	c #523F30",
"Hf	c #92654E",
"If	c #9F6D52",
"Jf	c #A3745A",
"Kf	c #A5795E",
"Lf	c #B28566",
"Mf	c #B68866",
"Nf	c #C08C67",
"Of	c #C9936F",
"Pf	c #CF9975",
"Qf	c #DAA384",
"Rf	c #D6A388",
"Sf	c #D6A690",
"Tf	c #DCAF9E",
"Uf	c #A6887D",
"Vf	c #AA8678",
"Wf	c #A5806E",
"Xf	c #9B7862",
"Yf	c #9A785D",
"Zf	c #957357",
"`f	c #936950",
" g	c #7A5A43",
".g	c #54463B",
"+g	c #514841",
"@g	c #5A524C",
"#g	c #644B44",
"$g	c #694C44",
"%g	c #574632",
"&g	c #544331",
"*g	c #8D634D",
"=g	c #94644E",
"-g	c #9B6952",
";g	c #9F6F58",
">g	c #A3755D",
",g	c #AA7E61",
"'g	c #AE8361",
")g	c #B28663",
"!g	c #B78763",
"~g	c #C08E69",
"{g	c #C99371",
"]g	c #CB9475",
"^g	c #D89F82",
"/g	c #E0A68E",
"(g	c #D99C89",
"_g	c #E4B19E",
":g	c #AE867A",
"<g	c #B18576",
"[g	c #AB7D6E",
"}g	c #A57A69",
"|g	c #9C7764",
"1g	c #94745B",
"2g	c #907155",
"3g	c #8F6C4E",
"4g	c #906749",
"5g	c #8D6446",
"6g	c #4E3C2E",
"7g	c #4D3B2D",
"8g	c #524137",
"9g	c #54483D",
"0g	c #5E4C48",
"ag	c #624B45",
"bg	c #674C45",
"cg	c #604939",
"dg	c #5D4B37",
"eg	c #554432",
"fg	c #624935",
"gg	c #86604B",
"hg	c #8F6151",
"ig	c #946553",
"jg	c #9A6C55",
"kg	c #9F7157",
"lg	c #A67958",
"mg	c #A97D5A",
"ng	c #AB7F5C",
"og	c #B38563",
"pg	c #B78967",
"qg	c #C08E6D",
"rg	c #C99273",
"sg	c #D19678",
"tg	c #DA9A7E",
"ug	c #E19E81",
"vg	c #E4A489",
"wg	c #E4B39C",
"xg	c #AE8978",
"yg	c #B38671",
"zg	c #AE7D6C",
"Ag	c #A87969",
"Bg	c #A17665",
"Cg	c #8F6D54",
"Dg	c #8D6A4C",
"Eg	c #8D6645",
"Fg	c #8A6344",
"Gg	c #514036",
"Hg	c #594B44",
"Ig	c #604D4B",
"Jg	c #624944",
"Kg	c #5C4A36",
"Lg	c #86614F",
"Mg	c #8B6552",
"Ng	c #A57454",
"Og	c #A87756",
"Pg	c #A97B59",
"Qg	c #B28365",
"Rg	c #BA896B",
"Sg	c #C28D6E",
"Tg	c #CC9173",
"Ug	c #D49574",
"Vg	c #DE9A77",
"Wg	c #E19C7B",
"Xg	c #E3A689",
"Yg	c #DFAB92",
"Zg	c #B18A77",
"`g	c #B3866F",
" h	c #A87862",
".h	c #A27562",
"+h	c #9C7361",
"@h	c #956E5D",
"#h	c #876444",
"$h	c #846342",
"%h	c #503F37",
"&h	c #645651",
"*h	c #5C4B45",
"=h	c #614A42",
"-h	c #614C3B",
";h	c #5D4835",
">h	c #82634F",
",h	c #94684F",
"'h	c #9C6B4D",
")h	c #A36E4F",
"!h	c #A67152",
"~h	c #A97455",
"{h	c #AB785D",
"]h	c #AE7C61",
"^h	c #C28B6C",
"/h	c #CA8F6D",
"(h	c #D3956E",
"_h	c #D89771",
":h	c #DF9D7A",
"<h	c #E2A586",
"[h	c #DDAB94",
"}h	c #B08E7E",
"|h	c #A7785E",
"1h	c #A3775E",
"2h	c #8E6756",
"3h	c #876349",
"4h	c #836145",
"5h	c #7F6043",
"6h	c #4E3D33",
"7h	c #5C4E4D",
"8h	c #5B4A42",
"9h	c #634F44",
"0h	c #624C3E",
"ah	c #795E4B",
"bh	c #7B604B",
"ch	c #95664C",
"dh	c #9C694C",
"eh	c #A26C50",
"fh	c #A56F55",
"gh	c #AA745C",
"hh	c #AB775F",
"ih	c #AE7C63",
"jh	c #BB8667",
"kh	c #C18B67",
"lh	c #C79069",
"mh	c #CE936B",
"nh	c #DC9B75",
"oh	c #DF9F7C",
"ph	c #DBA485",
"qh	c #E0B499",
"rh	c #C1A38D",
"sh	c #AD8E82",
"th	c #B08978",
"uh	c #A67860",
"vh	c #96725A",
"wh	c #8F6956",
"xh	c #88624F",
"yh	c #7F5F46",
"zh	c #7B5D43",
"Ah	c #4C3B31",
"Bh	c #513F35",
"Ch	c #51423B",
"Dh	c #60544F",
"Eh	c #5A4F45",
"Fh	c #5E4E41",
"Gh	c #604D3E",
"Hh	c #775D46",
"Ih	c #7A5E48",
"Jh	c #96664F",
"Kh	c #9C6A53",
"Lh	c #A06C56",
"Mh	c #A6725C",
"Nh	c #A9755F",
"Oh	c #AF7D62",
"Ph	c #B48363",
"Qh	c #B88766",
"Rh	c #BD8D67",
"Sh	c #C49069",
"Th	c #D39773",
"Uh	c #D99A79",
"Vh	c #DFA484",
"Wh	c #DAA788",
"Xh	c #E6B89D",
"Yh	c #B59380",
"Zh	c #AB8C7A",
"`h	c #B08B79",
" i	c #A9836E",
".i	c #A0785E",
"+i	c #9B765B",
"@i	c #967357",
"#i	c #4F3D33",
"$i	c #53423A",
"%i	c #4F4039",
"&i	c #534441",
"*i	c #5F544D",
"=i	c #5C4E43",
"-i	c #775941",
";i	c #7A5A41",
">i	c #946754",
",i	c #986955",
"'i	c #A4725B",
")i	c #A8765D",
"!i	c #AE7F61",
"~i	c #B18463",
"{i	c #B68A67",
"]i	c #BA8C6A",
"^i	c #C89172",
"/i	c #D69B79",
"(i	c #E6AB8B",
"_i	c #D69F80",
":i	c #E0B095",
"<i	c #B99581",
"[i	c #B38B7E",
"}i	c #B68773",
"|i	c #AC836F",
"1i	c #A17D67",
"2i	c #97775E",
"3i	c #937458",
"4i	c #906E52",
"5i	c #8F6B51",
"6i	c #8B694E",
"7i	c #85664A",
"8i	c #816148",
"9i	c #7D574A",
"0i	c #7B5548",
"ai	c #5E5345",
"bi	c #5F4C3E",
"ci	c #78523B",
"di	c #7C543B",
"ei	c #956B53",
"fi	c #9A6E53",
"gi	c #A17256",
"hi	c #A57658",
"ii	c #AC7F60",
"ji	c #B08467",
"ki	c #C59273",
"li	c #D09575",
"mi	c #D79877",
"ni	c #E7A784",
"oi	c #E5A889",
"pi	c #E8B49C",
"qi	c #B99783",
"ri	c #A38E87",
"si	c #B38879",
"ti	c #B37F6A",
"ui	c #9B775F",
"vi	c #95755C",
"wi	c #907258",
"xi	c #8F6F56",
"yi	c #88664B",
"zi	c #826249",
"Ai	c #7E6046",
"Bi	c #7B5A49",
"Ci	c #7C5649",
"Di	c #7A5447",
"Ei	c #4B3A30",
"Fi	c #55443D",
"Gi	c #554740",
"Hi	c #64544F",
"Ii	c #5E4E42",
"Ji	c #744E39",
"Ki	c #79503A",
"Li	c #7D6050",
"Mi	c #856550",
"Ni	c #A07354",
"Oi	c #A5785B",
"Pi	c #A87C5F",
"Qi	c #AC8065",
"Ri	c #AF8368",
"Si	c #BE8D6D",
"Ti	c #C68E6D",
"Ui	c #C98D6B",
"Vi	c #D59572",
"Wi	c #E2A382",
"Xi	c #DAA184",
"Yi	c #E3B49E",
"Zi	c #B69787",
"`i	c #A58C76",
" j	c #AF8F78",
".j	c #AC826C",
"+j	c #A1775F",
"@j	c #957157",
"#j	c #906E55",
"$j	c #8C6A51",
"%j	c #89674E",
"&j	c #86644B",
"*j	c #7D5D46",
"=j	c #4C3C2F",
"-j	c #54433C",
";j	c #554B49",
">j	c #61534C",
",j	c #5E4D45",
"'j	c #604C41",
")j	c #5D4837",
"!j	c #4C3A2C",
"~j	c #AA7C62",
"{j	c #B78562",
"]j	c #C48E6C",
"^j	c #D19976",
"/j	c #D7A17F",
"(j	c #DBA686",
"_j	c #E1B495",
":j	c #C19A80",
"<j	c #A98B79",
"[j	c #B08C72",
"}j	c #A27860",
"|j	c #785944",
"1j	c #52413B",
"2j	c #5C4F4B",
"3j	c #5E4C3E",
"4j	c #5E4B3C",
"5j	c #4D3C32",
"6j	c #936B52",
"7j	c #986E56",
"8j	c #A2765D",
"9j	c #AE7D5D",
"0j	c #B2825E",
"aj	c #B78665",
"bj	c #BC8B6A",
"cj	c #C18F6E",
"dj	c #C99472",
"ej	c #D09A76",
"fj	c #D59D7A",
"gj	c #D8A27E",
"hj	c #E2AF8E",
"ij	c #D0A78D",
"jj	c #A78B80",
"kj	c #B1907D",
"lj	c #B0886F",
"mj	c #765743",
"nj	c #584840",
"oj	c #60564E",
"pj	c #5A4C43",
"qj	c #5F4C3D",
"rj	c #A1755A",
"sj	c #A8795B",
"tj	c #AC7E5D",
"uj	c #B68769",
"vj	c #BC8B6B",
"wj	c #C18E6F",
"xj	c #CA9472",
"yj	c #E2AD8B",
"zj	c #DBAE8F",
"Aj	c #CFA791",
"Bj	c #A08A81",
"Cj	c #AA8572",
"Dj	c #53443C",
"Ej	c #665E58",
"Fj	c #5D4F48",
"Gj	c #946C53",
"Hj	c #996F57",
"Ij	c #A77A5D",
"Jj	c #B5866A",
"Kj	c #BD8A6D",
"Lj	c #C58E6F",
"Mj	c #CA9271",
"Nj	c #D29775",
"Oj	c #D9A687",
"Pj	c #DCB097",
"Qj	c #CBA796",
"Rj	c #9A8A7D",
"Sj	c #A89081",
"Tj	c #AA8774",
"Uj	c #9F715A",
"Vj	c #A2745D",
"Wj	c #987057",
"Xj	c #574841",
"Yj	c #5F5650",
"Zj	c #5C4C3F",
"`j	c #544133",
" k	c #846048",
".k	c #966C54",
"+k	c #A57960",
"@k	c #B68469",
"#k	c #BF8A6B",
"$k	c #C68D6F",
"%k	c #CD916F",
"&k	c #D39775",
"*k	c #D29A79",
"=k	c #E0B39D",
"-k	c #C6A08C",
";k	c #AB917E",
">k	c #A88873",
",k	c #A17B66",
"'k	c #9E745E",
")k	c #775843",
"!k	c #645F59",
"~k	c #5D4E44",
"{k	c #473527",
"]k	c #B18268",
"^k	c #CE9270",
"/k	c #C68A66",
"(k	c #D69A78",
"_k	c #DAA281",
":k	c #D4A184",
"<k	c #E2B49C",
"[k	c #C49A87",
"}k	c #A78E78",
"|k	c #AA8A73",
"1k	c #9C725C",
"2k	c #966D59",
"3k	c #916B56",
"4k	c #503F35",
"5k	c #5A4B45",
"6k	c #5D5146",
"7k	c #614B3D",
"8k	c #AD7F67",
"9k	c #BD8869",
"0k	c #C48969",
"ak	c #CA8E6C",
"bk	c #CC906C",
"ck	c #D49876",
"dk	c #D79E80",
"ek	c #DBA687",
"fk	c #E6B198",
"gk	c #B5907B",
"hk	c #A98972",
"ik	c #A2795D",
"jk	c #9E745B",
"kk	c #9B7159",
"lk	c #8E6A54",
"mk	c #4F4138",
"nk	c #53463F",
"ok	c #645652",
"pk	c #634F43",
"qk	c #9D755C",
"rk	c #B58263",
"sk	c #C0896A",
"tk	c #C38866",
"uk	c #CC906E",
"vk	c #D19676",
"wk	c #DBA082",
"xk	c #E6B79D",
"yk	c #BC9E8B",
"zk	c #A88D82",
"Ak	c #A98673",
"Bk	c #A4775A",
"Ck	c #967157",
"Dk	c #906D57",
"Ek	c #8B6B56",
"Fk	c #504239",
"Gk	c #4F463E",
"Hk	c #5D5045",
"Ik	c #5D4B3D",
"Jk	c #594433",
"Kk	c #90684E",
"Lk	c #956D53",
"Mk	c #9C745A",
"Nk	c #A1775E",
"Ok	c #A97C5F",
"Pk	c #BF8869",
"Qk	c #CC9171",
"Rk	c #CD9272",
"Sk	c #D29777",
"Tk	c #DA9F81",
"Uk	c #DDA78B",
"Vk	c #E1B39C",
"Wk	c #C19E8B",
"Xk	c #A58981",
"Yk	c #A68576",
"Zk	c #A87D6A",
"`k	c #9B6E51",
" l	c #916D53",
".l	c #896B53",
"+l	c #846852",
"@l	c #7B5C47",
"#l	c #4F423A",
"$l	c #5A534E",
"%l	c #5B4A40",
"&l	c #997157",
"*l	c #9E7559",
"=l	c #AA7D60",
"-l	c #BE8969",
";l	c #C38C6D",
">l	c #C78E70",
",l	c #CC9473",
"'l	c #D39B7A",
")l	c #D89F81",
"!l	c #DFA68B",
"~l	c #E2B099",
"{l	c #CCA595",
"]l	c #A89084",
"^l	c #AB897D",
"/l	c #A57B6B",
"(l	c #A57662",
"_l	c #A1715A",
":l	c #9B6C52",
"<l	c #97694F",
"[l	c #846850",
"}l	c #80664F",
"|l	c #4F443E",
"1l	c #5D4D40",
"2l	c #5C493A",
"3l	c #5B4635",
"4l	c #835F45",
"5l	c #876247",
"6l	c #956E51",
"7l	c #997255",
"8l	c #9F765A",
"9l	c #AF8062",
"0l	c #BC896A",
"al	c #C79272",
"bl	c #CE9778",
"cl	c #D39A7C",
"dl	c #DC9B7D",
"el	c #E7AA8E",
"fl	c #DAA994",
"gl	c #CDA698",
"hl	c #A48A7E",
"il	c #A7877A",
"jl	c #A27764",
"kl	c #9E7058",
"ll	c #996B53",
"ml	c #88684F",
"nl	c #82664E",
"ol	c #7E644D",
"pl	c #7D614C",
"ql	c #584D45",
"rl	c #5E5450",
"sl	c #594B42",
"tl	c #7F5D44",
"ul	c #BD8C6E",
"vl	c #C39071",
"wl	c #C99475",
"xl	c #CD9574",
"yl	c #D79575",
"zl	c #E09F81",
"Al	c #E0A88D",
"Bl	c #DBAF98",
"Cl	c #CAA899",
"Dl	c #A38E7E",
"El	c #A88977",
"Fl	c #A27F6B",
"Gl	c #8A6751",
"Hl	c #86664F",
"Il	c #82634E",
"Jl	c #60483C",
"Kl	c #635854",
"Ll	c #594D43",
"Ml	c #5E4D43",
"Nl	c #5E4B3D",
"Ol	c #554233",
"Pl	c #977053",
"Ql	c #AA7E63",
"Rl	c #BE8B6C",
"Sl	c #C48F70",
"Tl	c #C88F71",
"Ul	c #CE8F6C",
"Vl	c #E0A17E",
"Wl	c #DCA183",
"Xl	c #DCA98E",
"Yl	c #E2B7A0",
"Zl	c #C8A795",
"`l	c #A98B80",
" m	c #AA8B77",
".m	c #A5816B",
"+m	c #9B7359",
"@m	c #8D6A54",
"#m	c #4B3D32",
"$m	c #514134",
"%m	c #594943",
"&m	c #5F534C",
"*m	c #5F534A",
"=m	c #5B493B",
"-m	c #8E694E",
";m	c #987154",
">m	c #A87C61",
",m	c #C18C6D",
"'m	c #C48D6E",
")m	c #CC9471",
"!m	c #CA906B",
"~m	c #D89D7B",
"{m	c #E2A789",
"]m	c #DCA489",
"^m	c #E2B29C",
"/m	c #C5A18D",
"(m	c #A78B7E",
"_m	c #AD8C7B",
":m	c #A6816E",
"<m	c #957254",
"[m	c #8B6D55",
"}m	c #856954",
"|m	c #825C49",
"1m	c #755A47",
"2m	c #735845",
"3m	c #4C3E33",
"4m	c #5F5149",
"5m	c #5E483A",
"6m	c #684E3D",
"7m	c #6B5140",
"8m	c #775748",
"9m	c #7C5B4A",
"0m	c #9F755C",
"am	c #B68366",
"bm	c #C18C6C",
"cm	c #C2926E",
"dm	c #C99772",
"em	c #CE946F",
"fm	c #DFA07D",
"gm	c #E7A688",
"hm	c #E6A98D",
"im	c #ECB8A2",
"jm	c #BD9987",
"km	c #A88C84",
"lm	c #AB8A7B",
"mm	c #977255",
"nm	c #927054",
"om	c #8B6B52",
"pm	c #866A54",
"qm	c #826754",
"rm	c #806552",
"sm	c #4F3F32",
"tm	c #52463C",
"um	c #5C5149",
"vm	c #755548",
"wm	c #A6785E",
"xm	c #AA7B61",
"ym	c #B07E63",
"zm	c #B78467",
"Am	c #B98B6A",
"Bm	c #C1906F",
"Cm	c #CA9470",
"Dm	c #D19571",
"Em	c #DC9A78",
"Fm	c #E8A686",
"Gm	c #E6AA8E",
"Hm	c #E7B7A0",
"Im	c #A88C7A",
"Jm	c #AF8A79",
"Km	c #AA8471",
"Lm	c #A27C67",
"Mm	c #896952",
"Nm	c #866752",
"Om	c #816550",
"Pm	c #7F634E",
"Qm	c #725847",
"Rm	c #6F5544",
"Sm	c #6D5344",
"Tm	c #533E2D",
"Um	c #50433B",
"Vm	c #4E4743",
"Wm	c #5B504A",
"Xm	c #624F41",
"Ym	c #48372D",
"Zm	c #49382E",
"`m	c #9C6F58",
" n	c #B28065",
".n	c #B58368",
"+n	c #B8896F",
"@n	c #BE8C71",
"#n	c #C59372",
"$n	c #CC9672",
"%n	c #D49873",
"&n	c #DD9D79",
"*n	c #E6A484",
"=n	c #E9AC8F",
"-n	c #EAB9A2",
";n	c #A58875",
">n	c #B28C74",
",n	c #AA846D",
"'n	c #8F6C56",
")n	c #876752",
"!n	c #856651",
"~n	c #7E624D",
"{n	c #795E49",
"]n	c #775C49",
"^n	c #705645",
"/n	c #6E5445",
"(n	c #51433A",
"_n	c #4E433D",
":n	c #605550",
"<n	c #594A43",
"[n	c #5F4D41",
"}n	c #47362C",
"|n	c #976D57",
"1n	c #9D7059",
"2n	c #A2745C",
"3n	c #A7795F",
"4n	c #AB7D63",
"5n	c #AF8066",
"6n	c #B6846D",
"7n	c #BA886F",
"8n	c #BE906F",
"9n	c #C59571",
"0n	c #CE9671",
"an	c #D79B76",
"bn	c #E19F7C",
"cn	c #E9AB8F",
"dn	c #E4B69D",
"en	c #A08A7A",
"fn	c #AA8D77",
"gn	c #AD8973",
"hn	c #8E6B57",
"in	c #8C6955",
"jn	c #80614D",
"kn	c #7C604B",
"ln	c #4C3F3D",
"mn	c #5D4E46",
"nn	c #9D7158",
"on	c #A2765B",
"pn	c #B17F64",
"qn	c #C89371",
"rn	c #CF9774",
"sn	c #DC9D7C",
"tn	c #E1A688",
"un	c #E7B497",
"vn	c #DBB7A0",
"wn	c #9E887A",
"xn	c #A98C7B",
"yn	c #A98875",
"zn	c #A5826E",
"An	c #A07A65",
"Bn	c #98725B",
"Cn	c #7A5E49",
"Dn	c #6F5546",
"En	c #564D47",
"Fn	c #62534D",
"Gn	c #8F6650",
"Hn	c #946A52",
"In	c #AE7D5F",
"Jn	c #B18060",
"Kn	c #B58766",
"Ln	c #C28F70",
"Mn	c #D49778",
"Nn	c #DA9D7E",
"On	c #E2B395",
"Pn	c #DDBBA4",
"Qn	c #AF907B",
"Rn	c #AD8A74",
"Sn	c #A4846F",
"Tn	c #9E7863",
"Un	c #926E58",
"Vn	c #765B48",
"Wn	c #715746",
"Xn	c #50443C",
"Yn	c #5B4F46",
"Zn	c #916950",
"`n	c #966E55",
" o	c #AB7D5C",
".o	c #B6876B",
"+o	c #BD8B70",
"@o	c #C39073",
"#o	c #CE9675",
"$o	c #D79B77",
"%o	c #DB9F7B",
"&o	c #DFA786",
"*o	c #E2B197",
"=o	c #D3AE9D",
"-o	c #AD8F76",
";o	c #B38F75",
">o	c #AD886E",
",o	c #A27F69",
"'o	c #9E7B67",
")o	c #9A7660",
"!o	c #6E5443",
"~o	c #524842",
"{o	c #5E4C42",
"]o	c #674E3A",
"^o	c #A77A59",
"/o	c #C49172",
"(o	c #CB9573",
"_o	c #D29872",
":o	c #DC9E79",
"<o	c #DB9C79",
"[o	c #E4AB8D",
"}o	c #E1B39B",
"|o	c #C09D8C",
"1o	c #B08F71",
"2o	c #AE876A",
"3o	c #A88066",
"4o	c #A07C66",
"5o	c #9B7864",
"6o	c #95715B",
"7o	c #785B4B",
"8o	c #6C5241",
"9o	c #685141",
"0o	c #4F403B",
"ao	c #625650",
"bo	c #46352B",
"co	c #997459",
"do	c #9F7857",
"eo	c #A57A5A",
"fo	c #AC7D61",
"go	c #B48269",
"ho	c #CB8D66",
"io	c #E4A27F",
"jo	c #E0A180",
"ko	c #DFA78C",
"lo	c #E7BAA3",
"mo	c #A78B7C",
"no	c #B29277",
"oo	c #AD886B",
"po	c #A07B60",
"qo	c #514338",
"ro	c #50453F",
"so	c #5D4B3F",
"to	c #45342A",
"uo	c #624B39",
"vo	c #947056",
"wo	c #977456",
"xo	c #AF7D64",
"yo	c #B37F67",
"zo	c #C2906B",
"Ao	c #C7916B",
"Bo	c #D39973",
"Co	c #D79572",
"Do	c #DD9D7A",
"Eo	c #E1A487",
"Fo	c #E4B194",
"Go	c #DDB79B",
"Ho	c #AB9182",
"Io	c #AE8F78",
"Jo	c #AA886F",
"Ko	c #A48066",
"Lo	c #9F7B61",
"Mo	c #9B775D",
"No	c #906D59",
"Oo	c #6A5343",
"Po	c #675040",
"Qo	c #654E3E",
"Ro	c #4F4239",
"So	c #61534D",
"To	c #59483E",
"Uo	c #83634C",
"Vo	c #93735A",
"Wo	c #97755A",
"Xo	c #AB7960",
"Yo	c #B17B61",
"Zo	c #B58061",
"`o	c #B78564",
" p	c #B98965",
".p	c #C38F6A",
"+p	c #C8926E",
"@p	c #D39473",
"#p	c #D89978",
"$p	c #DC9D7E",
"%p	c #DEA587",
"&p	c #E2AF8F",
"*p	c #DFB89F",
"=p	c #A58B80",
"-p	c #AE8F79",
";p	c #AB8872",
">p	c #A3836A",
",p	c #9D7D64",
"'p	c #9A7A63",
")p	c #997660",
"!p	c #96705B",
"~p	c #5B4537",
"{p	c #53463E",
"]p	c #8C6C55",
"^p	c #8D6E59",
"/p	c #91715A",
"(p	c #A5765C",
"_p	c #AE785C",
":p	c #B27D5E",
"<p	c #B48261",
"[p	c #B58463",
"}p	c #BB8A69",
"|p	c #C99072",
"1p	c #D19475",
"2p	c #D59879",
"3p	c #DCA07E",
"4p	c #E0A883",
"5p	c #E0B291",
"6p	c #DAB4A2",
"7p	c #AD907E",
"8p	c #A5836A",
"9p	c #9D7D66",
"0p	c #987964",
"ap	c #967763",
"bp	c #846551",
"cp	c #6C5245",
"dp	c #51443C",
"ep	c #5A4D4B",
"fp	c #5D5248",
"gp	c #5A493F",
"hp	c #564334",
"ip	c #846550",
"jp	c #886C57",
"kp	c #8E6E59",
"lp	c #AA775C",
"mp	c #B58668",
"np	c #DEA27D",
"op	c #E0AA86",
"pp	c #E4B49D",
"qp	c #DDB5A5",
"rp	c #AB8F81",
"sp	c #AB8874",
"tp	c #A68268",
"up	c #A27E64",
"vp	c #987A62",
"wp	c #937761",
"xp	c #917560",
"yp	c #92715E",
"zp	c #564335",
"Ap	c #50433F",
"Bp	c #625651",
"Cp	c #5C4A3C",
"Dp	c #5F4A39",
"Ep	c #866753",
"Fp	c #AB7E61",
"Gp	c #BE8D6F",
"Hp	c #C59071",
"Ip	c #CB9372",
"Jp	c #D29873",
"Kp	c #D99D78",
"Lp	c #DDA37E",
"Mp	c #DBA486",
"Np	c #E3B59C",
"Op	c #D7B19B",
"Pp	c #AD8F84",
"Qp	c #B18E78",
"Rp	c #A68069",
"Sp	c #A27D63",
"Tp	c #9F7B63",
"Up	c #90715D",
"Vp	c #8E6D5A",
"Wp	c #7D604E",
"Xp	c #715547",
"Yp	c #6D5346",
"Zp	c #574A44",
"`p	c #5B4D46",
" q	c #8A6552",
".q	c #BD8C6C",
"+q	c #C48F6F",
"@q	c #CA926F",
"#q	c #D79D78",
"$q	c #DFA482",
"%q	c #E3B59B",
"&q	c #D6B29B",
"*q	c #B08D78",
"=q	c #AC836D",
"-q	c #977760",
";q	c #93735C",
">q	c #8F6F5A",
",q	c #8C6C57",
"'q	c #6A5043",
")q	c #675B59",
"!q	c #60514C",
"~q	c #5A4A3D",
"{q	c #885F4B",
"]q	c #8B624E",
"^q	c #8C6D59",
"/q	c #947561",
"(q	c #9D7866",
"_q	c #A37A66",
":q	c #BF8D6C",
"<q	c #C5906E",
"[q	c #CC9674",
"}q	c #D39876",
"|q	c #E0A27D",
"1q	c #DCA07B",
"2q	c #DFAA8A",
"3q	c #E6BAA1",
"4q	c #CDAC98",
"5q	c #AC8D7C",
"6q	c #B38F78",
"7q	c #B0846B",
"8q	c #A47C62",
"9q	c #9D7760",
"0q	c #99775E",
"aq	c #95735A",
"bq	c #806351",
"cq	c #785D4C",
"dq	c #584536",
"eq	c #645850",
"fq	c #5D4A42",
"gq	c #8D6049",
"hq	c #876C59",
"iq	c #887161",
"jq	c #8E7467",
"kq	c #987768",
"lq	c #A07968",
"mq	c #A97A66",
"nq	c #AE7F65",
"oq	c #B38564",
"pq	c #B98B69",
"qq	c #BF8E6D",
"rq	c #CE9577",
"sq	c #D4966D",
"tq	c #E0A176",
"uq	c #DFA580",
"vq	c #DFAC8F",
"wq	c #E3BBA7",
"xq	c #A58C80",
"yq	c #AF8E7B",
"zq	c #B1876E",
"Aq	c #A1795F",
"Bq	c #9C7860",
"Cq	c #97755C",
"Dq	c #906C54",
"Eq	c #7F6250",
"Fq	c #865C46",
"Gq	c #846956",
"Hq	c #846D5D",
"Iq	c #947465",
"Jq	c #9D7665",
"Kq	c #B28564",
"Lq	c #B58867",
"Mq	c #C18F74",
"Nq	c #C89374",
"Oq	c #CE926D",
"Pq	c #DD9E75",
"Qq	c #DD9F7A",
"Rq	c #DCA385",
"Sq	c #E6B49B",
"Tq	c #DDB4A2",
"Uq	c #B39687",
"Vq	c #A68B7C",
"Wq	c #AF8E7C",
"Xq	c #9B765C",
"Yq	c #7A5F4E",
"Zq	c #5C493B",
"`q	c #4C3C2D",
" r	c #544130",
".r	c #503F2F",
"+r	c #55413F",
"@r	c #5A4F49",
"#r	c #574B40",
"$r	c #856856",
"%r	c #8B6C5A",
"&r	c #B18568",
"*r	c #B78A6D",
"=r	c #BC8E74",
"-r	c #C29075",
";r	c #CF9678",
">r	c #D79875",
",r	c #E2A380",
"'r	c #E1A583",
")r	c #F0BB9B",
"!r	c #E1B9A0",
"~r	c #B08D77",
"{r	c #A7846E",
"]r	c #A37F67",
"^r	c #A07C64",
"/r	c #97735B",
"(r	c #705647",
"_r	c #5B483A",
":r	c #4A3D2D",
"<r	c #4F3A35",
"[r	c #513A34",
"}r	c #533E2B",
"|r	c #513F2B",
"1r	c #53443F",
"2r	c #5C4B4E",
"3r	c #694F42",
"4r	c #B4886D",
"5r	c #BD8E74",
"6r	c #C49176",
"7r	c #CF9679",
"8r	c #D6997A",
"9r	c #E5A984",
"0r	c #EEBC9B",
"ar	c #DAB498",
"br	c #B5907C",
"cr	c #A7836D",
"dr	c #A27E68",
"er	c #99755D",
"fr	c #8E6B55",
"gr	c #5D4A3B",
"hr	c #543F2E",
"ir	c #513C29",
"jr	c #594C45",
"kr	c #A57D63",
"lr	c #AB8168",
"mr	c #AF856C",
"nr	c #B5896E",
"or	c #BD8D76",
"pr	c #C9967B",
"qr	c #CD9477",
"rr	c #DD9D77",
"sr	c #DFA17A",
"tr	c #E8B08D",
"ur	c #EEBFA1",
"vr	c #D5B49E",
"wr	c #B28F77",
"xr	c #9F7B65",
"yr	c #9D7963",
"zr	c #5B4839",
"Ar	c #523D2C",
"Br	c #4C3928",
"Cr	c #574634",
"Dr	c #4D3D2E",
"Er	c #574940",
"Fr	c #564A46",
"Gr	c #61554E",
"Hr	c #5B4B3C",
"Ir	c #AC8269",
"Jr	c #B1856C",
"Kr	c #B4886F",
"Lr	c #BB8E77",
"Mr	c #BF9179",
"Nr	c #D09877",
"Or	c #DDA17C",
"Pr	c #DD9F78",
"Qr	c #E4AE8C",
"Rr	c #EDBDA3",
"Sr	c #DEBCA8",
"Tr	c #AA866E",
"Ur	c #A27E66",
"Vr	c #544333",
"Wr	c #584942",
"Xr	c #675C5A",
"Yr	c #5A4B3F",
"Zr	c #614E40",
"`r	c #AF856D",
" s	c #B58C76",
".s	c #B68C76",
"+s	c #C19278",
"@s	c #CC9778",
"#s	c #D89A75",
"$s	c #E0A07A",
"%s	c #E8A986",
"&s	c #E9B293",
"*s	c #E3B69A",
"=s	c #D9B3A2",
"-s	c #504237",
";s	c #51473F",
">s	c #A88067",
",s	c #AB836A",
"'s	c #B18B76",
")s	c #AD8770",
"!s	c #BD9178",
"~s	c #C59378",
"{s	c #D69A76",
"]s	c #E5A380",
"^s	c #E3A481",
"/s	c #EDB496",
"(s	c #E9BBA3",
"_s	c #926F59",
":s	c #745A4B",
"<s	c #715748",
"[s	c #4E4033",
"}s	c #54453E",
"|s	c #8B6852",
"1s	c #AB876F",
"2s	c #B68C74",
"3s	c #C59275",
"4s	c #D3987A",
"5s	c #D79774",
"6s	c #DC9A77",
"7s	c #EEAF8E",
"8s	c #E9B294",
"9s	c #ECBFA8",
"0s	c #8A6A53",
"as	c #725849",
"bs	c #4B3B2E",
"cs	c #57493E",
"ds	c #50473E",
"es	c #564742",
"fs	c #5F4E44",
"gs	c #A57F68",
"hs	c #A78268",
"is	c #AB866B",
"js	c #B58D74",
"ks	c #BF9076",
"ls	c #C89276",
"ms	c #CD9073",
"ns	c #E1A080",
"os	c #E7A380",
"ps	c #DF9D7B",
"qs	c #EDB091",
"rs	c #EFBCA1",
"ss	c #E5BFA8",
"ts	c #7B5E4E",
"us	c #53453A",
"vs	c #4E4139",
"ws	c #5A534C",
"xs	c #62574F",
"ys	c #695240",
"zs	c #9E7A62",
"As	c #B38971",
"Bs	c #B98C75",
"Cs	c #CA947A",
"Ds	c #DC9B7B",
"Es	c #E09F7F",
"Fs	c #E6A786",
"Gs	c #E3AC8E",
"Hs	c #F2C2AC",
"Is	c #D2AD9A",
"Js	c #937158",
"Ks	c #53453C",
"Ls	c #4F423E",
"Ms	c #977460",
"Ns	c #A37A5E",
"Os	c #A57C5E",
"Ps	c #AE866D",
"Qs	c #B28973",
"Rs	c #B98C77",
"Ss	c #C09079",
"Ts	c #D29779",
"Us	c #D99C7D",
"Vs	c #E4A584",
"Ws	c #E0A887",
"Xs	c #EFC1AA",
"Ys	c #C3A18A",
"Zs	c #564B47",
"`s	c #5B5048",
" t	c #5F4D43",
".t	c #644F3E",
"+t	c #6D5342",
"@t	c #876854",
"#t	c #A8826B",
"$t	c #AD8772",
"%t	c #B38A76",
"&t	c #C2927B",
"*t	c #CA9478",
"=t	c #D89D7D",
"-t	c #DDA687",
";t	c #E9B898",
">t	c #F0C4A8",
",t	c #564741",
"'t	c #615A56",
")t	c #94715D",
"!t	c #B48B75",
"~t	c #CF9A7B",
"{t	c #DDA584",
"]t	c #DDA785",
"^t	c #F1BC9C",
"/t	c #E8BCA3",
"(t	c #544238",
"_t	c #594B48",
":t	c #5F4D45",
"<t	c #6C5543",
"[t	c #836654",
"}t	c #8F6E5B",
"|t	c #A8826D",
"1t	c #B08771",
"2t	c #B58B72",
"3t	c #C79676",
"4t	c #D09A78",
"5t	c #DEA685",
"6t	c #E1A986",
"7t	c #E6AE8B",
"8t	c #ECB99D",
"9t	c #DFB7A2",
"0t	c #73594A",
"at	c #625148",
"bt	c #886957",
"ct	c #8C6D5B",
"dt	c #96735F",
"et	c #9C7862",
"ft	c #AD856C",
"gt	c #B2896D",
"ht	c #BC8F72",
"it	c #BB8A6A",
"jt	c #C69473",
"kt	c #CC9777",
"lt	c #DEA683",
"mt	c #E2A785",
"nt	c #E6B08E",
"ot	c #F0C1A3",
"pt	c #DFB9A2",
"qt	c #6A5345",
"rt	c #5D4E4A",
"st	c #68594D",
"tt	c #665041",
"ut	c #7E6151",
"vt	c #876A58",
"wt	c #896C5C",
"xt	c #997662",
"yt	c #AB8266",
"zt	c #BB8E6F",
"At	c #C29170",
"Bt	c #C99776",
"Ct	c #CD9775",
"Dt	c #DEA381",
"Et	c #F0BFA1",
"Ft	c #DDB5A0",
"Gt	c #514030",
"Ht	c #58473D",
"It	c #645145",
"Jt	c #856858",
"Kt	c #876A5A",
"Lt	c #8D6E5C",
"Mt	c #95725E",
"Nt	c #AC8365",
"Ot	c #AF8265",
"Pt	c #BE8F71",
"Qt	c #C19070",
"Rt	c #D8A280",
"St	c #D9A180",
"Tt	c #E9AD88",
"Ut	c #ECB491",
"Vt	c #E9B89E",
"Wt	c #4D3C2C",
"Xt	c #5C5248",
"Yt	c #605147",
"Zt	c #755B4A",
"`t	c #7A5F4C",
" u	c #7F6451",
".u	c #8B6A57",
"+u	c #91715C",
"@u	c #9B7663",
"#u	c #AE846E",
"$u	c #B88A70",
"%u	c #C49375",
"&u	c #CB9879",
"*u	c #D49F7F",
"=u	c #DAA27F",
"-u	c #E4A57C",
";u	c #EBAD84",
">u	c #EAB492",
",u	c #F1C3AA",
"'u	c #4F3E2E",
")u	c #675757",
"!u	c #5A4F47",
"~u	c #775E4A",
"{u	c #7C614C",
"]u	c #94715E",
"^u	c #977461",
"/u	c #9D7865",
"(u	c #A17C69",
"_u	c #AD846E",
":u	c #B48770",
"<u	c #BA8C72",
"[u	c #BF9074",
"}u	c #C79678",
"|u	c #CE9B7C",
"1u	c #D59F7B",
"2u	c #E1A37A",
"3u	c #E4A57A",
"4u	c #EAAF8D",
"5u	c #E3B093",
"6u	c #E8BCAD",
"7u	c #5A4F48",
"8u	c #615046",
"9u	c #745B47",
"0u	c #785D48",
"au	c #896A56",
"bu	c #8D6C59",
"cu	c #A47E69",
"du	c #A9806A",
"eu	c #B0836C",
"fu	c #B6886E",
"gu	c #BB8C70",
"hu	c #C19274",
"iu	c #C99878",
"ju	c #CE9C79",
"ku	c #D6A179",
"lu	c #DEA47C",
"mu	c #EAAF91",
"nu	c #EDB9A3",
"ou	c #E1B7A7",
"pu	c #57443A",
"qu	c #63574F",
"ru	c #5B4F44",
"su	c #715844",
"tu	c #7E5F4A",
"uu	c #987561",
"vu	c #A07B68",
"wu	c #AB8169",
"xu	c #C29375",
"yu	c #C89776",
"zu	c #D09E79",
"Au	c #D59F79",
"Bu	c #E0A482",
"Cu	c #E3A785",
"Du	c #E9AD91",
"Eu	c #EABDA3",
"Fu	c #D1B19B",
"Gu	c #5A483C",
"Hu	c #5B4C46",
"Iu	c #55402F",
"Ju	c #80644F",
"Ku	c #8A6B59",
"Lu	c #906F5C",
"Mu	c #B2866B",
"Nu	c #B88B6E",
"Ou	c #BD9071",
"Pu	c #C29473",
"Qu	c #C79978",
"Ru	c #D2A07D",
"Su	c #D49977",
"Tu	c #E0A47F",
"Uu	c #EAAB88",
"Vu	c #EFC1A6",
"Wu	c #C1A18C",
"Xu	c #5E534C",
"Yu	c #5C524C",
"Zu	c #5F4E46",
"`u	c #8D6E5A",
" v	c #A77F66",
".v	c #B98D70",
"+v	c #BD9073",
"@v	c #C29377",
"#v	c #CE9D7D",
"$v	c #CE9874",
"%v	c #E0A680",
"&v	c #DA9F77",
"*v	c #E5AB85",
"=v	c #ECBEA4",
"-v	c #B79A86",
";v	c #56443A",
">v	c #5E5147",
",v	c #5C4942",
"'v	c #6F5642",
")v	c #7C614E",
"!v	c #876B56",
"~v	c #8A6B57",
"{v	c #A17C62",
"]v	c #AE8569",
"^v	c #C39178",
"/v	c #D3A281",
"(v	c #CB9A72",
"_v	c #D7A278",
":v	c #DBA179",
"<v	c #EDAE8B",
"[v	c #EDB294",
"}v	c #EDBDA8",
"|v	c #594A46",
"1v	c #5B4F4B",
"2v	c #604E44",
"3v	c #725945",
"4v	c #755C48",
"5v	c #846755",
"6v	c #A37E64",
"7v	c #AA8268",
"8v	c #AF876D",
"9v	c #B68A71",
"0v	c #C08974",
"av	c #CC967E",
"bv	c #C89C77",
"cv	c #D7A67E",
"dv	c #DDA67F",
"ev	c #E5A17E",
"fv	c #EFAA8B",
"gv	c #F6B69D",
"hv	c #F0C1A9",
"iv	c #6B5444",
"jv	c #6D5644",
"kv	c #6F5846",
"lv	c #745A49",
"mv	c #765C4B",
"nv	c #79604C",
"ov	c #7D624F",
"pv	c #846853",
"qv	c #8B6C57",
"rv	c #BE8772",
"sv	c #C28C74",
"tv	c #C09477",
"uv	c #C39A7A",
"vv	c #CA9E7B",
"wv	c #D6A07E",
"xv	c #E4A280",
"yv	c #ECA383",
"zv	c #F4AF92",
"Av	c #F1B89B",
"Bv	c #DDBAA1",
"Cv	c #5B504E",
"Dv	c #6C5545",
"Ev	c #775D4C",
"Fv	c #826651",
"Gv	c #92725B",
"Hv	c #98755F",
"Iv	c #A7816A",
"Jv	c #AC826A",
"Kv	c #B9856F",
"Lv	c #BD8973",
"Mv	c #C0977B",
"Nv	c #C69A7D",
"Ov	c #CF9C7D",
"Pv	c #DE9F80",
"Qv	c #E7A082",
"Rv	c #ECA585",
"Sv	c #F4B596",
"Tv	c #E6B99C",
"Uv	c #C7AB91",
"Vv	c #675143",
"Wv	c #654F41",
"Xv	c #58473F",
"Yv	c #645852",
"Zv	c #6D5646",
"`v	c #715A48",
" w	c #7B604D",
".w	c #836752",
"+w	c #8A6B56",
"@w	c #8E6E57",
"#w	c #9A7761",
"$w	c #B6866F",
"%w	c #BD9079",
"&w	c #C2947D",
"*w	c #CA987F",
"=w	c #D49B7E",
"-w	c #E1A27F",
";w	c #EBB294",
">w	c #ECC0A6",
",w	c #665042",
"'w	c #574539",
")w	c #6E5747",
"!w	c #785E4D",
"~w	c #896A55",
"{w	c #B58770",
"]w	c #BA8B77",
"^w	c #BF8F7B",
"/w	c #C6947D",
"(w	c #CC997E",
"_w	c #D39C7D",
":w	c #E1A581",
"<w	c #EAAB8A",
"[w	c #ECB398",
"}w	c #E7B8A8",
"|w	c #5A483D",
"1w	c #5E5650",
"2w	c #A17D63",
"3w	c #A68167",
"4w	c #B0836E",
"5w	c #BB8B75",
"6w	c #C29079",
"7w	c #C6977B",
"8w	c #CC9B7B",
"9w	c #E1A782",
"0w	c #E4A383",
"aw	c #E8A88C",
"bw	c #EBB49F",
"cw	c #E4B8A6",
"dw	c #534334",
"ew	c #594E3E",
"fw	c #5E4F47",
"gw	c #9F7D64",
"hw	c #B88872",
"iw	c #C39478",
"jw	c #DDA582",
"kw	c #E2A286",
"lw	c #E7AB91",
"mw	c #EEBAA4",
"nw	c #D8AE98",
"ow	c #554739",
"pw	c #62554C",
"qw	c #8D6A57",
"rw	c #96765F",
"sw	c #9C7A61",
"tw	c #AE816A",
"uw	c #BF9072",
"vw	c #C59474",
"ww	c #CF9977",
"xw	c #D99E80",
"yw	c #E3A88A",
"zw	c #E1A88B",
"Aw	c #F8C1A4",
"Bw	c #CBA590",
"Cw	c #574C42",
"Dw	c #615653",
"Ew	c #94745F",
"Fw	c #B5886B",
"Gw	c #C19072",
"Hw	c #CD9878",
"Iw	c #D19A7B",
"Jw	c #D99E7E",
"Kw	c #E8AD8D",
"Lw	c #EDB290",
"Mw	c #ECBDA3",
"Nw	c #4E3B2A",
"Ow	c #5F5954",
"Pw	c #5C4F47",
"Qw	c #45372C",
"Rw	c #95725C",
"Sw	c #AD836A",
"Tw	c #B58970",
"Uw	c #B98C6F",
"Vw	c #C29173",
"Ww	c #C89576",
"Xw	c #DA9F7F",
"Yw	c #DFA283",
"Zw	c #E7AB89",
"`w	c #EFB698",
" x	c #E6BDA5",
".x	c #554335",
"+x	c #554B40",
"@x	c #5F5752",
"#x	c #5D5148",
"$x	c #44362B",
"%x	c #BC8D71",
"&x	c #D79C7C",
"*x	c #DB9E7F",
"=x	c #E6AE8D",
"-x	c #E9B899",
";x	c #D9B29B",
">x	c #4F3A29",
",x	c #584638",
"'x	c #5D5349",
")x	c #5E5047",
"!x	c #AA8068",
"~x	c #B1856A",
"{x	c #BC8D6F",
"]x	c #DB9F7D",
"^x	c #E4B395",
"/x	c #D8B3A0",
"(x	c #4D3A29",
"_x	c #57473A",
":x	c #57493C",
"<x	c #63534B",
"[x	c #C69172",
"}x	c #CF9879",
"|x	c #D69B7B",
"1x	c #DEA88C",
"2x	c #E1AD95",
"3x	c #F0BCA7",
"4x	c #DBB09D",
"5x	c #61534A",
"6x	c #C89373",
"7x	c #CC9576",
"8x	c #D69D7F",
"9x	c #DBA285",
"0x	c #DFA387",
"ax	c #F1B196",
"bx	c #F2B8A0",
"cx	c #54443D",
"dx	c #63554C",
"ex	c #8D6D58",
"fx	c #98745C",
"gx	c #AE8267",
"hx	c #B98A6C",
"ix	c #D49B7D",
"jx	c #D89B7E",
"kx	c #EAA98B",
"lx	c #EBAE8F",
"mx	c #ECBEA0",
"nx	c #5C4F45",
"ox	c #665A53",
"px	c #886954",
"qx	c #8B6B54",
"rx	c #A17C61",
"sx	c #A88164",
"tx	c #C29171",
"ux	c #C79475",
"vx	c #DA997B",
"wx	c #E19F7F",
"xx	c #E4A480",
"yx	c #E3A782",
"zx	c #EFBA98",
"Ax	c #E5BBA2",
"Bx	c #AC8367",
"Cx	c #BA8D70",
"Dx	c #CD9677",
"Ex	c #DE9D7F",
"Fx	c #D59371",
"Gx	c #DEA07B",
"Hx	c #DFA784",
"Ix	c #EFBC9E",
"Jx	c #DDB7A4",
"Kx	c #554A44",
"Lx	c #5D4B41",
"Mx	c #AD8468",
"Nx	c #BB8E71",
"Ox	c #C69374",
"Px	c #D89976",
"Qx	c #D69E79",
"Rx	c #D6A07C",
"Sx	c #EEB69B",
"Tx	c #E6B39C",
"Ux	c #C69F8E",
"Vx	c #53433A",
"Wx	c #5A4E43",
"Xx	c #B88C71",
"Yx	c #C78F6C",
"Zx	c #D09873",
"`x	c #D7A280",
" y	c #D7A282",
".y	c #DAA183",
"+y	c #E3AA8D",
"@y	c #ECB29A",
"#y	c #E8B7A0",
"$y	c #8A6A55",
"%y	c #8D6D56",
"&y	c #B3876E",
"*y	c #C89673",
"=y	c #CC997A",
"-y	c #D29C80",
";y	c #D79F84",
">y	c #E7AB8F",
",y	c #EFB79E",
"'y	c #E9B6A1",
")y	c #56483B",
"!y	c #BE9371",
"~y	c #C19572",
"{y	c #CD977D",
"]y	c #D7A185",
"^y	c #D9A284",
"/y	c #DDA282",
"(y	c #E5AA8C",
"_y	c #F8BCA4",
":y	c #DFAC9F",
"<y	c #57493F",
"[y	c #B0896A",
"}y	c #BD9174",
"|y	c #C69479",
"1y	c #CA977C",
"2y	c #D39D81",
"3y	c #D59E7F",
"4y	c #E5AA88",
"5y	c #EDB093",
"6y	c #ECB49D",
"7y	c #D3AA9B",
"8y	c #564637",
"9y	c #C09177",
"0y	c #C59277",
"ay	c #CB9677",
"by	c #D19B79",
"cy	c #D9A17E",
"dy	c #E2A883",
"ey	c #F2B99B",
"fy	c #59483D",
"gy	c #615144",
"hy	c #AC816E",
"iy	c #AF826B",
"jy	c #B5876D",
"ky	c #D59D78",
"ly	c #DDA781",
"my	c #E8B48F",
"ny	c #E4B28F",
"oy	c #EEC0A2",
"py	c #59463C",
"qy	c #625046",
"ry	c #A27965",
"sy	c #AA7C6C",
"ty	c #BC8F70",
"uy	c #C89270",
"vy	c #D8A27C",
"wy	c #DDA982",
"xy	c #E9B38D",
"yy	c #E9B697",
"zy	c #E6BBA6",
"Ay	c #50463B",
"By	c #563F2D",
"Cy	c #A57767",
"Dy	c #AA7B69",
"Ey	c #BC8E6D",
"Fy	c #C49372",
"Gy	c #D39D79",
"Hy	c #D19974",
"Iy	c #E1A984",
"Jy	c #E2AA89",
"Ky	c #E5B091",
"Ly	c #DDB7A0",
"My	c #523F2E",
"Ny	c #564436",
"Oy	c #4F4337",
"Py	c #574F48",
"Qy	c #5D5350",
"Ry	c #9F7463",
"Sy	c #A57865",
"Ty	c #A97F69",
"Uy	c #B68A6D",
"Vy	c #BD906F",
"Wy	c #C69672",
"Xy	c #CD9974",
"Yy	c #D79C7A",
"Zy	c #DCA483",
"`y	c #E1AA8C",
" z	c #E6B499",
".z	c #EABBA0",
"+z	c #BD9580",
"@z	c #514239",
"#z	c #5E4D46",
"$z	c #57402E",
"%z	c #98725F",
"&z	c #AE8768",
"*z	c #B78C6C",
"=z	c #BF916F",
"-z	c #C69471",
";z	c #DEA385",
">z	c #E0A78A",
",z	c #E4AE92",
"'z	c #E5B39A",
")z	c #E9BBA4",
"!z	c #5F514A",
"~z	c #605249",
"{z	c #936E5B",
"]z	c #A98467",
"^z	c #B98E6C",
"/z	c #DCA084",
"(z	c #E5AC91",
"_z	c #DDA78D",
":z	c #F2BCA6",
"<z	c #DCB39D",
"[z	c #4C3E35",
"}z	c #65564F",
"|z	c #907059",
"1z	c #96765D",
"2z	c #9C7D61",
"3z	c #A38165",
"4z	c #AB8669",
"5z	c #B48B6D",
"6z	c #CE9779",
"7z	c #D19579",
"8z	c #D5987C",
"9z	c #E1A589",
"0z	c #E2A68C",
"az	c #E8AF94",
"bz	c #F0BEA5",
"cz	c #CAA592",
"dz	c #574A41",
"ez	c #645349",
"fz	c #A48165",
"gz	c #B5896C",
"hz	c #D0977A",
"iz	c #D5997D",
"jz	c #D4977B",
"kz	c #E7A78B",
"lz	c #EAB196",
"mz	c #EAB99F",
"nz	c #564840",
"oz	c #65594F",
"pz	c #8E6E55",
"qz	c #9E7C61",
"rz	c #BF8D72",
"sz	c #D0987D",
"tz	c #D2997C",
"uz	c #CF9275",
"vz	c #DFA081",
"wz	c #E5A486",
"xz	c #E7AA8B",
"yz	c #E7B091",
"zz	c #EFC3A8",
"Az	c #7C5D48",
"Bz	c #8A684F",
"Cz	c #917158",
"Dz	c #A98168",
"Ez	c #C08D70",
"Fz	c #C79071",
"Gz	c #D39878",
"Hz	c #DF9E7E",
"Iz	c #EAAA87",
"Jz	c #EEB290",
"Kz	c #E7B495",
"Lz	c #DEB8A1",
"Mz	c #5C524D",
"Nz	c #B2886F",
"Oz	c #E9B190",
"Pz	c #ECBB9F",
"Qz	c #DAB4A3",
"Rz	c #4F4640",
"Sz	c #B48B6F",
"Tz	c #C19371",
"Uz	c #D89C78",
"Vz	c #E5A782",
"Wz	c #E9AF8A",
"Xz	c #E8B192",
"Yz	c #EABEA4",
"Zz	c #BF9E8A",
"`z	c #55483F",
" A	c #564D4B",
".A	c #AD856B",
"+A	c #B18A6B",
"@A	c #B88F6F",
"#A	c #BF9370",
"$A	c #CD9773",
"%A	c #D59B76",
"&A	c #DA9E7A",
"*A	c #DD9E7B",
"=A	c #EAAE8A",
"-A	c #E6AA88",
";A	c #EABEA3",
">A	c #53443E",
",A	c #785C47",
"'A	c #936A56",
")A	c #996E5B",
"!A	c #AC8568",
"~A	c #C59473",
"{A	c #CC9775",
"]A	c #D89E79",
"^A	c #DC9D7A",
"/A	c #E9AB86",
"(A	c #E8AD8B",
"_A	c #F0BB9E",
":A	c #DDB69F",
"<A	c #564C47",
"[A	c #5B4C40",
"}A	c #976E5A",
"|A	c #A98167",
"1A	c #D99E7C",
"2A	c #ECAC88",
"3A	c #EBB390",
"4A	c #E7B798",
"5A	c #594637",
"6A	c #52463B",
"7A	c #765B46",
"8A	c #A47A61",
"9A	c #AD8466",
"0A	c #B08968",
"aA	c #B78F6C",
"bA	c #BD9270",
"cA	c #CB9676",
"dA	c #E3A380",
"eA	c #EBAB87",
"fA	c #EDB18C",
"gA	c #E8B290",
"hA	c #F5C7AA",
"iA	c #5C5043",
"jA	c #6C5B56",
"kA	c #604C42",
"lA	c #755A45",
"mA	c #7A5F4A",
"nA	c #946B57",
"oA	c #B08767",
"pA	c #B78C6A",
"qA	c #BC8F6E",
"rA	c #C39170",
"sA	c #D4997B",
"tA	c #DE9F7E",
"uA	c #EBAD88",
"vA	c #F0B28D",
"wA	c #F3B994",
"xA	c #EEB997",
"yA	c #E5BC9E",
"zA	c #524035",
"AA	c #6A6155",
"BA	c #B08565",
"CA	c #B58A6A",
"DA	c #BB8D6C",
"EA	c #C2906F",
"FA	c #D09779",
"GA	c #DDA17F",
"HA	c #E4A884",
"IA	c #EEAF8C",
"JA	c #F2B28C",
"KA	c #F6BA95",
"LA	c #F3C1A0",
"MA	c #DCB6A0",
"NA	c #70513C",
"OA	c #6B4F39",
"PA	c #604530",
"QA	c #4E453E",
"RA	c #594A42",
"SA	c #624E43",
"TA	c #69503C",
"UA	c #6E533E",
"VA	c #735742",
"WA	c #976E58",
"XA	c #A67A61",
"YA	c #A97D60",
"ZA	c #C08F6F",
"`A	c #C49271",
" B	c #CA9575",
".B	c #DBA380",
"+B	c #E2AA87",
"@B	c #E7AD88",
"#B	c #EEAE88",
"$B	c #F3B28A",
"%B	c #FBB88E",
"&B	c #FBBD98",
"*B	c #F8C1A3",
"=B	c #77573E",
"-B	c #70523A",
";B	c #6C503A",
">B	c #4D3626",
",B	c #453325",
"'B	c #705540",
")B	c #87614E",
"!B	c #BF8C6D",
"~B	c #CF9A78",
"{B	c #D8A07D",
"]B	c #E9AD89",
"^B	c #EFAF89",
"/B	c #F7B289",
"(B	c #FEB78D",
"_B	c #FFBB94",
":B	c #F8BC9A",
"<B	c #E9B9A2",
"[B	c #906C52",
"}B	c #6F5139",
"|B	c #694D37",
"1B	c #644934",
"2B	c #4E3928",
"3B	c #504543",
"4B	c #665A54",
"5B	c #865D47",
"6B	c #996D54",
"7B	c #A0725A",
"8B	c #B98667",
"9B	c #D59D7C",
"0B	c #DEA280",
"aB	c #E4A582",
"bB	c #E9AA87",
"cB	c #EFAF8C",
"dB	c #F4B08B",
"eB	c #F9B18B",
"fB	c #FEB48D",
"gB	c #FDB891",
"hB	c #FCBD9C",
"iB	c #F2C0A5",
"jB	c #D3AFA0",
"kB	c #8B684C",
"lB	c #76563D",
"mB	c #6D4E39",
"nB	c #654933",
"oB	c #55443E",
"pB	c #A0745B",
"qB	c #B5836A",
"rB	c #C8906F",
"sB	c #D19978",
"tB	c #D89C7A",
"uB	c #E1A17E",
"vB	c #E6A481",
"wB	c #EDA986",
"xB	c #F2AC8A",
"yB	c #F6AD8A",
"zB	c #F8B08A",
"AB	c #FBB38D",
"BB	c #FBB591",
"CB	c #FBBB98",
"DB	c #F4BD9F",
"EB	c #EDC5AB",
"FB	c #B69587",
"GB	c #73533A",
"HB	c #6C4D38",
"IB	c #664A34",
"JB	c #583F2B",
"KB	c #543E29",
"LB	c #533C2A",
"MB	c #574943",
"NB	c #62524D",
"OB	c #B68870",
"PB	c #BD8B72",
"QB	c #CC997C",
"RB	c #D09A7E",
"SB	c #D29D7E",
"TB	c #D39C7E",
"UB	c #D49D7E",
"VB	c #D59C7E",
"WB	c #DBA07E",
"XB	c #E9A37F",
"YB	c #EFA683",
"ZB	c #F3A986",
"`B	c #F6AC87",
" C	c #FBB28F",
".C	c #FBB593",
"+C	c #FAB895",
"@C	c #FCC09E",
"#C	c #F2BD9E",
"$C	c #E9C1A7",
"%C	c #DAA583",
"&C	c #A97B5A",
"*C	c #90674B",
"=C	c #7A563E",
"-C	c #725239",
";C	c #634731",
">C	c #5F432E",
",C	c #5B402B",
"'C	c #5A3F2A",
")C	c #59402C",
"!C	c #695954",
"~C	c #CB987D",
"{C	c #D19B7F",
"]C	c #D5A081",
"^C	c #D7A283",
"/C	c #DAA385",
"(C	c #DCA587",
"_C	c #DDA486",
":C	c #E0A587",
"<C	c #E1A686",
"[C	c #E4A788",
"}C	c #EBAC89",
"|C	c #EFAF8B",
"1C	c #F2AC88",
"2C	c #F5AD87",
"3C	c #F7AD88",
"4C	c #F8AE89",
"5C	c #F9AF8A",
"6C	c #F9B08D",
"7C	c #F9B391",
"8C	c #F9B592",
"9C	c #FDB996",
"0C	c #F7B793",
"aC	c #FEBF9C",
"bC	c #F4BF9F",
"cC	c #E9C2A8",
"dC	c #EDB38E",
"eC	c #E5AD8A",
"fC	c #B58464",
"gC	c #A37456",
"hC	c #94684B",
"iC	c #8D634A",
"jC	c #845C42",
"kC	c #78543C",
"lC	c #735138",
"mC	c #6F4F38",
"nC	c #654631",
"oC	c #5B4A3E",
"pC	c #BE9076",
"qC	c #CD9C7E",
"rC	c #D7A082",
"sC	c #DDA284",
"tC	c #E0A585",
"uC	c #E3A888",
"vC	c #E5AA8A",
"wC	c #E6A98A",
"xC	c #E4A886",
"yC	c #E9AD8B",
"zC	c #EDAE8D",
"AC	c #F0B18E",
"BC	c #F2B390",
"CC	c #F5B591",
"DC	c #F9B794",
"EC	c #FEB894",
"FC	c #FFB892",
"GC	c #FFB68F",
"HC	c #FFB58E",
"IC	c #FDB58F",
"JC	c #FAB490",
"KC	c #F7B593",
"LC	c #F6B492",
"MC	c #FCB893",
"NC	c #FAB78D",
"OC	c #FFBB91",
"PC	c #FDBF96",
"QC	c #F5C5A3",
"RC	c #EDAD89",
"SC	c #ECAD8A",
"TC	c #ECB18F",
"UC	c #A37156",
"VC	c #95684B",
"WC	c #8A5E45",
"XC	c #825C45",
"YC	c #755139",
"ZC	c #6D4A34",
"`C	c #61422E",
" D	c #5F5146",
".D	c #655951",
"+D	c #625147",
"@D	c #553B2A",
"#D	c #D4A182",
"$D	c #E1AA8B",
"%D	c #E4A989",
"&D	c #EFB08F",
"*D	c #F3B491",
"=D	c #F4B393",
"-D	c #F3B390",
";D	c #F4B490",
">D	c #F5B592",
",D	c #F6B692",
"'D	c #F7B592",
")D	c #F8B693",
"!D	c #F9B892",
"~D	c #FCB891",
"{D	c #FCB98F",
"]D	c #FDB88E",
"^D	c #FAB993",
"/D	c #F7B895",
"(D	c #FAB68F",
"_D	c #FFBC8C",
":D	c #FFBC8F",
"<D	c #FCBE99",
"[D	c #F8C9AD",
"}D	c #EFA985",
"|D	c #EDA984",
"1D	c #ECA883",
"2D	c #EAA885",
"3D	c #EAAA86",
"4D	c #E8AC8A",
"5D	c #E4AC8B",
"6D	c #DFA88A",
"7D	c #AB795E",
"8D	c #98694D",
"9D	c #94664E",
"0D	c #956950",
"aD	c #8E614A",
"bD	c #825943",
"cD	c #73533C",
"dD	c #674B35",
"eD	c #53473C",
"fD	c #5C4E47",
"gD	c #463426",
"hD	c #5A442F",
"iD	c #986C53",
"jD	c #AD7B60",
"kD	c #EDAD8A",
"lD	c #F1B18E",
"mD	c #F3B38F",
"nD	c #FBBA94",
"oD	c #FDBB98",
"pD	c #FEBD97",
"qD	c #FFBB96",
"rD	c #FEBA95",
"sD	c #FCBB95",
"tD	c #FBBC93",
"uD	c #FBBC91",
"vD	c #FDBD91",
"wD	c #FDBE93",
"xD	c #FCBE97",
"yD	c #F9BF9A",
"zD	c #FABE9A",
"AD	c #F4B38B",
"BD	c #FFB88C",
"CD	c #FFB786",
"DD	c #FFBC8B",
"ED	c #FEBD93",
"FD	c #FEC8A6",
"GD	c #E5BCA7",
"HD	c #EFA781",
"ID	c #EEA582",
"JD	c #ECA682",
"KD	c #ECA885",
"LD	c #E9A986",
"MD	c #E8A988",
"ND	c #E6AB8D",
"OD	c #C58F73",
"PD	c #9D6B50",
"QD	c #9A684F",
"RD	c #78583F",
"SD	c #6D4D36",
"TD	c #664830",
"UD	c #5F432D",
"VD	c #554A40",
"WD	c #645751",
"XD	c #523925",
"YD	c #563D29",
"ZD	c #664D37",
"`D	c #795D47",
" E	c #AB7A5C",
".E	c #B78465",
"+E	c #CB9476",
"@E	c #E4A987",
"#E	c #E6AA86",
"$E	c #E5A683",
"%E	c #E2A47F",
"&E	c #EDAB88",
"*E	c #EEAC89",
"=E	c #F0AE8B",
"-E	c #F2B08D",
";E	c #F3B18E",
">E	c #F5B390",
",E	c #FBB792",
"'E	c #FDB994",
")E	c #FFBC97",
"!E	c #FFBD98",
"~E	c #FFBE96",
"{E	c #FDC094",
"]E	c #FBC193",
"^E	c #FEBF93",
"/E	c #FBC094",
"(E	c #FAC098",
"_E	c #F9BF99",
":E	c #FABE99",
"<E	c #FFBE94",
"[E	c #FFBD8F",
"}E	c #FFB584",
"|E	c #FFB887",
"1E	c #FDC19D",
"2E	c #F6C7AD",
"3E	c #CAAB97",
"4E	c #EEA47F",
"5E	c #EDA57F",
"6E	c #ECA380",
"7E	c #EAA480",
"8E	c #EBA583",
"9E	c #EAA683",
"0E	c #E7A583",
"aE	c #E6A683",
"bE	c #E7A887",
"cE	c #E4A98B",
"dE	c #B77F64",
"eE	c #A67358",
"fE	c #996D52",
"gE	c #845F44",
"hE	c #7A563C",
"iE	c #6D4B32",
"jE	c #443427",
"kE	c #4F423C",
"lE	c #7B5D45",
"mE	c #8E6C51",
"nE	c #C79273",
"oE	c #D8A07F",
"pE	c #DEA383",
"qE	c #E6A682",
"rE	c #EEAD87",
"sE	c #F1AD88",
"tE	c #F3AF8A",
"uE	c #F5B18C",
"vE	c #F6B28D",
"wE	c #F8B48F",
"xE	c #F9B590",
"yE	c #FCB790",
"zE	c #FEB992",
"AE	c #FFBA93",
"BE	c #FFBC95",
"CE	c #FFC296",
"DE	c #FDC395",
"EE	c #FDC296",
"FE	c #FBC297",
"GE	c #FBC199",
"HE	c #FCC199",
"IE	c #FFBF95",
"JE	c #FFBF92",
"KE	c #FFB788",
"LE	c #FFBB8B",
"ME	c #FEB98F",
"NE	c #F9BB94",
"OE	c #FEC7A8",
"PE	c #EEC6AB",
"QE	c #EBA27F",
"RE	c #E8A27E",
"SE	c #E2A07D",
"TE	c #E2A07E",
"UE	c #E1A281",
"VE	c #E0A384",
"WE	c #D79C7E",
"XE	c #B38262",
"YE	c #9C6F52",
"ZE	c #80583E",
"`E	c #6E4E37",
" F	c #433326",
".F	c #51453E",
"+F	c #5F4F47",
"@F	c #5C3F2D",
"#F	c #5E3F2B",
"$F	c #64442D",
"%F	c #6F4D34",
"&F	c #B88769",
"*F	c #BF8E70",
"=F	c #D09B7C",
"-F	c #D5A080",
";F	c #DCA586",
">F	c #E6A784",
",F	c #E7A582",
"'F	c #E8A683",
")F	c #EAA983",
"!F	c #EDAC86",
"~F	c #EEAA85",
"{F	c #EFAB86",
"]F	c #F0AC87",
"^F	c #F2AE89",
"/F	c #F7B28B",
"(F	c #F8B38C",
"_F	c #F9B48D",
":F	c #FAB58E",
"<F	c #FBB68F",
"[F	c #FEBB91",
"}F	c #FCC294",
"|F	c #FEC399",
"1F	c #FFC299",
"2F	c #FFC297",
"3F	c #FFBE91",
"4F	c #FFC194",
"5F	c #F8B892",
"6F	c #FBBF9B",
"7F	c #F8C7A9",
"8F	c #DEC0AA",
"9F	c #E8A481",
"0F	c #E6A27F",
"aF	c #E6A27D",
"bF	c #E5A17C",
"cF	c #E3A17E",
"dF	c #DD9C7C",
"eF	c #E0A182",
"fF	c #B37E5F",
"gF	c #A27153",
"hF	c #8C6249",
"iF	c #74513B",
"jF	c #453526",
"kF	c #605551",
"lF	c #5A4C41",
"mF	c #6E4A34",
"nF	c #744F35",
"oF	c #80563D",
"pF	c #C99677",
"qF	c #D0997A",
"rF	c #D9A283",
"sF	c #DBA284",
"tF	c #DFA381",
"uF	c #E9A784",
"vF	c #E9A882",
"wF	c #F6B28B",
"xF	c #F7B38C",
"yF	c #FDBA90",
"zF	c #FCBB91",
"AF	c #FCBD91",
"BF	c #FEC097",
"CF	c #FFC198",
"DF	c #FFC197",
"EF	c #FFC498",
"FF	c #FFC89C",
"GF	c #FFC398",
"HF	c #FBBD96",
"IF	c #F9C19E",
"JF	c #F5C9AC",
"KF	c #CFAF9C",
"LF	c #E4A481",
"MF	c #E3A37F",
"NF	c #E2A27E",
"OF	c #E3A27C",
"PF	c #E4A07B",
"QF	c #E29E79",
"RF	c #D99D7B",
"SF	c #AC795C",
"TF	c #9D6E52",
"UF	c #91674F",
"VF	c #7D5845",
"WF	c #4C3D39",
"XF	c #5F4F46",
"YF	c #604331",
"ZF	c #634432",
"`F	c #674430",
" G	c #6F4934",
".G	c #7D553C",
"+G	c #8E6249",
"@G	c #D29D7D",
"#G	c #E2A27F",
"$G	c #E8A781",
"%G	c #F4B089",
"&G	c #F5B18A",
"*G	c #F6B18A",
"=G	c #FCB78E",
"-G	c #FDB88F",
";G	c #FBBA92",
">G	c #FDBC94",
",G	c #FEBD95",
"'G	c #FFBE93",
")G	c #FFC095",
"!G	c #FFC69B",
"~G	c #FFC69E",
"{G	c #FEC49E",
"]G	c #FFC6A0",
"^G	c #FFC59D",
"/G	c #FBBD94",
"(G	c #F4C09B",
"_G	c #FDD1B2",
":G	c #BB9B81",
"<G	c #DFA37F",
"[G	c #DFA17C",
"}G	c #E0A07C",
"|G	c #E1A07A",
"1G	c #E09F79",
"2G	c #DF9E78",
"3G	c #DE9D77",
"4G	c #DD9C76",
"5G	c #DA9A76",
"6G	c #D99975",
"7G	c #DC9C78",
"8G	c #E1A17D",
"9G	c #D99774",
"0G	c #DD9B78",
"aG	c #D89B7C",
"bG	c #C58C6F",
"cG	c #B38063",
"dG	c #584A45",
"eG	c #685B54",
"fG	c #775240",
"gG	c #7A543F",
"hG	c #875D47",
"iG	c #C48E72",
"jG	c #D49979",
"kG	c #D59A7A",
"lG	c #DA9E7C",
"mG	c #DFA07F",
"nG	c #E3A282",
"oG	c #E5A484",
"pG	c #E7A783",
"qG	c #EBA986",
"rG	c #ECAA87",
"sG	c #F3AE87",
"tG	c #F4AF88",
"uG	c #F5B089",
"vG	c #FAB28A",
"wG	c #FEB38B",
"xG	c #FCB692",
"yG	c #FDB992",
"zG	c #FFBA91",
"AG	c #FFBB8F",
"BG	c #FFBB8D",
"CG	c #FEBB90",
"DG	c #FAC4A0",
"EG	c #F9C4A2",
"FG	c #FCC6A2",
"GG	c #FFC79F",
"HG	c #FFC294",
"IG	c #FEBE8E",
"JG	c #FEC195",
"KG	c #FDC9A2",
"LG	c #F0C6A9",
"MG	c #DDA17D",
"NG	c #DE9F7C",
"OG	c #DE9E7A",
"PG	c #DB9B75",
"QG	c #DF9F7B",
"RG	c #D79771",
"SG	c #DB9A74",
"TG	c #D99872",
"UG	c #AC7D63",
"VG	c #906A57",
"WG	c #52433E",
"XG	c #724F3B",
"YG	c #714E3A",
"ZG	c #744F3C",
"`G	c #916751",
" H	c #AD7E64",
".H	c #CB9579",
"+H	c #D09577",
"@H	c #D59977",
"#H	c #DB9C7B",
"$H	c #DA9B7A",
"%H	c #DE9E7B",
"&H	c #E0A07D",
"*H	c #E2A181",
"=H	c #F2AD86",
"-H	c #FCB18A",
";H	c #FDB28B",
">H	c #FCB390",
",H	c #FFB991",
"'H	c #FFB98E",
")H	c #F8C09B",
"!H	c #F6C09C",
"~H	c #F5BF99",
"{H	c #FEC49C",
"]H	c #FFC496",
"^H	c #FFC593",
"/H	c #FFC393",
"(H	c #F5BC91",
"_H	c #F9C7A5",
":H	c #E5C2A7",
"<H	c #DC9C79",
"[H	c #DA9C77",
"}H	c #D99B76",
"|H	c #D99B74",
"1H	c #D99973",
"2H	c #D7986F",
"3H	c #D4966F",
"4H	c #D69871",
"5H	c #D89C77",
"6H	c #C79270",
"7H	c #B48162",
"8H	c #463023",
"9H	c #544943",
"0H	c #645246",
"aH	c #775238",
"bH	c #785037",
"cH	c #7F553C",
"dH	c #CD9274",
"eH	c #D79B79",
"fH	c #DD9E7D",
"gH	c #E6A57F",
"hH	c #E7A680",
"iH	c #FAB08B",
"jH	c #FBB18C",
"kH	c #FCB48E",
"lH	c #FDB58D",
"mH	c #FFB88E",
"nH	c #FDBE95",
"oH	c #FCBE95",
"pH	c #FEBF94",
"qH	c #FFC094",
"rH	c #FFC193",
"sH	c #FFC595",
"tH	c #FFC89A",
"uH	c #F7C39C",
"vH	c #EFC4A4",
"wH	c #E4C3B0",
"xH	c #DA9B78",
"yH	c #D99A77",
"zH	c #D69A75",
"AH	c #D59A72",
"BH	c #D5976E",
"CH	c #C28C6A",
"DH	c #4D4038",
"EH	c #5F4D40",
"FH	c #75553E",
"GH	c #7E563D",
"HH	c #7F563A",
"IH	c #885C41",
"JH	c #BF8A6A",
"KH	c #C98E6E",
"LH	c #E5A47E",
"MH	c #FCB48C",
"NH	c #FEB68E",
"OH	c #FFB78F",
"PH	c #FEB990",
"QH	c #FFBC91",
"RH	c #FEBE92",
"SH	c #FFC195",
"TH	c #FFC092",
"UH	c #FFC295",
"VH	c #FDC69D",
"WH	c #FACAA6",
"XH	c #EFC9AB",
"YH	c #D59974",
"ZH	c #D39870",
"`H	c #D1966E",
" I	c #D19771",
".I	c #51423C",
"+I	c #5B4B40",
"@I	c #5A4738",
"#I	c #7D593F",
"$I	c #7D553B",
"%I	c #BB8C6E",
"&I	c #BA8C6B",
"*I	c #C38E6E",
"=I	c #C38D6B",
"-I	c #C78F6E",
";I	c #CC9375",
">I	c #D39677",
",I	c #D79A7B",
"'I	c #E4A37D",
")I	c #F0AB84",
"!I	c #F1AC85",
"~I	c #F7AF89",
"{I	c #FFBC92",
"]I	c #FFBD92",
"^I	c #FFC397",
"/I	c #FFC49A",
"(I	c #FAC49E",
"_I	c #ECBE9C",
":I	c #EFC8AD",
"<I	c #A68974",
"[I	c #D59975",
"}I	c #D39772",
"|I	c #D2976F",
"1I	c #D2946D",
"2I	c #D0926B",
"3I	c #CF916A",
"4I	c #CF9570",
"5I	c #CD9572",
"6I	c #C6916F",
"7I	c #A87F61",
"8I	c #B4886B",
"9I	c #B98C6D",
"0I	c #BB8968",
"aI	c #BD8B6A",
"bI	c #C48C6B",
"cI	c #CA9173",
"dI	c #D29576",
"eI	c #EBA782",
"fI	c #EDA881",
"gI	c #EEA982",
"hI	c #EFAA83",
"iI	c #F6AE88",
"jI	c #F9B189",
"kI	c #FBB38B",
"lI	c #FBB68D",
"mI	c #FFBA90",
"nI	c #FEBB8E",
"oI	c #FCBD92",
"pI	c #FFC69C",
"qI	c #FFCAA4",
"rI	c #FFD0AC",
"sI	c #F5CAAC",
"tI	c #E4BEA6",
"uI	c #C0A18D",
"vI	c #D49874",
"wI	c #D29671",
"xI	c #D0946F",
"yI	c #CF936E",
"zI	c #D1936E",
"AI	c #D0926D",
"BI	c #CF916C",
"CI	c #CE906B",
"DI	c #CB8F6B",
"EI	c #C98F6A",
"FI	c #C9916E",
"GI	c #C6906E",
"HI	c #5E4E47",
"II	c #59493C",
"JI	c #594230",
"KI	c #795D48",
"LI	c #967156",
"MI	c #A57E61",
"NI	c #B38868",
"OI	c #B18465",
"PI	c #B7886A",
"QI	c #C08B6B",
"RI	c #C89173",
"SI	c #C99274",
"TI	c #CB9274",
"UI	c #EAA681",
"VI	c #EDA783",
"WI	c #F4AC86",
"XI	c #F8B088",
"YI	c #FFB890",
"ZI	c #FCBC90",
"`I	c #F1B88D",
" J	c #FFCCA4",
".J	c #F9C9A5",
"+J	c #F5CAAA",
"@J	c #F0CBB2",
"#J	c #C7AB95",
"$J	c #D69776",
"%J	c #D29672",
"&J	c #CD916D",
"*J	c #CD8E6B",
"=J	c #CD8F6A",
"-J	c #C98D69",
";J	c #C88C68",
">J	c #C88D6B",
",J	c #C68E6B",
"'J	c #B78666",
")J	c #AD7E60",
"!J	c #8A654A",
"~J	c #5A3F2C",
"{J	c #89654B",
"]J	c #9F775D",
"^J	c #AA7F5F",
"/J	c #AF8263",
"(J	c #B38667",
"_J	c #BD8868",
":J	c #C48D6F",
"<J	c #E9A580",
"[J	c #EEA884",
"}J	c #F7AF87",
"|J	c #FFB98F",
"1J	c #FFCCA6",
"2J	c #F5C7A5",
"3J	c #F4CDB1",
"4J	c #E3C3AC",
"5J	c #AB9581",
"6J	c #D29674",
"7J	c #D09671",
"8J	c #CE946E",
"9J	c #CD936D",
"0J	c #CB8F6D",
"aJ	c #CA8E6A",
"bJ	c #C78B67",
"cJ	c #C68C67",
"dJ	c #C38B68",
"eJ	c #C48E6A",
"fJ	c #C38E6C",
"gJ	c #B88767",
"hJ	c #946B4F",
"iJ	c #846046",
"jJ	c #664B36",
"kJ	c #55463F",
"lJ	c #5F544C",
"mJ	c #593E2B",
"nJ	c #A37C5F",
"oJ	c #A77E60",
"pJ	c #B08261",
"qJ	c #B48665",
"rJ	c #B68565",
"sJ	c #BA8768",
"tJ	c #BD8A6B",
"uJ	c #C18B6F",
"vJ	c #C18E71",
"wJ	c #DB9B78",
"xJ	c #F0AA86",
"yJ	c #FAB28C",
"zJ	c #FCB28B",
"AJ	c #FFB790",
"BJ	c #FFBD90",
"CJ	c #FEB78B",
"DJ	c #FFB88A",
"EJ	c #FFC495",
"FJ	c #FFBE8E",
"GJ	c #FEBE90",
"HJ	c #F8BD91",
"IJ	c #FCC79F",
"JJ	c #F7C7A3",
"KJ	c #F2C9A9",
"LJ	c #F5D1B5",
"MJ	c #E5C7AF",
"NJ	c #D19573",
"OJ	c #CD936E",
"PJ	c #CC926C",
"QJ	c #C78B69",
"RJ	c #C58B66",
"SJ	c #BF8762",
"TJ	c #BF8965",
"UJ	c #C28D6B",
"VJ	c #B68463",
"WJ	c #A67857",
"XJ	c #9C7053",
"YJ	c #936C4F",
"ZJ	c #896449",
"`J	c #6A4E38",
" K	c #534641",
".K	c #645952",
"+K	c #573E2A",
"@K	c #9D755B",
"#K	c #A67D5F",
"$K	c #AF8160",
"%K	c #B28161",
"&K	c #BF8C6F",
"*K	c #C38E6F",
"=K	c #C68F71",
"-K	c #CB9070",
";K	c #CF9273",
">K	c #D09374",
",K	c #FDB38C",
"'K	c #FFBE90",
")K	c #FFB98B",
"!K	c #FFBE8F",
"~K	c #FBC49D",
"{K	c #F7C5A0",
"]K	c #F4C8A5",
"^K	c #F9D0B0",
"/K	c #F3CCAF",
"(K	c #D8BEA8",
"_K	c #D09573",
":K	c #CF9472",
"<K	c #C98E6C",
"[K	c #C78C6C",
"}K	c #C68B69",
"|K	c #C58A68",
"1K	c #C48967",
"2K	c #C28765",
"3K	c #BF8764",
"4K	c #BE8A65",
"5K	c #BA8865",
"6K	c #A37657",
"7K	c #916A4B",
"8K	c #896447",
"9K	c #79573E",
"0K	c #54473E",
"aK	c #A57859",
"bK	c #A77A5B",
"cK	c #A87B5C",
"dK	c #B68567",
"eK	c #E8A47F",
"fK	c #FBC096",
"gK	c #FAC39A",
"hK	c #FAC69E",
"iK	c #FBC7A0",
"jK	c #F6C9A8",
"kK	c #EFCFBC",
"lK	c #CE9371",
"mK	c #CD9270",
"nK	c #CC926D",
"oK	c #C68B6B",
"pK	c #C58A6A",
"qK	c #C18966",
"rK	c #C08865",
"sK	c #BC8662",
"tK	c #BA8661",
"uK	c #A97C5B",
"vK	c #7B593E",
"wK	c #74543D",
"xK	c #5E4531",
"yK	c #594843",
"zK	c #62534C",
"AK	c #59473B",
"BK	c #A47758",
"CK	c #AD7F5E",
"DK	c #BB8A6C",
"EK	c #BE8B6E",
"FK	c #C08D6E",
"GK	c #E7A37E",
"HK	c #FEBF96",
"IK	c #FFC396",
"JK	c #FFC497",
"KK	c #F5C4A3",
"LK	c #FFD5B9",
"MK	c #E4C2AA",
"NK	c #A68A7B",
"OK	c #C78F6A",
"PK	c #C58D6C",
"QK	c #C28A69",
"RK	c #C18968",
"SK	c #BF8967",
"TK	c #BE8866",
"UK	c #BD8765",
"VK	c #BB8664",
"WK	c #BA8563",
"XK	c #B88361",
"YK	c #B88663",
"ZK	c #B68564",
"`K	c #684C37",
" L	c #655750",
".L	c #9A7155",
"+L	c #AA7C5B",
"@L	c #B48567",
"#L	c #FEBA93",
"$L	c #FCBB93",
"%L	c #FCBC96",
"&L	c #FDBF98",
"*L	c #FFBF93",
"=L	c #FFBF90",
"-L	c #FFC08F",
";L	c #FFC290",
">L	c #FDC298",
",L	c #FFCEA9",
"'L	c #F9CCAC",
")L	c #CCAA91",
"!L	c #CE9375",
"~L	c #C8906D",
"{L	c #C48C69",
"]L	c #B58360",
"^L	c #A07457",
"/L	c #825E44",
"(L	c #5F4E49",
"_L	c #9F7253",
":L	c #AB7C5E",
"<L	c #E09E7B",
"[L	c #EBA581",
"}L	c #ECA780",
"|L	c #FDB68C",
"1L	c #FCB78D",
"2L	c #FBBB95",
"3L	c #FFBF8E",
"4L	c #FFBF8C",
"5L	c #FFBF8D",
"6L	c #FFC591",
"7L	c #FFC28E",
"8L	c #F7C29A",
"9L	c #F8CCA9",
"0L	c #EECBB2",
"aL	c #C08A66",
"bL	c #BD8866",
"cL	c #B98764",
"dL	c #B28160",
"eL	c #B07F5E",
"fL	c #866248",
"gL	c #5C4E4A",
"hL	c #625750",
"iL	c #996D50",
"jL	c #A77958",
"kL	c #D09472",
"lL	c #D59675",
"mL	c #DE9C79",
"nL	c #E29E7B",
"oL	c #E39F7C",
"pL	c #E39F7A",
"qL	c #EBA67F",
"rL	c #F9B48B",
"sL	c #FFC38F",
"tL	c #FFC599",
"uL	c #F9C59E",
"vL	c #FACFAA",
"wL	c #F0CDB1",
"xL	c #DEC4AA",
"yL	c #CB9072",
"zL	c #BD8964",
"AL	c #B48362",
"BL	c #53443B",
"CL	c #584B47",
"DL	c #856147",
"EL	c #91684C",
"FL	c #986C4F",
"GL	c #9D7154",
"HL	c #CF9371",
"IL	c #E19D7A",
"JL	c #E7A17D",
"KL	c #F8B38A",
"LL	c #FFBF94",
"ML	c #FFBC8D",
"NL	c #FFC090",
"OL	c #FFC597",
"PL	c #FCC69A",
"QL	c #FDCCA3",
"RL	c #FACEA7",
"SL	c #F2CAA6",
"TL	c #F3CDAF",
"UL	c #E0BEA0",
"VL	c #C28A67",
"WL	c #BF8963",
"XL	c #BE8A63",
"YL	c #BB8762",
"ZL	c #AC7D5F",
"`L	c #A57857",
" M	c #5C4F48",
".M	c #5F5450",
"+M	c #59473D",
"@M	c #8F664A",
"#M	c #9F7356",
"$M	c #B08163",
"%M	c #B88665",
"&M	c #BC8A69",
"*M	c #D19271",
"=M	c #D29372",
"-M	c #DA9A77",
";M	c #E6A07C",
">M	c #EDA982",
",M	c #EEAA83",
"'M	c #EFAB84",
")M	c #F0AC85",
"!M	c #F1AD86",
"~M	c #F2AE87",
"{M	c #F3AF88",
"]M	c #F5B288",
"^M	c #FBB48A",
"/M	c #FCB589",
"(M	c #FFB78A",
"_M	c #FFB88B",
":M	c #FFB989",
"<M	c #FFBA8C",
"[M	c #FFBB8E",
"}M	c #FBC098",
"|M	c #FCC29A",
"1M	c #FEC89C",
"2M	c #FDC79B",
"3M	c #F7C296",
"4M	c #F9C498",
"5M	c #FFCEA1",
"6M	c #FDCCA1",
"7M	c #F7C69B",
"8M	c #CA8F71",
"9M	c #C58C6E",
"0M	c #C18B69",
"aM	c #BE8864",
"bM	c #B28463",
"cM	c #AB7E5F",
"dM	c #A37858",
"eM	c #5A483E",
"fM	c #6B615B",
"gM	c #625756",
"hM	c #55453E",
"iM	c #D09170",
"jM	c #D59673",
"kM	c #D69774",
"lM	c #D89875",
"mM	c #D99976",
"nM	c #DB9B77",
"oM	c #ECA881",
"pM	c #F4B187",
"qM	c #F6B188",
"rM	c #F8B187",
"sM	c #F9B286",
"tM	c #FCB388",
"uM	c #FEB58A",
"vM	c #FFB689",
"wM	c #FFB687",
"xM	c #FFB98D",
"yM	c #FDBD97",
"zM	c #FBBF9A",
"AM	c #F6BF98",
"BM	c #F9C29B",
"CM	c #F6BF96",
"DM	c #F7C195",
"EM	c #FFC79C",
"FM	c #FFC89B",
"GM	c #FEC697",
"HM	c #FFC998",
"IM	c #FFC99A",
"JM	c #FFCB9A",
"KM	c #C18A6B",
"LM	c #BC8767",
"MM	c #B68461",
"NM	c #8E6A50",
"OM	c #594F45",
"PM	c #E2A17B",
"QM	c #F5B087",
"RM	c #FAB389",
"SM	c #FCB58B",
"TM	c #FFB78E",
"UM	c #FFBB92",
"VM	c #FCBF93",
"WM	c #FCC195",
"XM	c #FFC69A",
"YM	c #8F6C50",
"ZM	c #645D53",
"`M	c #60544D",
" N	c #5B473A",
".N	c #FDBE92",
"+N	c #916E52",
"@N	c #52453C",
"#N	c #CC916F",
"$N	c #E1A17B",
"%N	c #F6AE86",
"&N	c #9A7356",
"*N	c #926E54",
"=N	c #584839",
"-N	c #5E4E44",
";N	c #A2745A",
">N	c #BA876A",
",N	c #DF9F79",
"'N	c #F4AC84",
")N	c #FFC196",
"!N	c #A2795B",
"~N	c #504138",
"{N	c #5C483B",
"]N	c #9E7259",
"^N	c #F3AB83",
"/N	c #F5AD85",
"(N	c #FDBA8D",
"_N	c #A47B5D",
":N	c #A0795C",
"<N	c #85634A",
"[N	c #5B4C44",
"}N	c #9B6F56",
"|N	c #9C7057",
"1N	c #F2AA84",
"2N	c #FDB98C",
"3N	c #FDBA8F",
"4N	c #A47B5F",
"5N	c #9F785B",
"6N	c #56453F",
"7N	c #63534D",
"8N	c #AB7F64",
"9N	c #D19674",
"0N	c #F2AD84",
"aN	c #F3AE85",
"bN	c #FEBA8D",
"cN	c #8B6950",
"dN	c #574941",
"eN	c #5A4D44",
"fN	c #F0AB82",
"gN	c #F1AC83",
"hN	c #F4AF86",
"iN	c #A17A5D",
"jN	c #5A493E",
"kN	c #665951",
"lN	c #5C4E48",
"mN	c #976D54",
"nN	c #C7916F",
"oN	c #DB9D78",
"pN	c #8D6B52",
"qN	c #655B5B",
"rN	c #9C775C",
"sN	c #9A755A",
"tN	c #5D493D",
"uN	c #594C46",
"vN	c #83634A",
"wN	c #9E795C",
"xN	c #9D785D",
"yN	c #967258",
"zN	c #947259",
"AN	c #615750",
"BN	c #544540",
"CN	c #EFAA81",
"DN	c #F2AA82",
"EN	c #99765A",
"FN	c #977458",
"GN	c #655A50",
"HN	c #785C46",
"IN	c #D59A78",
"JN	c #D99D79",
"KN	c #E8A77F",
"LN	c #E9A880",
"MN	c #EAA981",
"NN	c #EBA780",
"ON	c #EFA77F",
"PN	c #F0A880",
"QN	c #F1A981",
"RN	c #987559",
"SN	c #947257",
"TN	c #8F6F58",
"UN	c #886851",
"VN	c #5C514B",
"WN	c #765A45",
"XN	c #E6A57D",
"YN	c #E7A67E",
"ZN	c #EEA67E",
"`N	c #F3AB85",
" O	c #A27A60",
".O	c #937156",
"+O	c #72675F",
"@O	c #6C533F",
"#O	c #745843",
"$O	c #7A5B46",
"%O	c #B08469",
"&O	c #CF9776",
"*O	c #DA9E79",
"=O	c #E2A27C",
"-O	c #E3A37D",
";O	c #E9A57E",
">O	c #EAA67F",
",O	c #EBA67D",
"'O	c #64564B",
")O	c #6B523E",
"!O	c #936E53",
"~O	c #B38669",
"{O	c #E8A47D",
"]O	c #EDA57D",
"^O	c #F1A983",
"/O	c #B88A69",
"(O	c #8D6B50",
"_O	c #5A4A41",
":O	c #615753",
"<O	c #554940",
"[O	c #CA9374",
"}O	c #D69C77",
"|O	c #EAA57E",
"1O	c #977359",
"2O	c #896950",
"3O	c #624D3C",
"4O	c #65574C",
"5O	c #554743",
"6O	c #E9A47D",
"7O	c #5C4D3E",
"8O	c #594D47",
"9O	c #A2785F",
"0O	c #E7A37C",
"aO	c #8A6A51",
"bO	c #65503F",
"cO	c #5D4C3E",
"dO	c #645951",
"eO	c #E5A17A",
"fO	c #E6A27B",
"gO	c #EDA87F",
"hO	c #866850",
"iO	c #614E3F",
"jO	c #604F40",
"kO	c #AD7F65",
"lO	c #B08165",
"mO	c #E3A27A",
"nO	c #E4A37B",
"oO	c #E5A47C",
"pO	c #EBA87E",
"qO	c #ECA97F",
"rO	c #9C7558",
"sO	c #977257",
"tO	c #604F3F",
"uO	c #E2A179",
"vO	c #E9A67C",
"wO	c #85674F",
"xO	c #81654F",
"yO	c #5E4D41",
"                                                                                                                                                                                                                                                                                                                                                                                                                                                                                                                                                                                                                                                                                                                                                                                                                                                                                                                                                                                                                                                                                                                                                                                                                                                                                                                                                                                    ",
"                                                                                                                                                                                                                                                                                                                                                                                                                                                                                                                                                                                                                                                                                                                                                                                                                                                                                                                                                                                                                                                                                                                                                                                                                                                                                                                                                                                    ",
"                                                                                                                                                                                                                                                                                                                                                                                                                                                                                                                                                                                                                                                                                                                                                                                                                                                                                                                                                                                                                                                                                                                                                                                                                                                                                                                                                                                    ",
"                                                                                                                                                                                                                                                                                                                                                                                                                                                                                                                                                                                                                                                                                                                                                                                                                                                                                                                                                                                                                                                                                                                                                                                                                                                                                                                                                                                    ",
"                                                                                                                                                                                                                                                                                                                                                                                                                                                                                                                                                                                                                                                                                                                                                                                                                                                                                                                                                                                                                                                                                                                                                                                                                                                                                                                                                                                    ",
"                                                                                                                                                                                                                                                                                                                                                                                                                                                                                                                                                                                                                                                                                                                                                                                                                                                                                                                                                                                                                                                                                                                                                                                                                                                                                                                                                                                    ",
"                                                                                                                                                                                                                                                                                                                                                                                                                                                                                                                                                                                                                                                                                                                                                                                                                                                                                                                                                                                                                                                                                                                                                                                                                                                                                                                                                                                    ",
"                                                                                                                                                                                                                                                                                                                                                                                                                                                                                                                                                                                                                                                                                                                                                                                                                                                                                                                                                                                                                                                                                                                                                                                                                                                                                                                                                                                    ",
"                                                                                                                                                                                                                                                                                                                                                                                                                                                                                                                                                                                                                                                                                                                                                                                                                                                                                                                                                                                                                                                                                                                                                                                                                                                                                                                                                                                    ",
"                                                                                                                                                                                                                                                                                                                                                                                                                                                                                                                                                                                                                                                                                                                                                                                                                                                                                                                                                                                                                                                                                                                                                                                                                                                                                                                                                                                    ",
"                                                                                                                                                                                                                                                                                                                                                                                                                                                                                                                                                                                                                                                                                                                                                                                                                                                                                                                                                                                                                                                                                                                                                                                                                                                                                                                                                                                    ",
"                                                                                                                                                                                                                                                                                                                                                                                                                                                                                                                                                                                                                                                                                                                                                                                                                                                                                                                                                                                                                                                                                                                                                                                                                                                                                                                                                                                    ",
"                                                                                                                                                                                                                                                                                                                                                                                                                                                                                                                                                                                                                                                                                                                                                                                                                                                                                                                                                                                                                                                                                                                                                                                                                                                                                                                                                                                    ",
"                                                                                                                                                                                                                                                                                                                                                                                                                                                                                                                                                                                                                                                                                                                                                                                                                                                                                                                                                                                                                                                                                                                                                                                                                                                                                                                                                                                    ",
"                                                                                                                                                                                                                                                                                                                                                                                                                                                                                                                                                                                                                                                                                                                                                                                                                                                                                                                                                                                                                                                                                                                                                                                                                                                                                                                                                                                    ",
"                                                                                                                                                                                                                                                                                                                                                                                                                                                                                                                                                                                                                                                                                                                                                                                                                                                                                                                                                                                                                                                                                                                                                                                                                                                                                                                                                                                    ",
"                                                                                                                                                                                                                                                                                                                                                                                                                                                                                                                                                                                                                                                                                                                                                                                                                                                                                                                                                                                                                                                                                                                                                                                                                                                                                                                                                                                    ",
"                                                                                                                                                                                                                                                                                                                                                                                                                                                                                                                                                                                                                                                                                                                                                                                                                                                                                                                                                                                                                                                                                                                                                                                                                                                                                                                                                                                    ",
"                                                                                                                                                                                                                                                                                                                                                                                                                                                                                                                                                                                                                                                                                                                                                                                                                                                                                                                                                                                                                                                                                                                                                                                                                                                                                                                                                                                    ",
"                                                                                                                                                                                                                                                                                                                                                                                                                                                                                                                                                                                                                                                                                                                                                                                                                                                                                                                                                                                                                                                                                                                                                                                                                                                                                                                                                                                    ",
"                                                                                                                                                                                                                                                                                                                                                                                                                                                                                                                                                                                                                                                                                                                                                                                                                                                                                                                                                                                                                                                                                                                                                                                                                                                                                                                                                                                    ",
"                                                                                                                                                                                                                                                                                                                                                                                                                                                                                                                                                                                                                                                                                                                                                                                                                                                                                                                                                                                                                                                                                                                                                                                                                                                                                                                                                                                    ",
"                                                                                                                                                                                                                                                                                                                                                                                                                                                                                                                                                                                                                                                                                                                                                                                                                                                                                                                                                                                                                                                                                                                                                                                                                                                                                                                                                                                    ",
"                                                                                                                                                                                                                                                                                                                                                                                                                                                                                                                                                                                                                                                                                                                                                                                                                                                                                                                                                                                                                                                                                                                                                                                                                                                                                                                                                                                    ",
"                                                                                                                                                                                                                                                                                                                                                                                                                                                                                                                                                                                                                                                                                                                                                                                                                                                                                                                                                                                                                                                                                                                                                                                                                                                                                                                                                                                    ",
"                                                                                                                                                                                                                                                                                                                                                                                                                                                                                                                                                                                                                                                                                                                                                                                                                                                                                                                                                                                                                                                                                                                                                                                                                                                                                                                                                                                    ",
"                                                                                                                                                                                                                                                                                                                                                                                                                                                                                                                                                                                                                                                                                                                                                                                                                                                                                                                                                                                                                                                                                                                                                                                                                                                                                                                                                                                    ",
"                                                                                                                                                                                                                                                                                                                                                                                                                                                                                                                                                                                                                                                                                                                                                                                                                                                                                                                                                                                                                                                                                                                                                                                                                                                                                                                                                                                    ",
"                                                                                                                                                                                                                                                                                                                                                                                                                                                                                                                                                                                                                                                                                                                                                                                                                                                                                                                                                                                                                                                                                                                                                                                                                                                                                                                                                                                    ",
"                                                                                                                                                                                                                                                                                                                                                                                                                                                                                                                                                                                                                                                                                                                                                                                                                                                                                                                                                                                                                                                                                                                                                                                                                                                                                                                                                                                    ",
"                                                                                                                                                                                                                                                                                                                                                                                                                                                                                                                                                                                                                                                                                                                                                                                                                                                                                                                                                                                                                                                                                                                                                                                                                                                                                                                                                                                    ",
"                                                                                                                                                                                                                                                                                                                                                                                                                                                                                                                                                                                                                                                                                                                                                                                                                                                                                                                                                                                                                                                                                                                                                                                                                                                                                                                                                                                    ",
"                                                                                                                                                                                                                                                                                                                                                                                                                                                                                                                                                                                                                                                                                                                                                                                                                                                                                                                                                                                                                                                                                                                                                                                                                                                                                                                                                                                    ",
"                                                                                                                                                                                                                                                                                                                                                                                                                                                                                                                                                                                                                                                                                                                                                                                                                                                                                                                                                                                                                                                                                                                                                                                                                                                                                                                                                                                    ",
"                                                                                                                                                                                                                                                                                                                                                                                                                                                                                                                                                                                                                                                                                                                                                                                                                                                                                                                                                                                                                                                                                                                                                                                                                                                                                                                                                                                    ",
"                                                                                                                                                                                                                                                                                                                                                                                                                                                                                                                                                                                                                                                                                                                                                                                                                                                                                                                                                                                                                                                                                                                                                                                                                                                                                                                                                                                    ",
"                                                                                                                                                                                                                                                                                                                                                                                                                                                                                                                                                                                                                                                                                                                                                                                                                                                                                                                                                                                                                                                                                                                                                                                                                                                                                                                                                                                    ",
"                                                                                                                                                                                                                                                                                                                                                                                                                                                                                                                                                                                                                                                                                                                                                                                                                                                                                                                                                                                                                                                                                                                                                                                                                                                                                                                                                                                    ",
"                                                                                                                                                                                                                                                                                                                                                                                                                                                                                                                                                                                                                                                                                                                                                                                                                                                                                                                                                                                                                                                                                                                                                                                                                                                                                                                                                                                    ",
"                                                                                                                                                                                                                                                                                                                                                                                                                                                                                                                                                                                                                                                                                                                                                                                                                                                                                                                                                                                                                                                                                                                                                                                                                                                                                                                                                                                    ",
"                                                                                                                                                                                                                                                                                                                                                                                                                                                                                                                                                                                                                                                                                                                                                                                                                                                                                                                                                                                                                                                                                                                                                                                                                                                                                                                                                                                    ",
"                                                                                                                                                                                                                                                                                                                                                                                                                                                                                                                                                                                                                                                                                                                                                                                                                                                                                                                                                                                                                                                                                                                                                                                                                                                                                                                                                                                    ",
"                                                                                                                                                                                                                                                                                                                                                                                                                                                                                                                                                                                                                                                                                                                                                                                                                                                                                                                                                                                                                                                                                                                                                                                                                                                                                                                                                                                    ",
"                                                                                                                                                                                                                                                                                                                                                                                                                                                                                                                                                                                                                                                                                                                                                                                                                                                                                                                                                                                                                                                                                                                                                                                                                                                                                                                                                                                    ",
"                                                                                                                                                                                                                                                                                                                                                                                                                                                                                                                                                                                                                                                                                                                                                                                                                                                                                                                                                                                                                                                                                                                                                                                                                                                                                                                                                                                    ",
"                                                                                                                                                                                                                                                                                                                                                                                                                                                                                                                                                                                                                                                                                                                                                                                                                                                                                                                                                                                                                                                                                                                                                                                                                                                                                                                                                                                    ",
"                                                                                                                                                                                                                                                                                                                                                                                                                                                                                                                                                                                                                                                                                                                                                                                                                                                                                                                                                                                                                                                                                                                                                                                                                                                                                                                                                                                    ",
"                                                                                                                                                                                                                                                                                                                                                                                                                                                                                                                                                                                                                                                                                                                                                                                                                                                                                                                                                                                                                                                                                                                                                                                                                                                                                                                                                                                    ",
"                                                                                                                                                                                                                                                                                                                                                                                                                                                                                                                                                                                                                                                                                                                                                                                                                                                                                                                                                                                                                                                                                                                                                                                                                                                                                                                                                                                    ",
"                                                                                                                                                                                                                                                                                                                                                                                                                                                                                                                                                                                                                                                                                                                                                                                                                                                                                                                                                                                                                                                                                                                                                                                                                                                                                                                                                                                    ",
"                                                                                                                                                                                                                                                                                                                                                                                                                                                                                                                                                                                                                                                                                                                                                                                                                                                                                                                                                                                                                                                                                                                                                                                                                                                                                                                                                                                    ",
"                                                                                                                                                                                                                                                                                                                                                                                                                                                                                                                                                                                                                                                                                                                                                                                                                                                                                                                                                                                                                                                                                                                                                                                                                                                                                                                                                                                    ",
"                                                                                                                                                                                                                                                                                                                                                                                                                                                                                                                                                                                                                                                                                                                                                                                                                                                                                                                                                                                                                                                                                                                                                                                                                                                                                                                                                                                    ",
"                                                                                                                                                                                                                                                                                                                                                                                                                                                                                                                                                                                                                                                                                                                                                                                                                                                                                                                                                                                                                                                                                                                                                                                                                                                                                                                                                                                    ",
"                                                                                                                                                                                                                                                                                                                                                                                                                                                                                                                                                                                                                                                                                                                                                                                                                                                                                                                                                                                                                                                                                                                                                                                                                                                                                                                                                                                    ",
"                                                                                                                                                                                                                                                                                                                                                                                                                                                                                                                                                                                                                                                                                                                                                                                                                                                                                                                                                                                                                                                                                                                                                                                                                                                                                                                                                                                    ",
"                                                                                                                                                                                                                                                                                                                                                                                                                                                                                                                                                                                                                                                                                                                                                                                                                                                                                                                                                                                                                                                                                                                                                                                                                                                                                                                                                                                    ",
"                                                                                                                                                                                                                                                                                                                                                                                                                                                                                                                                                                                                                                                                                                                                                                                                                                                                                                                                                                                                                                                                                                                                                                                                                                                                                                                                                                                    ",
"                                                                                                                                                                                                                                                                                                                                                                                                                                                                                                                                                                                                                                                                                                                                                                                                                                                                                                                                                                                                                                                                                                                                                                                                                                                                                                                                                                                    ",
"                                                                                                                                                                                                                                                                                                                                                                                                                                                                                                                                                                                                                                                                                                                                                                                                                                                                                                                                                                                                                                                                                                                                                                                                                                                                                                                                                                                    ",
"                                                                                                                                                                                                                                                                                                                                                                                                                                                                                                                                                                                                                                                                                                                                                                                                                                                                                                                                                                                                                                                                                                                                                                                                                                                                                                                                                                                    ",
"                                                                                                                                                                                                                                                                                                                                                                                                                                                                                                                                                                                                                                                                                                                                                                                                                                                                                                                                                                                                                                                                                                                                                                                                                                                                                                                                                                                    ",
"                                                                                                                                                                                                                                                                                                                                                                                                                                                                                                                                                                                                                                                                                                                                                                                                                                                                                                                                                                                                                                                                                                                                                                                                                                                                                                                                                                                    ",
"                                                                                                                                                                                                                                                                                                                                                                                                                                                                                                                                                                                                                                                                                                                                                                                                                                                                                                                                                                                                                                                                                                                                                                                                                                                                                                                                                                                    ",
"                                                                                                                                                                                                                                                                                                                                                                                                                                                                                                                                                                                                                                                                                                                                                                                                                                                                                                                                                                                                                                                                                                                                                                                                                                                                                                                                                                                    ",
"                                                                                                                                                                                                                                                                                                                                                                                                                                                                                                                                                                                                                                                                                                                                                                                                                                                                                                                                                                                                                                                                                                                                                                                                                                                                                                                                                                                    ",
"                                                                                                                                                                                                                                                                                                                                                                                                                                                                                                                                                                                                                                                                                                                                                                                                                                                                                                                                                                                                                                                                                                                                                                                                                                                                                                                                                                                    ",
"                                                                                                                                                                                                                                                                                                                                                                                                                                                                                                                                                                                                                                                                                                                                                                                                                                                                                                                                                                                                                                                                                                                                                                                                                                                                                                                                                                                    ",
"                                                                                                                                                                                                                                                                                                                                                                                                                                                                                                                                                                                                                                                                                                                                                                                                                                                                                                                                                                                                                                                                                                                                                                                                                                                                                                                                                                                    ",
"                                                                                                                                                                                                                                                                                                                                                                                                                                                                                                                                                                                                                                                                                                                                                                                                                                                                                                                                                                                                                                                                                                                                                                                                                                                                                                                                                                                    ",
"                                                                                                                                                                                                                                                                                                                                                                                                                                                                                                                                                                                                                                                                                                                                                                                                                                                                                                                                                                                                                                                                                                                                                                                                                                                                                                                                                                                    ",
"                                                                                                                                                                                                                                                                                                                                                                                                                                                                                                                                                                                                                                                                                                                                                                                                                                                                                                                                                                                                                                                                                                                                                                                                                                                                                                                                                                                    ",
"                                                                                                                                                                                                                                                                                                                                                                                                                                                                                                                                                                                                                                                                                                                                                                                                                                                                                                                                                                                                                                                                                                                                                                                                                                                                                                                                                                                    ",
"                                                                                                                                                                                                                                                                                                                                                                                                                                                                                                                                                                                                                                                                                                                                                                                                                                                                                                                                                                                                                                                                                                                                                                                                                                                                                                                                                                                    ",
"                                                                                                                                                                                                                                                                                                                                                                                                                                                                                                                                                                                                                                                                                                                                                                                                                                                                                                                                                                                                                                                                                                                                                                                                                                                                                                                                                                                    ",
"                                                                                                                                                                                                                                                                                                                                                                                                                                                                                                                                                                                                                                                                                                                                                                                                                                                                                                                                                                                                                                                                                                                                                                                                                                                                                                                                                                                    ",
"                                                                                                                                                                                                                                                                                                                                                                                                                                                                                                                                                                                                                                                                                                                                                                                                                                                                                                                                                                                                                                                                                                                                                                                                                                                                                                                                                                                    ",
"                                                                                                                                                                                                                                                                                                                                                                                                                                                                                                                                                                                                                                                                                                                                                                                                                                                                                                                                                                                                                                                                                                                                                                                                                                                                                                                                                                                    ",
"                                                                                                                                                                                                                                                                                                                                                                                                                                                                                                                                                                                                                                                                                                                                                                                                                                                                                                                                                                                                                                                                                                                                                                                                                                                                                                                                                                                    ",
"                                                                                                                                                                                                                                                                                                                                                                                                                                                                                                                                                                                                                                                                                                                                                                                                                                                                                                                                                                                                                                                                                                                                                                                                                                                                                                                                                                                    ",
"                                                                                                                                                                                                                                                                                                                                                                                                                                                                                                                                                                                                                                                                                                                                                                                                                                                                                                                                                                                                                                                                                                                                                                                                                                                                                                                                                                                    ",
"                                                                                                                                                                                                                                                                                                                                                                                                                                                                                                                                                                                                                                                                                                                                                                                                                                                                                                                                                                                                                                                                                                                                                                                                                                                                                                                                                                                    ",
"                                                                                                                                                                                                                                                                                                                                                                                                                                                                                                                                                                                                                                                                                                                                                                                                                                                                                                                                                                                                                                                                                                                                                                                                                                                                                                                                                                                    ",
"                                                                                                                                                                                                                                                                                                                                                                                                                                                                                                                                                                                                                                                                                                                                                                                                                                                                                                                                                                                                                                                                                                                                                                                                                                                                                                                                                                                    ",
"                                                                                                                                                                                                                                                                                                                                                                                                                                                                                                                                                                                                                                                                                                                                                                                                                                                                                                                                                                                                                                                                                                                                                                                                                                                                                                                                                                                    ",
"                                                                                                                                                                                                                                                                                                                                                                                                                                                                                                                                                                                                                                                                                                                                                                                                                                                                                                                                                                                                                                                                                                                                                                                                                                                                                                                                                                                    ",
"                                                                                                                                                                                                                                                                                                                                                                                                                                                                                                                                                                                                                                                                                                                                                                                                                                                                                                                                                                                                                                                                                                                                                                                                                                                                                                                                                                                    ",
"                                                                                                                                                                                                                                                                                                                                                                                                                                                                                                                                                                                                                                                                                                                                                                                                                                                                                                                                                                                                                                                                                                                                                                                                                                                                                                                                                                                    ",
"                                                                                                                                                                                                                                                                                                                                                                                                                                                                                                                                                                                                                                                                                                                                                                                                                                                                                                                                                                                                                                                                                                                                                                                                                                                                                                                                                                                    ",
"                                                                                                                                                                                                                                                                                                                                                                                                                                                                                                                                                                                                                                                                                                                                                                                                                                                                                                                                                                                                                                                                                                                                                                                                                                                                                                                                                                                    ",
"                                                                                                                                                                                                                                                                                                                                                                                                                                                                                                                                                                                                                                                                                                                                                                                                                                                                                                                                                                                                                                                                                                                                                                                                                                                                                                                                                                                    ",
"                                                                                                                                                                                                                                                                                                                                                                                                                                                                                                                                                                                                                                                                                                                                                                                                                                                                                                                                                                                                                                                                                                                                                                                                                                                                                                                                                                                    ",
"                                                                                                                                                                                                                                                                                                                                                                                                                                                                                                                                                                                                                                                                                                                                                                                                                                                                                                                                                                                                                                                                                                                                                                                                                                                                                                                                                                                    ",
"                                                                                                                                                                                                                                                                                                                                                                                                                                                                                                                                                                                                                                                                                                                                                                                                                                                                                                                                                                                                                                                                                                                                                                                                                                                                                                                                                                                    ",
"                                                                                                                                                                                                                                                                                                                                                                                                                                                                                                                                                                                                                                                                                                                                                                                                                                                                                                                                                                                                                                                                                                                                                                                                                                                                                                                                                                                    ",
"                                                                                                                                                                                                                                                                                                                                                                                                                                                                                                                                                                                                                                                                                                                                                                                                                                                                                                                                                                                                                                                                                                                                                                                                                                                                                                                                                                                    ",
"                                                                                                                                                                                                                                                                                                                                                                                                                                                                                                                                                                                                                                                                                                                                                                                                                                                                                                                                                                                                                                                                                                                                                                                                                                                                                                                                                                                    ",
"                                                                                                                                                                                                                                                                                                                                                                                                                                                                                                                                                                                                                                                                                                                                                                                                                                                                                                                                                                                                                                                                                                                                                                                                                                                                                                                                                                                    ",
"                                                                                                                                                                                                                                                                                                                                                                                                                                                                                                                                                                                                                                                                                                                                                                                                                                                                                                                                                                                                                                                                                                                                                                                                                                                                                                                                                                                    ",
"                                                                                                                                                                                                                                                                                                                                                                                                                                                                                                                                                                                                                                                                                                                                                                                                                                                                                                                                                                                                                                                                                                                                                                                                                                                                                                                                                                                    ",
"                                                                                                                                                                                                                                                                                                                                                                                                                                                                                                                                                                                                                                                                                                                                                                                                                                                                                                                                                                                                                                                                                                                                                                                                                                                                                                                                                                                    ",
"                                                                                                                                                                                                                                                                                                                                                                                                                                                                                                                                                                                                                                                                                                                                                                                                                                                                                                                                                                                                                                                                                                                                                                                                                                                                                                                                                                                    ",
"                                                                                                                                                                                                                                                                                                                                      . + @ # $ % & * = - ; > , '                                                                                                                                                                                                                                                                                                                                                                                                                                                                                                                                                                                                                                                                                                                                                                                                                                                                                                                                                                                                                   ",
"                                                                                                                                                                                                                                                                                                                                ) ! ~ { ] ^ / ( _ _ : ( < / [ } | 1 2 3 4                                                                                                                                                                                                                                                                                                                                                                                                                                                                                                                                                                                                                                                                                                                                                                                                                                                                                                                                                                                                           ",
"                                                                                                                                                                                                                                                                                                                            5 6 7 8 9 0 a b c d d d e f f f f g h i j k l m n o p q                                                                                                                                                                                                                                                                                                                                                                                                                                                                                                                                                                                                                                                                                                                                                                                                                                                                                                                                                                                                 ",
"                                                                                                                                                                                                                                                                                                                        r s t u v w x 0 0 a b y d d e f z A A A B C D E _ F G H I J K L M                                                                                                                                                                                                                                                                                                                                                                                                                                                                                                                                                                                                                                                                                                                                                                                                                                                                                                                                                                                           ",
"                                                                                                                                                                                                                                                                                                                  N O P Q R S T U V W W X X W Y Z `  .g ..+.+...@.@.#.#.$.%.&.*.=.-.;.>.,.'.                                                                                                                                                                                                                                                                                                                                                                                                                                                                                                                                                                                                                                                                                                                                                                                                                                                                                                                                                                                        ",
"                                                                                                                                                                                                                                                                                                            ).!.~.{.].^.U /.(._.:.<.[.}.[.}.|.1.|.1.2.3.*.4.5.6.f 7.8.9.0.a.a.b.%.D c.d.e.f.g.h.                                                                                                                                                                                                                                                                                                                                                                                                                                                                                                                                                                                                                                                                                                                                                                                                                                                                                                                                                                                    ",
"                                                                                                                                                                                                                                                                                                      i.j.k.l.m.n.o.p.q.r.s.s.x <.[ t.[ t./ F < F < u.: v.w.v.x.e y.z.A.B.9.9.C.a...D.E E.F.G.H.I.                                                                                                                                                                                                                                                                                                                                                                                                                                                                                                  J.K.L.M.N.O.                                                                                                                                                                                                                                                                                                                                                                                                                                                                    ",
"                                                                                                                                                                                                                                                                                                  P.Q.R.S.T.U.V.W.X.Y.Z.`. +.+q.}.++++[.[.[.[.[.++@+#+#+$+*.2.<.c %+&+&+*+=+-+-+c A ;++.g >+,+F.'+)+                                                                                                                                                                                                                                                                                                                                                                                                                                                                      !+~+{+]+^+/+(+_+:+<+[+}+|+1+2+3+4+5+} 6+7+8+9+                                                                                                                                                                                                                                                                                                                                                                                                                                                            ",
"                                                                                                                                                                                                                                                                                                0+a+b+c+d+e+f+g+h+i+j+k+l+m+n+o+W p+q+q+q+q+:.:.q+r+s+s+t+D.u+v+a w+x+y+z+A+B+B+C+b y D+E+F+F+G+H+I+J+                                                                                                                                                                                                                                                                                                                                                                                                                                                              K+L+M+N+O+P+Q+R+S+T+U+V+2+W+X+C Y+Z+`+ @%.E .@+@@@#@$@%@                                                                                                                                                                                                                                                                                                                                                                                                                                                        ",
"                                                                                                                                                                                                                                                                                              &@*@=@-@;@>@,@'@)@!@~@j+{@]@^@/@(@_@_@:@_@_@q+:.:.<@p+r+r+u+D.[@U }@w |@1@|@x+(.(.2@3@w+b y a y 4@5@6@7@                                                                                                                                                                                                                                                                                                                                                                                                                                                            8@9@0@a@b@c@d@e@f@g@h@i@j@k@D.g F+F+l@m@n@ @o@b.p@q@r@s@t@u@v@                                                                                                                                                                                                                                                                                                                                                                                                                                                    ",
"                                                                                                                                                                                                                                                                                            w@x@y@z@A@B@C@D@E@F@G@H@|@8 I@V X _@_@J@K@L@:.M@N@N@t.t.O@P@Q@Q@/ R@S@T@U@V@W@X@Y@Z@`@w 9 /. #.#%+_.+#@#$+##                                                                                                                                                                                                                                                                                                                                                                                                                                                      $#%#e@&#&#f@*#=#-#E 4.b.+.0.C.;#b >#,#,#'#'#)#4.D !#~#~#.@{#]#^#/#(#_#                                                                                                                                                                                                                                                                                                                                                                                                                                                ",
"                                                                                                                                                                                                                                                                                          :#<#[#}#|#1#2#3#4#5#6#|@|@y+/.7#:@_@}@}@K@K@p+[.N@8#9#0#} 5+a#=.=.< b#c#T d#V@e#f#g#h#i#j#k#l#m#n#o#p#q#d g ( r#                                                                                                                                                                                                                                                                                                                                                                                                                                                  s#t#u#v#w#{#t+x#y#z#A#b C+C+_.C+B#C#D#E#F#G#z#)#H#G+E I#~#J#J#K#L#}@M#N#O#P#Q#                                                                                                                                                                                                                                                                                                                                                                                                                                          ",
"                                                                                                                                                                                                                                                                                        R#S#2#T#U#V#W#X#E@G@Y#Z#`#y+ $I@S@X W W p+]#.$|.+$F F F Q@( @$@$1.x.V #$T@$$V@%$&$*$=$=$-$;$>$k#l#,$1@|@C#a g 4.'+'$                                                                                                                                                                                                                                                                                                                                                                                                                                              )$!$~$C.{$]$^$/$($($~@_$p#~@:$~@:$<$F@[$[$}$|$1$*+a }@` H#2$3$E.4$5$6$7$< 8$9$0$a$b$                                                                                                                                                                                                                                                                                                                                                                                                                                      ",
"                                                                                                                                                                                                                                                                                      c$d$e$V#f$g$h$i$j$G@G@Y#y+y+Y.I@v+V X X }.++< k$Q@Q@+@+@( _ l$G+Z X m$0 3@n$o$$$U@e#f#h#=$g#p$q$8 Y@i#W@H@r$j+b k@w.s$t$                                                                                                                                                                                                                                                                                                                                                                                                                                            u$v$w$x$B#y$Z#z$A$4#B$C$C$C$E@4#D$j$4#E$F$F$!@G$H$p#A+0 z#I$J$K$L$M$N$O$P$Q$/ R$S$T$U$V$                                                                                                                                                                                                                                                                                                                                                                                                                                  ",
"                                                                                                                                                                                                                                                                                    W$X$Y$Z$`$ %.%+%@%#%$%%%H@&%8 l+U v+V *%<.}.F =%-%O@O@O@_ @$$+E +.D+w+%+7.;%9.{$>%^$_@:@q$,%;$'%Z X )%g#!%Y@`#n#3@A#@#w.~%{%]%                                                                                                                                                                                                                                                                                                                                                                                                                                        ^%/%(%_%<$C$B$:%D@<%[%<%A$z$}%|%1%2%3%4%5%5%6%7%8%9%p#n#0%(@a%b%c%!$d%e%f%g%w.y h%i%j%k%l%m%                                                                                                                                                                                                                                                                                                                                                                                                                              ",
"                                                                                                                                                                                                                                                                                  d$n%o%p%q%r%s%+%N##%$%%%t%`@u%v%l+U *%*%*%<./ =%w%x%x%5+P@w.h =#C y%z#Y.s.z%7.9.A%B%]$;#C%y#'%D%E%1.1.F%G%H%H%k#m#(.A+b 4@3.I%J%K%                                                                                                                                                                                                                                                                                                                                                                                                                                      L%M%N%O%P%Q%3%|%R%S%T%U%V%W%X%H%Y%Z%`%H%W@$$X. &.&+&@&#&$&{@q.%&&&*&=&-&;&>&,&'&)&!&~&{&~@]&^&/&                                                                                                                                                                                                                                                                                                                                                                                                                          ",
"                                                                                                                                                                                                                                                                                (&_&:&<&[&}&|&1&2&3&k#k#,$4&4&5&#$6&7&R$R$&&8&< =%9&9&Q$0&a&4+d.b&F.c&d&e&f&q.l+n$g&g&g&h&;#x#V i&j&G%k&++] l&m&e#H@:$~@.#z.d ` |.n&o&                                                                                                                                                                                                                                                                                                                                                                                                                                      p&q&r&s&t&u&v&w&x&y&z&A&B&C&D&E&F&G&H&I&J&K&L&M&N&O&@&P&Q&i+R&o$S&<@p+T& .` C.#.U&V&B%7#W&X&Y&Z&                                                                                                                                                                                                                                                                                                                                                                                                                        ",
"                                                                                                                                                                                                                                                                              `& *}&.*+*@*#*$*h#%*&*k#**=*u%4&u%-*6&7&<.8&8&;*< =%f.9&>*0&e.>&3+,*b&'*)*9$!*~*{*]*T@T o$7#h&y#V v+^*/*(*: _*:*<*[*Q%}*:$|*1*2*3*;#4*5*6*                                                                                                                                                                                                                                                                                                                                                                                                                                        (+7*8*9*                                  0*a*b*c*d*7%e*f*g*h*i*C#q#c C%b.!#f@j*k*l*#+<@m*2%n*o*p*q*                                                                                                                                                                                                                                                                                                                                                                                                                ",
"                                                                                                                                                                                                                                                                            r*s*t*u*v*+*w*x*y*z*%*A*B***=*C*-*D*X&b#E*&&8&8&[ [ I%)*=%O@P@F*G*H*I*J*K*L*M*N*O*@@P*W%Q*v 7#_@h&Y y#S$R*/*0*S*T*U*H%W@1@i+V*W*X*Y*Z*0.( `* =                                                                                                                                                                                                                                                                                                                                                                                                                                                                                .=+=@=N&#=$=%=5%h+&=*===|*q#A#w.-=;=>=>=|+v.q+R&,='=)=!=~={=]=^=/=                                                                                                                                                                                                                                                                                                                                                                                                        ",
"                                                                                                                                                                                                                                                                            (=_=:=<=[=}=|=1=2=3=Y%A*B***4=C*-*D*X&F%E*5=&&8&[ 8$)*6=6=7=5+a#8=9=0=a=b=c=d=e=f=g=h=i=j=j=I@:@h&k=Y V H%l=m=    n=o=S&X@X.p=q=r=s=t=3@@#+@u=v=                                                                                                                                                                                                                                                                                                                                                                                                                                                                            w=x=y='%z=A=B=#=6%C=G$Q&D=E=A+q+u.F=G=H=I=|+J=p+($K=L=M=N=O=P=Q=R=S=T=                                                                                                                                                                                                                                                                                                                                                                                                      ",
"                                                                                                                                                                                                                                                                          U=V=W=X=Y=Z=`= -.-2=+-j&@-p.#-$-%-&-*-=-=---;-^ 8$8$[ ;*;*>->-( 7=5+,--='-)-!-      ~-{-]-^-Q*m*Y.9 x w+/-X (-_-        :-<-[-}-|-1-s=t=6#;#$+2-3-                                                                                                                                                                                                                                                                                                                                                                                                                                                                          4-5-6-4+Y+7-{@$%#%8-$&8-#%9-8 0-a-t.Q$F=b-|+c-d-s+e-A$f-g-h-i-j-k-l-m-n-o-p-                                                                                                                                                                                                                                                                                                                                                                                                  ",
"                                                                                                                                                                                                                                                                        q-r-s-t-u-z@|=v-w-x-y-z-i&N%$-%-e&-**-X&A-A---;-^ 8$[ [ [ 8&8&8&[ [ / B--.Q$C-D-          E-]-j=v Y.w w+b 0 _@F-G-H-I-      J-<-X.A=#=d*Q&p#A+S@@+K-L-                                                                                                                                                                                                                                                                                                                                                                                                                M-N-O-P-                                            Q-R-S-T-V+U-V-,+E+]@W- #X-Y-Z-S$`-X&R@;-} j U+F*d- ;s+]-.;+;@;#;$;%;&;*;=;-;;;>;,;                                                                                                                                                                                                                                                                                                                                                                                                ",
"                                                                                                                                                                                                                                                                      ';);!;:=u-g$~;x*{;];a*B*^;#-$-%-e&-*D*X&F%E*E*;-;-^ 8$t./ 8$8$R$R$R$R$R$M@/;(;_;:;<;        [;};j=T@`#n#r$r${@0 |;S@;$1;        2;Y@3;D$4;Q&5;1$3@};6;7;8;                                                                                                                                                                                                                                                                                                                                                                                                          9;0;a;b;c;d;e;f;g;                                  h;i;t@j;J=W+k;!#l;C T&m;n;v%o;p;q;{*r;s;t;u;;-< _ : 2.4*1.:.v;w;x;y;z;A;B;C;D;E;F;G;H;I;                                                                                                                                                                                                                                                                                                                                                                                              ",
"                                                                                                                                                                                                                                                                    J;K;t-L;M;<&N;O;b*P;x-Q;R;S;4=%-e&-*D*T;F%b#E*E*;-;-^ 8$t.F 8$8$/;R$R$<@<@U;q+V;P*W;X;Y;Z;  `;/#w;*$ >.>+>@>N#M#A+a h&I@#>$>        %>m*|@i+~@&>i+*>T ]-=>->;>>>,>                                                                                                                                                                                                                                                                                                                                                                                                  '>)>!>~>{>]>^>/>(>_>:><>[>                        }>|>1>2>R$I#3>3>3>C E 4*<.q$p$S$u%4&E%4>4>)%&-*-F%7&>-x.5>5>1.q+W&6>7>8>9>0>a>b>c>d>e>f>g>h>i>                                                                                                                                                                                                                                                                                                                                                                                            ",
"                                                                                                                                                                                                                                                                  j>k>n%l>m>n>o>p>q>r>s>a*3&t>u>5&%-e&-**-*-X&F%v>v>v>v>w>8#t.t.x>y>8$M@7&U; $n$T@$$z>U@A>B>C>D>E>F>G>H>I>J>K>L>M>N>O>:=P>e$Q>R>S>T>  U>V>W>t-X>X=Y>Z>`> ,S..,+,@,#,$,%,&,                                                                                                                                                                                                                                                                                                                                                                                              *,=,-,;,>,,,',),!,~,{,],^,/,(,                  _,:,v;B%<,[,},<,|,1,H#1.:.<@S 2,3,4,.;5,6,$$Z@)%&-X&;-)*< ( : 1.p+'%e#I>7,,@8,9,0,a,b,c,d,e,f,g,h,                                                                                                                                                                                                                                                                                                                                                                                          ",
"                                                                                                                                                                                                                                                                  i,j,k,l,+*m,n,o,q>P;A*B*3&p,q,4=%-e&-*&-*-X&F%b#b#v>v>^ ^ 8#8$^ ^ 5=a-r,j=y+`#}%s,|%t,u,J>v,w,x,y,z,A,j=x+z+j+.#.#m$0 v+F-`-B,C,D,E,F,G,H,I,=$J,1@K,L,.,M,N,O,P,Q,R,S,T,U,V,                                                                                                                                                                                                                                                                                                                                                                                          W,X,Y,Z,`, '.'+'@'#'$'%'&'*'='-';'          >','''u+)'!'~'{'{']'^'/']@U R R ('_':'<'['}'y+|@Z@p$&-X&^ 6=< : _ #+r+'%f#I>|'1'2'3'4'5'6'7'8'9'0'a'b'c'                                                                                                                                                                                                                                                                                                                                                                                        ",
"                                                                                                                                                                                                                                                                d'e'u-f'g'-@h'h'O;b*2&z=i'B*&*j'k'l'm'n'o'p'q'r'm;s'7&7&7&7&M@R$s's's'0-'%8 |@1@Q%3%2%t'Q%,$|@m*S&S ]-c#K@u'v'w'D.@#&.&.&.5.x'j*y'z'Q$A'A'B'=%t.N@C'D'E'F'G'H'I'J'K'L'M'N'O'P'Q'                                                                                                                                                                                                                                                                                                                                                                                      R'S'T'U'V'W'X'Y'Z'`' ).)+)@)6@#)$)%)&)      *)=);-w.~#-);)>),)')_.)).#0%Y.q$] !)~){)      ])j=`-^)/)R@()t.k$_)$+:)[@q+,%<)[)})|)1)2)3)4)5)6)7)8)9)0)a)b)                                                                                                                                                                                                                                                                                                                                                                                      ",
"                                                                                                                                                                                                                                                              c)d)M;Y=e)f)~;O;g)|&@>h)3&i'B***4=i)j)m'k)p'p'q'r's's'%&%&7&7&7&7&s'l)]@l+&%l#m)Q%m)m)m)1@&%/.w I@]-:.K@s+[@n){#5..@c.o)k;o)o)&#&#f@o)>&a&a&p)q)z'r)s)s)t)u)v)w)x)y)z)A)B)C)D)E)F)G)                                                                                                                                                                                                                                                                                                                                                                                      H)I)J)K)L)M)N)O)P)Q)R)S)T)W+o)U)] V)W)X)Y)Z)`)G+,&Y+c.~# !.!+!@!@!7#F-#!$!%!&!          '+V W&`-t;R@N@*!k$=!-!:)[@p+p$r>~;-@|)1);!>!,!'!)!!!~!{!~!]!^!                                                                                                                                                                                                                                                                                                                                                                                      ",
"                                                                                                                                                                                                                                                            /!(!_!e):!V##*<!N>N>@>2&[!3&B*B*=*4=l'}!|!p'p'q's's's's'7&7&<@U;<@<@s'm;'%F-Q*Y@d#z>6,T@j=7#:@}@W X p+|.1!2. ;x'2!o)k;W+3!4!4!5!5!5!6!7!5!0=0=8!9!0!5!6!&#&#a!d@z'b!c!d!e!f!g!h!i!j!k!                                                                                                                                                                                                                                                                                                                                                                                      l!m!n!o!p!q!r!s!t!u!v!w!|+V+x!3+8=;-Q /*y!z!W A!B!A!..W g&C!c#U;/)D!E!F!G!              _;V;&-&-R@H!I!J!-%=._)2.4*x.F-K!L!~;M!1)N!'=O!P!Q!R!S!9)T!U!V!W!                                                                                                                                                                                                                                                                                                                                                                                    ",
"                                                                                                                                                                                                                                                            X! *Y!Z!V#`!L;M>x* -2&h)3&3&i'B*=*5&C*m'|!p'p'q'm;s's'%&7&7&<@U;U;<@m;m;'%q$v v o$o$o$ $S@}@h&y#Y x.|.@+#+_) ~j*f@k;W+.~+~+~4!5!5!5!&#6!d@@~-=0=0!;&@~V+#~c-d@K*0=$~%~&~*~=~-~;~>~,~'~)~                                                                                                                                                                                                                                                                                                                                                                                      !~~~{~]~^~/~(~_~:~<~*.c-q)c-V+x![~=%] }~s-|~W '&1~z.))x+8 2~3~4~5~6~                  7~S$X&u;()t.8~-%9~y'_)_)$+1.V;i#|&M>0~a~b~c~d~e~f~g~h~i~j~5)k~l~                                                                                                                                                                                                                                                                                                                                                                                    ",
"                                                                                                                                                                                                                                                          m~n~o~f)f)p~L;M>M>q~+>h)h)A*A*i'B***=*%--*D*T;6&6&m;m;U v+<@<@U;U;U;U;r,r,S&S&S&S S };};]-L@r+s+s+s+1.|.Q@u.9~J=r~e@x!d@5!4!+~4!5!s~d@t~t~u~v~#~#~;&w~w~w~,-0&e.x~y~0=z~A~B~C~D~E~F~G~H~I~                                                                                                                                                                                                                                                                                                                                                                                        J~K~L~M~(~N~O~P~Q~R~S~T~;&0!8!8!q)-.t.<*U~V~W~X~Y~Z~&+`~ {.{                    +{@{r&<.$+[.8#u.J=#{U+U+k*k*@$>-F%,%N&${2#h$%{[#>!3)P!&{*{={V!j~-{;{>{                                                                                                                                                                                                                                                                                                                                                                                  ",
"                                                                                                                                                                                                                                                        ,{'{){!{p%u-~{<!M>g)|&@>2&2&%*A*i'B***=*e&-*T;6&6&6&m;m;U v+<@<@U;r,r,U;r,r,S S S };};]-K@r+s+s+s+s+1.#+Q@Q@J!9~y'6@c-@~x!s~5!4!5!d@x!@~u~v~{{j x%w%]{B'A'^{/{/{f.i G*'*$.({_{:{<{[{}{|{1{                                                                                                                                                                                                                                                                                                                                                                                            2{3{4{5{6{7{8{9{0{a{x>O@;&0=b{9!-=#~w>c{h#d{e{L>E=f{0-                      g{h{+-4*,&-)< 8#P@c-V+V+c-6@k*_ / F%p$N#i{j{h$k{l{m{n{o{p{q{r{j~s{t{u{v{w{                                                                                                                                                                                                                                                                                                                                                                                ",
"                                                                                                                                                                                                                                                      x{y{z{A{g'g$#*B{b+L!q~+>C{D{E{a*A*g#,%#-$-#$F-q$'%'%'%0-0-<@<@:.<@U;r,r,r,J-J-J-J-F{F{G{G{.$C'1!@+@+|.@+#++@+@+@Q@u.=.d-q@H{f@k;k;o)f@j*8=w~Q$]{B-t.w>I{J{K{y=y=y=J{)*L{M{z N{O{P{Q{R{S{T{U{                                                                                                                                                                                                                                                                                                                                                                                            V{W{X{Y{Z{`{ ].]+]@][ / O@T~T~#]-&w~F*w.R$Y@Q%$]%]#>&]                    *]=]-]l+C ,&;]_ u.U+u~>],]0!#~a#_ [ =-e&>$N&']<!c+)]!]~]{]]]^]/](]_]:]U!<][]}]                                                                                                                                                                                                                                                                                                                                                                              ",
"                                                                                                                                                                                                                                                      |]!;1]f$<=`!B{B{o%O>|&C{C{D{D{a*i'-]S$$-$-#$q$'%0-0-0-0-U <@<@:.<@U;r,r,r,J-J-F{2]3][;]#.$]#.$@+@+|.|.|.@+[./ +$/ +$( =!U)l*=#H{c.H{h k*a#4]5]/{I%^ R@t;!*6]7]8]8]~*8$|.s+a 9]0]a]b]c]d]e]                                                                                                                                                                                                                                                                                                                                                                                                f]g]h]i]j]k]l]m]n]%-X&8$=%;.Q$o]0!;&[~=#t+K@g&Q*l=p]q]                r]s]1;X.3@ .G+ ;h d@d@>]t]>]u]#~a#=.[ =--*>$N&K>v]w]x]y]z]A]B]C]D]E]F]:]G]H]I]J]                                                                                                                                                                                                                                                                                                                                                                              ",
"                                                                                                                                                                                                                                                    K]L]M]N]O]P]~{Q]R]S]1=];r>r>a*%*h#g#p.#-G%#!q$'%0-0-0-0-U;<@<@<@<@<@<@U;T]('F{F{G{[;]#]#]#++|.@+@+@+( < / ++++}.[;<.[;}..$1.:)G+5.G+*.G+#+8$U]V]W]!**-F-#$p$$-X]e&e&c{R J-K@X &&Y]Z]`] ^.^                                                                                                                                                                                                                                                                                                                                                                                                      +^@^#^$^%^&^!%k#p$D*;-} '+k *^=^-&V+o)-^w#5.t.;^>^u=,^'^      )^!^~^1;A>{^i*:@1.*.c.5!+~]^^^P$b=-&i O@I%=-D*z=1%W~q~v]~;N;Y=/^(^_^:^<^[^}^|^1^2^3^4^                                                                                                                                                                                                                                                                                                                                                                            ",
"                                                                                                                                                                                                                                                  5^6^7^1]8^9^0^~{R]S]a^{;w-b^D{%*A*g#-]#-$-#!c{q$'%0-U 0-U U;<@<@<@<@<@<@U;:-:-F{2][;[;]#++|.|.|.|.@+@+< / / [.q+V :.<@:.:.q+p+6.t+3.9]3.5>}.8&c^d^e^X]p$l#k#j#S$%-X]#!#!f^g^h^b#J{[+i^j^                                                                                                                                                                                                                                                                                                                                                                                                            k^l^m^n^o^e#3&B*,%&-~*p^q^;.r^C-=^c-e@e@e@s^t^u^v^w^x^y^z^A^B^C^D^%$s,E^_$ $[@~#F^U-K*b{G^P$H^;&0&I^y>=-&-e#t'.>J^K^s%p~V#e);@L^M^D]N^O^P^Q^R^S^T^U^                                                                                                                                                                                                                                                                                                                                                                          ",
"                                                                                                                                                                                                                                                V^W^X^q%Y^Z^`^p>o% /a^{;./x-a*%*-$g#-],%G%#!c{&-q$'%r,U;U;U;U;<@7&7&M@M@M@M@M@M@G{[;[;]#++++|.< < < < < ++[./;R$v+w+S@7#v+v+V X 5>5>#+2.: [ ;-_*+/@/n'f&y+y+x+x+#$#/$/K{%/&/*/x&~*=/-/;/                                                                                                                                                                                                                                                                                                                                                                                                                >/,/U*'/W@B*h#g#{*9$] )/!/!/~/{/S+{{v~]/^/z~t~e@J=k$T]z,//(/_/u,|%:/</i*g&t+l;[/}/|/9!1/H^2/3/>*6=4/5/&--]6/b^@=7/R]8/p%9/0/a/b/c/d/}^e/f/g/h/i/j/                                                                                                                                                                                                                                                                                                                                                                          ",
"                                                                                                                                                                                                                                                k/l/m/e)/^Y=r%b+n/S]1=];x-o/a*i'g#-]S$p$c{c{&-*-q$'%r,U;U;U;<@<@7&7&M@M@M@/;[.[.[;[;]#++++< / / / / / / [./;M@U;v+w+w+r.v+V V R$<.< : Q@p/q/r/s/t/u/Z.8 :$<$R&T v/~*w/x/y/z/A/B/C/.                                                                                                                                                                                                                                                                                                                                                                                                                       D/E/F/&-c{G%{*{*G%9$G/%/D!H ;^H/I/R+J/K/L/M/N/O/P/Q/{$_.n#A=']u,R/g*R&^$v'N{~#U-S/9!2/T/U/,-f.y>_*!*c{-]6/*$@=7/T$V/Y!f'9/W/L^M^X/Y/Z/`/ (h/.(+(@(                                                                                                                                                                                                                                                                                                                                                                        ",
"                                                                                                                                                                                                                                              #($(%(g'<=`^r%Q]n/$*&(x-s>s>a*-$g#p.$-#!c{&-&-*-X&V;r,U;U;a-a-7&7&R$R$^ ^ 8$[ / / ++++++/ / / / )*/ / / [ [.M@:-U;U U U v+<@7&R$8$8$O@*(=(-(;(>(>(,(C*j#'()(!(~({(](^(                                                                                                                                                                                                                                                                                                                                                                                                                                          /(((_(:(<([(}(`%|(l&l&1(2(3(G H/4(5(u)s)-^!#;)J#a.6(d 2@X.q~[)7(+;o$S@[@&..~,*0=;&8(9(f./{4/=-&-%-H%6/&$H>1&e$0(a(b(9/W/[&c(d(e(f(:]g(h(i(3^j(k(                                                                                                                                                                                                                                                                                                                                                                      ",
"                                                                                                                                                                                                                                            l(m(n(M;[=o(z@~{e$p(q(x-a*A*i'B*-],%#-%-c{&-*-*-X&F%V;r,U;<@a-7&7&R$R$R$8$8$[ / / / ++++/ / / / I%I%[ [ [ [ /;M@:-:-r,U U a-a-^ ^ q/B-I/E&      r(9&5/l#|%s(t(u(v(w(                                                                                                                                                                                                                                                                                                                                                                                                                                                x(y(z(=/D!A(Z%B(B(B(6>m&U*C(D(E(F(N@k$ ~H{G(F^H(4.E x#r.t%|&[)v]I($$K@D.p@>&V+q)J(K(B'L(E*5/e&%-H%M(*$N(<)Y$n/O(P(Q(R(S(c(T(U(V(W(X(Y(Z(`( _._                                                                                                                                                                                                                                                                                                                                                                      ",
"                                                                                                                                                                                                                                            +_@_m/.*o(#_-@O>$_R*%_s>%*B***=*$-$-G%#!&-*-*-X&u;u;F%b#a-7&7&7&7&R$8$[ [ / / / )*)*/ / / / I%I%y>y>y>I%[ [ /;h=F{:-U;a-a-^ ^ q/q/L*~/'$        L+&_[.e-*_=_-_;_>_,_                                                                                                                                                                                                                                                                                                                                                                                                                                                    '_)_H.y=#!-]6/[*[*M(!%!_X;X;('h=+++@P@-&0!~_{_]_b%d&z#n#O&i{u,V@S&r+$+^_[~9=/_K(B'L(E*=--*%-!%(_=$D%__&(:_0(<_[_}_|_1_2_X/3_4_5_6_7_8_9_0_                                                                                                                                                                                                                                                                                                                                                                      ",
"                                                                                                                                                                                                                                          a_b_c_Q=(^d_e_~{O>f_g_Z)s>;$B*,%S$#-#-G%#!&-*-*-X&F%F%F%b#a-7&7&7&7&R$8$[ / / < / )*)*/ / / / I%I%y>y>y>y>[ [ /;/;h=M@^ ^ /;/;[ [ /;/;h_i_          j_k$k_l_m_n_o_p_q_                                                                                                                                                                                                                                                                                                                                                                                                                                                      r_s_t__(K{A(`%6>6>(_H%u_u_u A,%>R@t.j -&H^w~{_v_5>z#0%w_#%|%V@x_R }.h v_y_,-z_A_y>B_=-!*c{^)H%;$Z)./q(C_n/%]8/D_}_|_c(E_F_G_4_H_I_J_K_L_M_                                                                                                                                                                                                                                                                                                                                                                    ",
"                                                                                                                                                                                                                                        i,N_{=O_P_Q_P>R_S_q>K>+>*$=$6>g#!%S$%-e&$-e&T;6&p'p'q'E*A-;-^ ^ 8$8$[ [ [ [ 8$8$8$8$8$8$8&&&8$8$[ [ 8#w>8#8#y>4/^ ^ &&y>T_H./;]-};U_B#X#V_W_            X_Y_Z_`_ :.:+:@:#:                                                                                                                                                                                                                                                                                                                                                                                                                                                          $:%:&:*:^(=:^)-:;:>:u z,2~('N@k$_)k* ~l* ~1!u'_@8 >$,:*$6/m*V 1.3.':@$b%):!:J{y=s/8]^)W@h#;$%___7/ /:=Y!D_~:W/S(2_{:G_]:^:/:(:_:::<:[:                                                                                                                                                                                                                                                                                                                                                                  ",
"                                                                                                                                                                                                                                        }:|:1:Q=M]2:3:p(7/q>4:5:*$B((_!%4>^)e&e&e&-*T;6&p'p'q'5=;-;-^ 8$8$8$8$8$8$8$8$8$8$8$8$8$&&5=;-^ 8$8$8#w>6:w>4/4/y>y>):7:T_k ]#8:U_9:0:a:b:c:            d:e:f:g::/:/^-h:                                                                                                                                                                                                                                                                                                                                                                                                                                                                i:j:k:l:m:W%n:o:p:]*)%R :-q:r:s:-!t:-!s:.$p+S&Z@[**$[*Y@'%V x.4*u:v:8&B_J{w:x:7]^)Z@g#;$Z)g_7/e$y:V/f)D_z:|_c(A:G_B:C:D:E:K_F:G:H:                                                                                                                                                                                                                                                                                                                                                                  ",
"                                                                                                                                                                                                                                      I:J:K:1:9/Q_L:M:N:7/q>4:L>E{-$g#,%S$E%-*D**-X&F%F%=-=-E*5=^ ^ ^ 8$8$8$^ ^ 8$8$8$8$^ ^ ^ ^ a-b#R@v>^ ^ w>w>6:w>^ 8$y>I%):I%O:q/h=c#};S%P:Q:R:S:              T:U:V:W;U;F W:                                                                                                                                                                                                                                                                                                                                                                                                                                                                    X:x:Y:Z:`: <.<-]p$R T]h=+<+$*!_)=!k$|.x.<@R f#6/6/W@E%'%R$x.1.;*&&B_J{y=s/8])%Z@g#-$=$g_1&Y$R]%]p~@<#<$<%<&<*<B:=<-<;<><::,<'<)<                                                                                                                                                                                                                                                                                                                                                                ",
"                                                                                                                                                                                                                                    !<~<{<1:$<]<<_O(^<N:Y$q>${/<z=h#,%p$E%#$D*T;b#b#F%F%=-A-E*E*^ ^ ^ ^ ^ ^ ;-;-^ ^ ^ ^ ;-;-;-;-b#b#R@R@;-;-6:6:8#8#[ [ I%I%):):)*( p+A,(<_<G_:<<<[<i>                }<|<1<2<                                                                                                                                                                                                                                                                                                                                                                                                                                                                          3<4<5<6<-$g#,%E%W&T]/;+<7<k$k$+$++++/;F%R X@Z@Z@E%q$a-<.<.R$5=E*8<y=] 9<)%Y@-]h#=$D%<)7/S_Q]p~f)e)W/L^b/0<a<b<c<d<e<f<g<h<i<                                                                                                                                                                                                                                                                                                                                                                ",
"                                                                                                                                                                                                                                    j<k<l<|_l,u*p~O(m<^<Y$q~/<n<B*p.%-e&-*D*X&F%a-b#b#b#----;-;-^ ^ ^ ^ ;-;-----;-;-;---------8<b#b#R@R@----I{6:t.t./ / / / ;*;*o<o<:.^#p<q<r<s<t<u<v<                                                                                                                                                                                                                                                                                                                                                                                                                                                                                                  w<x<j=y<6/>$i#Z@S$`-W&T]/;[./ 8$w>w>6:--<@r,R `-`-W&r,U;a-a-a-b#u;~*/)&-)%S$-]g#-$Z)g_q(1& /z<u-Z!z:|_A<B<C<D<E<F<7'G<h/H<I<J<                                                                                                                                                                                                                                                                                                                                                              ",
"                                                                                                                                                                                                                                  K<L<7^M<N<O<l>}&8/0(P<7/];Q<R<=*%--*D*T;T;F%b#a-b#b#b#--;-;---;-;-;-;-;-----8<--8<8<8<~*~*~*~*F%F%R@R@8<8<I{I{w>8#[ / < < >-S<T<&%#$y,U<V<W<X<Y<Z<`<                                                                                                                                                                                                                                                                                                                                                                                                                                                                                                   [.[+[`#X.j#k#j#W@,%)%2~('v>M@^ I{I{p^--/;:.U;W&R W&W&W&X&F%b#b#u;/)/)&-`-p$,%-]g#-$Z)%_@=7/R]8/f)e)M;[&A<@[F_#[$[%[&[*[=[-[;[                                                                                                                                                                                                                                                                                                                                                              ",
"                                                                                                                                                                                                                                  >[,[m/N<m>[=(^Z!<_0(C___D{3&&*4&-*D*T;6&6&F%b#a-b#R@R@;-;---8<R@R@R@R@R@u;u;u;t;t;t;/)/)/)s;s;*-X&u;u;~*~*(;I{w>w>[ / < < x.Y *+Q%S$!_'[)[![~[{[][^[                                                                                                                                                                                                                                                                                                                                                                                                                                                                                                  /[([_[:[s,X.m)m)z>W@Z@p$2~X&R@v>(;<[I{;-M@:.:.r,V;V;W&R 2~W&r,r,('W;W;2~2~E%)%^)4>!%h#;$D{P;K^o%r%@<9/$<N<[[}[|[1[2[3[4[5[6[7[8[                                                                                                                                                                                                                                                                                                                                                            ",
"                                                                                                                                                                                                                                9[0[a[b[A<o>c[d[e)Y!n/&(x-%*S;5&-*D*T;6&6&6&b#b#b#b#u;R@;-^ --8<u;u;u;u;u;u;u;t;t;/)/)/)s;s;B,B,c{&-/)t;] ~*(;I{w>8#[ / / / <.X e[f[g[<[h[i[j[k[l[m[n[                                                                                                                                                                                                                                                                                                                                                                                                                                                                                                  o[p[q[r[s[3%U@U@V@V@U@Z@X%2~('R@t[<[I{()R@:.q+<@U;U;V;R `-R V;r,('W;W;R R #$2~`-)%^)-]g#[*b^J^L![)p~p%u[|_v[w[x[y[z[_]A[B[C[D[E[                                                                                                                                                                                                                                                                                                                                                            ",
"                                                                                                                                                                                                                                F[G[b[L^H[H[I[J[e)8/S]w-%***u%K[T;p'p'p'A-A-E*E*A-A-----v>v>R@R@X&X&F%F%F%X&*-&-#!c{c{&-&-&-c{c{`-`-s;/)~*8<I{6:6:8#/ ^ /;#+<@y<L[M[N[;^O[P[Q[R[S[T[U[                                                                                                                                                                                                                                                                                                                                                                                                                                                                                                V[W[X[Y[Z[`[e# }.}S%+}L,V@d#X@v;%>@}t[t[#}v>M@G{G{G{:-('%>%>%>W;%>S&^-A,z,R W&W&`-#!#!c{%-S$B*D{1=O>k,Y!9/#<N<$}%}&}*}O^=}_:-};}>},}                                                                                                                                                                                                                                                                                                                                                          ",
"                                                                                                                                                                                                                              '})}!}&<~}{}%<J[#<]}B{{;^}i'/}C*-*p'p'A-A-E*E*E*E*E*A-----R@R@R@u;*-X&X&X&*-*-&-&-c{c{c{&-&-c{c{#!`-`-s;s;~*8<I{I{(;I{;-;-|.@+G-(}_}:}<}[}}}|}>_1}2}3}4}                                                                                                                                                                                                                                                                                                                                                                                                                                                                                                5}6}7}8}9}0}F>u a}b}+:S%c}z>$$z,v;d}@}e}t[v>M@G{G{G{h=T]('%>%>W;%>^-^-A,z,R V;W&2~c{&-&-c{S$g#*$@=K^Q]<_[_#<f}g}h}i}j}k}d<l}m}n}o}p}                                                                                                                                                                                                                                                                                                                                                          ",
"                                                                                                                                                                                                                            q}r}s}t}t}t}&<L^<=-@u}x*^}3&**$-e&!*A-A-;-;-^ ^ ^ ^ ^ ;-A-=-b#F%F%X&*-*-&-&-c{c{c{c{c{c{c{c{c{#!#!#!)%`-B,s;] 8<r/p^w>8#++[.T]'/v}w}x}y}z}J.A}B}C}D}E}F}G}                                                                                                                                                                                                                                                                                                                                                                                                                                                                                              H}I}J}K}L}M}N}O}u_@}p:P}V@z>V@z>$$z,Q}d}g^e}v>M@/;[./;M@:-T]('%>W;W;R R 2~2~R V;V;W&*-X&*-&-G%i&=$x-1= /y:Y!e)f}R}S}T}U}V}W}X}Y}Z}`} |.|                                                                                                                                                                                                                                                                                                                                                        ",
"                                                                                                                                                                                                                          +|@|V_#|M^$|~}A<g'-@M>%|&|[!**S$e&!*5/;-;-^ ^ ^ ^ ^ ^ 8$^ A-=-F%F%X&X&*-*-&-#!#!#!#!#!c{c{#!#!#!#!G%G%)%)%B,s;~*8<r/p^F 8#++++f^*|=|-|;|    >|,|'|)|!|~|{|]|                                                                                                                                                                                                                                                                                                                                                                                                                                                                                              ^|/|(|_|:|<|[|}|||1|w)2|M(e#e#U@d#Y@z,Q}3|('v>M@/;/;/;/;h=h=T]('W;W;2~2~2~2~2~W&r,V;F%F%X&*-#!`)-$%_@=S]y:Y!9/0/4|5|6|7|8|b>9|0|a|`}b|c|                                                                                                                                                                                                                                                                                                                                                        ",
"                                                                                                                                                                                                                          d|e|f|g|h|b/|_9/<_b+|&C{h)i#5&E%&-~*--K&q/q/x>y>y>8$^ &&5=E*A-b#F%T;D*X&*-c{#!G%G%G%#!G%G%G%G%G%{*{*{*^))%B,/)~*8<p^p^q/<[t;R@('u i|j|k|    l|m|n|o|p|,!q|r|                                                                                                                                                                                                                                                                                                                                                                                                                                                                                            s|t|u|v|w|x|y|z|A|    B|%/Z%g#g#j#k#Y@X@`-W&('R@H!()N@N@N@M@M@R@R@t;/)&-&-&-*-2~W&b#b#F%b#u;t;&-G%h#=$./C|0(Y!u[M;D|E|F|G|H|I|J|K|L|M|N|O|                                                                                                                                                                                                                                                                                                                                                        ",
"                                                                                                                                                                                                                        P|Q|A:R|S|2_[&f'<_n/a^];2&[!k#p$2~X&--^ q/x>} B-B-I%[ 8$&&&&5=E*a-b#T;D**-&-c{G%{*{*{*{*{*{*`)`)`)`){*{*^))%s;/)8<--p^p^K&K&u;B,h^T|3,U|V|    W|X|Y|w)i#|)Z|`|                                                                                                                                                                                                                                                                                                                                                                                                                                                                                             1.1x&(<=>+1J           @1#1$-p.**=*=*,%p$2~W&t[t[#}H!()()M@M@v>R@u;t;&-&-&-*-2~V;a-b#b#b#R@t;X&c{-];$x-&(n/$1%1m/`$&1*1=1-1V(;1>1,1'1)1!1~1                                                                                                                                                                                                                                                                                                                                                      ",
"                                                                                                                                                                                                                        {1]1a>^1/11_z:]}o%(1P;s>z=i#Y@E%R F%;-8#0#r@]{-.-.=%/ [ &&&&&&&&%&s'T;D*2~`-)%4>!%!%!%!%H%H%H%H%H%H%!%4>^)`-s;t;8<--p^p^q/_1:1<1u [1+!}1|1      1121<[T;314151                                                                                                                                                                                                                                                                                                                                                                                                                                                                                              61w%71y/;/              81e^91/}N%N%p.#-#!c{w)01t[#}H!H!M@M@;-;-;-8<!*9<9<*-W&U;7&a-v>v>;-8<b#*-#-j&s>__Y$n/){a1b1c1d1e1f1V(g1$[V!Z(h1i1j1k1                                                                                                                                                                                                                                                                                                                                                    ",
"                                                                                                                                                                                                                      l1m1n1o1p1q1W/}&o%S]<)Z)-$h#-]p$#$X&8<^ t.B-=%-.O@O@-.< < 8$&&&&&&*%s'6&D*E%p$^)4>!%H%(_(_(_(_(_(_(_H%!%!%X@Q*R u;--K&O:r1##    s1t1a{()u1v1        w1x1y1W&z1A1                                                                                                                                                                                                                                                                                                                                                                                                                                                                                                                      B1C1D191N%B*(-i&{*r;E1w)01t[#}H!v>v>;-^ ;---!*9<!*!*b#<@R$7&v>M@^ --a-X&$-(-=$x-1&Y$F1P_G1%(H1I1J1K1N^L1U!M1,1N1O1P1                                                                                                                                                                                                                                                                                                                                                    ",
"                                                                                                                                                                                                                    Q1R1S1T1U1V1#<8/b+a^{;r>;$g#,%c{X&b#;-^ [ I^6=6=6=I^7=7=-.6=I%I%):W1r'X1n'n;=*=*Z@W@f#e#6/[*x,M(B((_`){*!_)%|@y+v X&--^{Y1Z1        `1 2.2+2            @2#2$2%2&2                                                                                                                                                                                                                                                                                                                                                                                                                                                                                                                        *2#1{*-]W@g#i& ]h_n]X;] ~*8<8<--;-^ 8$y>4/J{$!$!8<u;v>v>v>R@R@a-7&a-X&#!`%B(D%=2Y$d{Q__!m/H1-2;2>2,2'2)2g(!2~2{2]2                                                                                                                                                                                                                                                                                                                                                    ",
"                                                                                                                                                                                                                  ^2/2(2_2h|:2<2]}R]a^{;r>D{h#,%#!&-=-E*^ 8$)*I^*&*&I^7=7=7=-.=%6=)*W1[2X1k)m'n;N%**i#>$6/[*,:%$}2}26>H%4>G%#!`-y+z+I@v>A'|212            223242            5262Z]72                                                                                                                                                                                                                                                                                                                                                                                                                                                                                                                          8292h_02e#h#`%a2A(U*X;G/] ~*8<--;-^ 8$y>y>y1J{J{J{--v>M@v>R@R@a-7&7&F%c{{*6>/#=2|~R_b2_!c2b1d1d2e2f2_]j~g2h2i2j2k2l2                                                                                                                                                                                                                                                                                                                                                  ",
"                                                                                                                                                                                                                  m2n2o2p2%<q2r2g)q~w-^}E{z=,%p$&-F%E*&&y>I%)*I^I^I^I^7=O@O@I^6=: < &&q'p;K[s2C*N%i&h#-$[*[*y<y<[*6/f#-],%p$E%2~2~F%^ r1t2u2                                                                                                                                                                                                                                                                                                                                                                                                                                                                                                                                                                    v2w2x26>B(H%`)|(<*!_9$G/] 8<--;-;-^ 8$8$y>4/y1y1;-^ ^ ;-R@R@b#a-7&b#2~^)H%y2z2=2T$t*M]_!A2c1B2F_,2_]j~g2h2C2D2E2F2                                                                                                                                                                                                                                                                                                                                                  ",
"                                                                                                                                                                                                                G2H27|I2B]l,J2K2L2N&h)3&i#=*E%q$b#a-&&;*)*6=6=I^7=I^I^7=O@O@7=I^_ v:M2r'N2K[O2P2p.i&h#-$[*[*[*6/[*f#Z@Z@S$E%F-X&<[G Q2R2S2                                                                                                                                                                                                                                                                                                                                                                                                                                                                                                                                                                        T2U2V26;H%!%`%l&<*h_9$G/~*--;---^ 8$[ I%y>y>4/^ ^ ^ ;-v>R@b#b#b#X&`-^)!%(_#>D%W2X2:=Q_m/%(!}Y2Z2f2`2g2 3C2.3+3@3#3                                                                                                                                                                                                                                                                                                                                                ",
"                                                                                                                                                                                                            $3%3&3*3=3-3;3>3,3'3h)[!i#k#5&v%'%s'7&<.;*>-I^I^I^7=O@O@O@O@=.=.: ( 4*1.d&*%q.Z.Z-)3(-(-j&Y%;$;$6/e#e#Z@X@X@v%]@q.E*!3~3{3                                                                                                                                                                                                                                                                                                                                                                                                                                                                                                                                                                            ]3^3/3(3H%!%H%m&l&!_r;9$] 8<;---;-^ 8$[ [ y>4/y>4/4/y1;-;-R@R@F%*-`-^)4>(_w;J,f_R_(/:=q%A2_3f|:3,2`2g2<3[3.3}3|313                                                                                                                                                                                                                                                                                                                                                ",
"                                                                                                                                                                                                          233343M^5363732)839303)3&*,$4&f&l+%&*%<.}.>-v:7=L{L{7=5+5+O@O@=.=.: : 5>x.d&o<a3l+Z-i'%*Y%;$;$-$-$h#h#,%`-R R 6&%&%&r/b3                                                                                                                                                                                                                                                                                                                                                                                                                                                                                                                                                                                  c3d3e3f3M(e#2|l&<*!_h_G/~*------;-^ 8$[ y>4/y>4/y1y1;-;-R@R@b#X&2~)%4>(_Z:g3f_T$_/(/Z$a1b[d2e2g1`2h3g2i3~2D2j3k3                                                                                                                                                                                                                                                                                                                                                ",
"                                                                                                                                                                                                        l3m3n3o3p3q3r3s3t3L2%*@-5&u%v%Z.0-%&*%o<;*>-( : L{7$L{L{0&,-O@O@_ _ 2.#+r+p+X V a3]@u%i'%*A*z=i'B***,%#-c{t;8<~*$!J{u3;                                                                                                                                                                                                                                                                                                                                                                                                                                                                                                                                                                                     v3w3x3y3M(e#2|m&l&<*!_B,/)u;8<8<(;I{w>8#w>6:y>4/y1y14/4/;---R@t;2~`-^)H%w;z3=2N:T$R_){q%M<B2A3N^B3`2g(C3D3D2E3F3G3                                                                                                                                                                                                                                                                                                                                              ",
"                                                                                                                                                                                                    H3I3J3K3L34'M3N3s3O3P3h)^;#-C*v%Z.]@%&*%o<d&>->-( : L{7$7$L{0&,-5+O@_ _ 2.#+r+q+v+v+r.l+u%B*3&3&j#k#5&%-e&8]s/_(q^E!Q3R3S3                                                                                                                                                                                                                                                                                                                                                                                                                                                                                                                                                                                        T3d3U3x,f#H%m&l&<*!_r;/)t;8<8<<[(;6:w>w>6:y>4/y1y14/4/;---u;t;2~`-)%!%}2#>g_$_Y$T$V3_!b1I1A:F_,2B3W3C3X3Y3Z3`3 4                                                                                                                                                                                                                                                                                                                                              ",
"                                                                                                                                                                                                .4+4@4#4$4m-D_z@0~a~%4/<&4>$/}C*T;6&s'*%o<d&>-v:*4*47=L{L{7$7$7$0&0&7$7$_ : 1.r+q+<@0-'%'%'%#$l#%%=4-4l#v%T;;4>4E!,4'4)4!4                                                                                                                                                                                                                                                                                                                                                                                                                                                                                                                                                                                              ~4{4(_W@!%`)<*<*<*!_B,/)] ~*<[<[<[(;6:w>K&K&p^p^J{y1^ 8$R@u;t;/)2~)%!%6>%_]4^4C|R_M]%(I1{:F_#[Y/:]/4(4~2_4:4<4[4                                                                                                                                                                                                                                                                                                                                            ",
"                                                                                                                                                                                            }4|414c/24I[z:]<34b+g)q~r>E{>$=*u%K[T;m;%&*%o<d&v:*4*4*47=L{L{7$7$7$0&447$7$: 1.p+q+r,U;v+v+0-T;E%S$t%9-`@v%T;;4>454647484                                                                                                                                                                                                                                                                                                                                                                                                                                                                                                                                                                                                  9492m&-$H%`)l&l&l&<*r;s;] ] <[<[<[(;6:w>K&p^p^r/J{y1^ 8$R@u;t;t;R `-4>`%04y*D%=2e$a4X>l<b4c4d4g1`2h3(4~2e4e4f4g4                                                                                                                                                                                                                                                                                                                                            ",
"                                                                                                                                                                                          h4i4j4k4l4m4v*n4-@b+(1q(./y*j&i&S$4&q;6&r'M2o4;*>-v:*4p4p4L{L{7$7$7$7$44447$p4*4}.:.v+'%U R$7&b#!*&-c{p$v%6&A-$!x=q4r4                                                                                                                                                                                                                                                                                                                                                                                                                                                                                                                                                                                                          |2[(04(_(_`%`%m&l&!_B,E1w)w)01<[(;s4t4p^p^(;(;(;I{;-;-;---8<~*/)s;r;G%`)+-y-D%1&0(M]m/I1Y2d4u4v4w4&;x4y4z4A4B4                                                                                                                                                                                                                                                                                                                                            ",
"                                                                                                                                                                                      C4D4E4F4G4H4I4J4K4L40~g)1=./^*M4^.#-%-v%p;s'N4o4O4>-v:*4u:p4p4L{7$7$7$7$7$=&c%p4u:1.}.v+U V *%7&E*A-8<$!$!s/<(P4Q4                                                                                                                                                                                                                                                                                                                                                                                                                                                                                                                                                                                                                  R41<a2|((_|(|(m&l&<*!_X;E1w)w)_;<[E(s4(;(;<[<[<[<[8<--;-----8<~*] s;9$6]a2j&y*./Y$y:Y!S4T4e2V(f2U46_C3V4W4X4Y4Z4                                                                                                                                                                                                                                                                                                                                          ",
"                                                                                                                                                                                  `4 5.5+5@5#5F;+*$5#_%5&5*5%|C{a*=5-5i)n;q;l+;5*%8&>5,5,5b%p4'5'5'57$7$44444444b%p4u:)5!5d&V v+d&*%7&;-;-p^=(~5{5]5                                                                                                                                                                                                                                                                                                                                                                                                                                                                                                                                                                                                                        v20*`%(_(_(_|(`%l&<*n]X;E1w)^5/5E(E((;<[<[<[_;<[<[<[----8<8<~*s/] ] 8](5`%j&s>@=L!o%e)_5;2:5,2O^`2<5[5}5X4|515                                                                                                                                                                                                                                                                                                                                          ",
"                                                                                                                                                                                253545556575#5F;l>]}M!a~*54:i{&4Q;85P2C*K[p;]@s'8&;*,5b%b%p4'5959595057$4444=&=&b%b%a5a5S<o<V V *%%&;-y1p^b5c5d5                                                                                                                                                                                                                                                                                                                                                                                                                                                                                                                                                                                                                            e5f5`)H%(_(_`%`%l&l&1(U*X;E1&/^5D(E(t[01<[<[_;_;_;_;~*8<8<8<y=y=y=y=!*8]G%`)h#a*];x*#*0/&<A3N^g5`2h5i5j5k5l5m5                                                                                                                                                                                                                                                                                                                                          ",
"                                                                                                                                                                              n5o5p5S|q5q5q5F;r5$1m<Y$q>s5t5u531p,u>v5w5q;N20-s';**&b%p4p4'59595x50505054444=&=&b%y5a%O4^@(@V v+%&s'--s/z5A5                                                                                                                                                                                                                                                                                                                                                                                                                                                                                                                                                                                                                                  B5(54>H%H%H%!%l&m&U3U*n]E1&/^53(D(01010101w)w)_;_;] ~*J{J{$!$!>4$!=-5/!*&-p$=*[!n<O;z@f}t}C5g1U4D5E5F5G5H5I5J5                                                                                                                                                                                                                                                                                                                                        ",
"                                                                                                                                                                          K5L5M5T(N5O5P5Q5R5S5T5U5|~<)W~$]V531p==4W5Y-X5;5s'*%o<*&,5b%p4'5'595K$x5x505054444=&c%b%y5O4o4*%m+v+s'7&E*=(Y5                                                                                                                                                                                                                                                                                                                                                                                                                                                                                                                                                                                                                                      Z5]('/y,H%!%`)`)`%l&<*r;X;&/&/3(D(t[010101w)w)_;_;G/~*J{y1J{$!$!J{B_A-=-=-X&#$=*3&L2|=:&L^A3`5,2 6.6+6@6#6$6%6                                                                                                                                                                                                                                                                                                                                        ",
"                                                                                                                                                                        &6*6=6-6;6P5>6,6'6)6!6~6{6x*b*@>Q<]6p,R;^6W-Z.6&s'&&8&>-I^z_=&44/6y_y_y_(6_6959595'5b%,5:6:6):q's'o<*%b#y=>(+                                                                                                                                                                                                                                                                                                                                                                                                                                                                                                                                                                                                                                           <6x&1(!_{*Z%j&91[691(59$%/3(}6}601t;~*~*~*~*<[<[$!$!y14/y>I%I%I%)*)*I%5=E*6&-*u%>$+><#z]|6P=,2U416262^36465666                                                                                                                                                                                                                                                                                                                                      ",
"                                                                                                                                                                      768696F406a6b6c6d6e6f6~6g683v-L2Q<]6h6R;i6v%f&6&s'5=8&;*,57==&44/6/6y_y_j6(6_695'5'5p4b%*&)*y>!:&&M2%&E*A-_(k6                                                                                                                                                                                                                                                                                                                                                                                                                                                                                                                                                                                                                                            l6m6t42(2>{*$-N%N%#-G%r;n6C(o6p601t;~*~*~*~*<[<[J{J{y14/I%)*/ )*q6q66=6=8&5=F%D*E%i#$]<#r6@[:3}^s6t6u6v6`}[<w6                                                                                                                                                                                                                                                                                                                                      ",
"                                                                                                                                                                    x6y6z6A6c/B6C6D6E6o(@*F6|={6%|&|Q<]6O%R;l#4&Z.N2s'%&&&;*v:b%L{4444/6y_j6j6j6y_y_95'5p4b%*&>5W1A-E*;*;*E*y=>(G6                                                                                                                                                                                                                                                                                                                                                                                                                                                                                                                                                                                                                                                H6I6J6:*!_S$g#W@W@4>^)r;n6C(3(01t;t;u;8<8<8<8<y1y14/y>I%6=I^7==&=&=&=&7=*&5=m;F-,$ &4:K6~}F_L6M6N6O6P6Q6R6S6T6                                                                                                                                                                                                                                                                                                                                    ",
"                                                                                                                                                                U6V6W6X6Y6d(Z6`6 7.7+7Z=M!L;q>|&n<Q<]6h6R;t%v%f&N2;5%&*%8&>-v:b%44/6/6y_j6j6j6j6j6y_'5p4b%,5>5):5=E*&&;*8&y1!)8*                                                                                                                                                                                                                                                                                                                                                                                                                                                                                                                                                                                                                                                    @7#7$7:*6;%7U@z>%7x_#!9$D!:(~*t;t;u;8<------4/4/4/y>)*I^L{4444444444L{I^8$E*c{S$3;$]<#;@e1D<&7*7=7-7;7t<>7,7                                                                                                                                                                                                                                                                                                                                    ",
"                                                                                                                                                              '7)7V}d/d/<^!7~7{7]7^7!]`!/7(7W~b^h)[!O%R;-4_7f&l+m;s'&&8&;*>-7=L{i a&y_j6j6:7:7:7j6y_'5b%,5*&):&&s'o<}.5=y1O:<7u2                                                                                                                                                                                                                                                                                                                                                                                                                                                                                                                                                                                                                                                      [7}73(o||71727c}d#S$8]$/K{!**-X&F%F%b#;-;-^ ^ y>I%f.,-0&a&a&373737i z_I%E*&-E%k#N#47N;`$5767C;5[77879707a7                                                                                                                                                                                                                                                                                                                                    ",
"                                                                                                                                                            b7c7}^d7e7f7g7{7 7O]~]y]`!7(h7W~A>K!>$&*R;Z-_7Y-l+;5%&*%8&;*>-v:L{7$a&a&j6j6j6:7:7j6y_/6p4,5*&>5):M2%&Y <.~*!)i7j7                                                                                                                                                                                                                                                                                                                                                                                                                                                                                                                                                                                                                                                          k7l7a{m7n7o7o7d#S$%-p77]&-&-*-X&F%b#;-^ ^ 8$I%6=>*i a&e.q7q7p)p)a&0&=%I%8<X&E%i#1%`>r7s7t7u7v7w7x7y7z7A7B7                                                                                                                                                                                                                                                                                                                                  ",
"                                                                                                                                                          C7c:(]D7E7F7G7H7~7{]z]I7J7/7h7K71%t'>$k#5&4&v%Z.N2s'%&R$8&>-v:I^7=7$05a&a&e.e.e.e.j6j6y_447=I^6=)*):M2V V a-:(L7M7                                                                                                                                                                                                                                                                                                                                                                                                                                                                                                                                                                                                                                                              N7O7a{u X%]*Z@Z@=*4=$-c{c{&-X&F%b#a-7&&&8&6=L{i e.~_P7P7P7~_H^2/Q7>*6=;-F%#$j#K!b*%]q%57R7S7T7U7V7W7X7Y7                                                                                                                                                                                                                                                                                                                                  ",
"                                                                                                                                                      Z7`7 8(].8+8@8#8$8~7l,z] %[)7(p|J>I(&4%8P%5&4&v%p;N2l)%&M28&;*v:*47=L{05x5a&a&e.e.e.e.j6j6/6447=6=)*)*):&&V 0-] y/&8                                                                                                                                                                                                                                                                                                                                                                                                                                                                                                                                                                                                                                                                  *8=8H G/r;^)Z@j#k#,%#!c{&-*-F%b#a-7&8&;*7=7$e.G*P71/~_~_H^2/2/U/>*4]x>;-*-,%g#E{W.p~_3-8M6;8>8,8'8)8!8@3                                                                                                                                                                                                                                                                                                                                ",
"                                                                                                                                                    ~8{8]8^8/8(8A;_8:8d[<=}&#*R]L!q>b*N&<8p,[88-4&-*T;6&m;N4&&8&>-*&7=L{7$050505i a&e.e.9=e.e.a&y_z_I^L{I^4/y18&a-*-)/}8|8                                                                                                                                                                                                                                                                                                                                                                                                                                                                                                                                                                                                                                                                    1828>._(h_!%W@+}$$G%6]#!c{D*T;m;s'5=;*p4^_G*H*d%d%P7P7~_~_2/T/8(0&B-^ =--*S$A*P;`>3848E<586878889808a8                                                                                                                                                                                                                                                                                                                                ",
"                                                                                                                                                  b8c8d8e8f8g8h8:8m>(^u*]}o%S](11=];C{i8]6w_j8k8f&T;6&r'N4M2;*>-,5,57=L{7$05x5x5i a&e.e.e.e.a&i 44=&7=I^I^I^I%y1G/)/G6l8                                                                                                                                                                                                                                                                                                                                                                                                                                                                                                                                                                                                                                                                          m8n8A'w)p:o8W%`%a2{*#!&-D*T;6&5=;*u:G.p8H*H*x~~_~_~_~_H^2/T/U/4]I%;-5/e&-]D{K>q8e~r8s8t8u8v8w8x8y8z8                                                                                                                                                                                                                                                                                                                              ",
"                                                                                                                                              A8B8C8D8E8f8F8G8H8a/g'@<8/I8 /J8K8L8M8N8O8P8Q8R8S86&A-E*&&8&>56=7=7=7==&44i a&a&a&a&a&e.e.a&a&i 0&>*,-7=I%6=7=I%K{T8,.U8                                                                                                                                                                                                                                                                                                                                                                                                                                                                                                                                                                                                                                                                              V8W8$7X8m7Y8[(Z8[((5#!c{e&-*s'o4)595^_]_`8H*~_~_~_~_~_H^2/T/,-I^8$E*T;%-i'N& 9.924+9@9E:#9$9%9&9*9=9                                                                                                                                                                                                                                                                                                                            ",
"                                                                                                                                              -9;9>9,9'9)9!9~9o>e)f)8/k, /{9K8]9^9/9O8(9_9W5:9<9m;E*&&8&>5*&7=L{L{7$44/6a&a&a&a&a&a&a&a&i i 0&,->*,-I^y>y>I%J{1<,.[9                                                                                                                                                                                                                                                                                                                                                                                                                                                                                                                                                                                                                                                                                  }9|9~/1929$)3949}(a2{*$-%-T;m;o<)5M{^_p8`8G*~_P7P7~_~_H^59a&=&*&&&s'D*=*<86979z:899909a9b9c9d9e9f9                                                                                                                                                                                                                                                                                                                            ",
"                                                                                                                                          g9h9i9I|j9k9l9a6`6O]Y=p~%]R]L!m9n9o9p9N8O8S;i6_7Y-l+m;E*4/I%)*6=I^=&440&i i a&a&a&a&a&;&;&a&i 0&0&,->*>*4])*I%4/$!y=x/q9                                                                                                                                                                                                                                                                                                                                                                                                                                                                                                                                                                                                                                                                                        r9s9[}t9u9v9w9+-+-i&N%u%q;l)O4*4K$x9`8H*{_x~x~d%q7G*9=e./6,5;*%&T;4=3&y9C@-@z:z9A9d>B9O6C9D9E9F9                                                                                                                                                                                                                                                                                                                          ",
"                                                                                                                                        G9H9U4I9J9K9L9M91_M;:!e{[)R]v]N> -L2Q<N9h6(9i6n;q;p'E*5=4/y>)*6=I^7==&44i i a&a&a&a&a&a&;&;&i 0&,-,->*>*>*f.)*I%y1y=s/E!O9                                                                                                                                                                                                                                                                                                                                                                                                                                                                                                                                                                                                                                                                                            P9Q9>.O:x:h_z-j&R9**5&q;m+a%l$S9T9{_{_x~x~x~d%G*G*:7y_p4,5o<s'K[j'&4L>a~!]4'U9V96'W9X9Y9<<Z9`9 0                                                                                                                                                                                                                                                                                                                      ",
"                                                                                                                                      .0+0@0#0$0%0p1G4[&&0Q_F1F17(`>%4L>i{*0=0-0;0Z-v%T;=-y1q/} 7:>0A_q6>*,-0&i i a&a&a&a&a&a&a&3/3/w~T~,->*>*>*f.4]B-K&$!y=0*,0                                                                                                                                                                                                                                                                                                                                                                                                                                                                                                                                                                                                                                                                                                  '0)0!0--p7(-~0/9)34=p;N4a595G.H*{_{_{0{0{_{_{_]_j6'5p4!5o<N2w5]0p9j{8,^0/0q5(0_09|:0<0[0}0|010                                                                                                                                                                                                                                                                                                                    ",
"                                                                                                                                    20304050607080_8f}!{Q_X2e$x@']K>i{O&90+&w_=400Y-T;=-J{4/^{/{/{A_q6z_,-0&i a&i a&a&a&a&a&a&i i 0&w~T~T~Q$Q$>*B-O@B-:(a0b0c0                                                                                                                                                                                                                                                                                                                                                                                                                                                                                                                                                                                                                                                                                                        h.d0!)<(+-^*R9^;C*p;*%a5l$'*H*{_{0{0{0{0{0G*j605'5u:!5%&N2e0f0${:[g0h0d[i0j0I980k0i2l0m0n0o0p0                                                                                                                                                                                                                                                                                                                ",
"                                                                                                                                q0r0s0u4t0u0v0w0x0m>#<:&#*7(`>q~&|n<&4N#O%R;Z-W-q;o'p'_*4/y>>0B'f.4],-,-,-0&0&i a&a&a&a&a&a&i /67$=&>*y0z0A0r^w%u.8<8$K&B0C0                                                                                                                                                                                                                                                                                                                                                                                                                                                                                                                                                                                                                                                                                                                D0J&E0F0y-^;v%G0H0D+K$:7x~y~x~x~I0'-1/d%G*^_7$v:&&r's2J02&%|y@p>:&f}K0B6L0M0N0O0P0Q0R0S0T0                                                                                                                                                                                                                                                                                                              ",
"                                                                                                                              U0V0U4Y/W0X0h|K0Y0a/(^Y=-@<#2#${%|n<i8[!O%S;Z-K[q;p'q'B_!:I%)*A_q64]>*,-0&0&0&i i a&a&a&a&a&i i /6'5p4z_9(A0A0r^]{w>/ ] u9Z0`0                                                                                                                                                                                                                                                                                                                                                                                                                                                                                                                                                                                                                                                                                                                   a.aE0a2(-**00+aF#M{j6G*x~x~x~I0@a1/P7G*9=057=;*M2N2O2#a^9o9x*$a:&(^_^B6N5I9c,%a&a*a=a-a;a>a                                                                                                                                                                                                                                                                                                          ",
"                                                                                                                            ,a'a)a!a~aR|:^{}{af}r6`^e_p>O;L>i{Q<<83&S;i6u%v%q;N2r'r'!:):)*6=q6z_>*,-0&i i i i a&a&a&a&i i i i /6'5p4=&J(A0A0I/r@(;8$]at9^a                                                                                                                                                                                                                                                                                                                                                                                                                                                                                                                                                                                                                                                                                                                        /a<(+-%*-4(as.)5_aj6]_H*d%y~:ay~x~H*G*^_7$v:O4m+o;i6)3[!n<830~Z=c[:8<a^1[ac,}a|a1a2a3a4a5a6a                                                                                                                                                                                                                                                                                                      ",
"                                                                                                                          7a8a%[f(9a0aaaM^_^a/l,z]e_0~baL>i{O&]63&&*i6_7v%Z.N2;5r'r'!:W1)*6=q6z_,-0&i i i i a&a&a&a&i i i 0&0&0&7$L{,-,-9(y0'+^{y1<(_(ca                                                                                                                                                                                                                                                                                                                                                                                                                                                                                                                                                                                                                                                                                                                          da^(*)j&B*00s.O4b%95j6:7H*{_:a:ay~{_H*v_x5*4a%(@X5_7j'O%h)L2ba0~Z=o>x0w0eaD7fagahaiajakalamana                                                                                                                                                                                                                                                                                                    ",
"                                                                                                                      oapaqarasataX/c/uav[f}<&Z=-@0~2#${va&4N#%8&*j'u%v%p;N2m;s'E*5=W1):)*I^q6z_0&i a&a&a&a&a&e.i i i 0&0&0&,-,-L{L{,-,-wa5]xaya^%x=za                                                                                                                                                                                                                                                                                                                                                                                                                                                                                                                                                                                                                                                                                                                              S-u3 ]j&R;G0%&O4)595G.:7`8AaBaAaAaCap8x5L{,5o4Dap;n;i63&n<Eah'Fao(Ga$8P5Hae79a_]IaJaKaLaMaNaOaPa                                                                                                                                                                                                                                                                                                ",
"                                                                                                                    QaRaSaTaUaVaR|:^{}I[(^<&Wa>3p>Xa${&|&4N#P%&*i6Z-v%f&p;;5s'N4&&8&>5*&I^7==&44i i a&a&a&a&a&a&i i 0&0&,-,-,->*_ _ O@>*4]YayaJ&Za`a b                                                                                                                                                                                                                                                                                                                                                                                                                                                                                                                                                                                                                                                                                                                                .bv9+=h#4&6&r'O4)5l$K$v_`8AaCaCa`8p8^_7$p4a5+bl)p;v%j'[!Q<L>h'Wa[=+*$8a6@b#bt{$bm}%b&b*b=b-b;b>b                                                                                                                                                                                                                                                                                              ",
"                                                                                                                  q0,b'b:]t{)bD]G;~}N<l,d_!ba~*54:L>+%<8%8O%k#,$4&K[D*T;6&s'5=8&;*>56=I^z_=&44/6i a&a&a&a&a&a&a&i i 0&0&,-,->*>*=.=.O@4]>0~b{b]b^b/b                                                                                                                                                                                                                                                                                                                                                                                                                                                                                                                                                                                                                                                                                                                                    (bn^|(p.e&p;m+_ba5I$':G.'*p8]_`8G*9=a&44p4y5o4Dap;u%j#N#i{o,>3}=r5+*G4w0:b<b%a[b}b|b1b2b3b4b5b6b                                                                                                                                                                                                                                                                                            ",
"                                                                                                                7b8b9b0b.8F]abbbcbN<<=T5F6dbebfbi{n<N#O%&*R;l#4&K[q;T;6&m;r'&&;*>5>56=I^z_=&44/6i a&a&a&a&i a&a&i 0&0&,-,->*>*>*5+u.-.=%>0gbhb^bibjb                                                                                                                                                                                                                                                                                                                                                                                                                                                                                                                                                                                                                                                                                                                                      c549kb$-K[;5(@O4a5u:M{v_v_:7]_G*G*e./6'5lbO4N4T;n;**>$@>${|=mbd_4'nbobpb+8D7B9qbB[rbKasbtbubvbwb                                                                                                                                                                                                                                                                                          ",
"                                                                                                              xbybzbAbBbCb^]l<Db0/u*-@M!a~83/<&|N&<83;j#,$u%v%f&D*o'p'q'E*5=8&>56=6=q6z_=&440&i i i i i i i a&a&i 0&,->*,-,-,-,-x%x%-.B-L({b`aEbFb                                                                                                                                                                                                                                                                                                                                                                                                                                                                                                                                                                                                                                                                                                                                        GbHbIb^.4=D*T;s'S<JbKbG.G.j6:79=9=p)!$_ac%*&):5=6&p$j#K!+>O;LbT5Mbq2NbObP5HaD7PbQbRbSbTbUbVbWbXbYbZb                                                                                                                                                                                                                                                                                      ",
"                                                                                                            `b c7_.c+c@c#cc(O_$cf'T5M!|=Xa%cn<n<<83&j#=*u%4&f&p;p'q'r'r'5=&&>5*&6=I^q6z_=&44i i i i i i i i a&a&i 0&,->*,-,-,-,-Q$r@=%f.gb&c*c=c                                                                                                                                                                                                                                                                                                                                                                                                                                                                                                                                                                                                                                                                                                                                            M7-c;cp.$-e&6&o<a5)595K$y_j69=9=p)59/6_a,5*&8&A-&-S$g#K!b*M>$ambu*>c,c:2<a@b'c)cH]!c~c{c]c^c/c(c_c:c                                                                                                                                                                                                                                                                                    ",
"                                                                                                          <c[c}c9||c1c2c0,[&Q(P(}&Lbu}ba${&|<8[!i#j#,$u%E%D*T;6&E*!:!:W1W1):6=I^q6z_z_=&0&0&i i i i i i i i i i i 0&,-,-,-,-,->*T~H./{B't_&c3c4c                                                                                                                                                                                                                                                                                                                                                                                                                                                                                                                                                                                                                                                                                                                                              5c6c+-+- ]9<A-&&;*p4'5/6j659p)p)p)y_/6=&q66=&&=--*p$j#h)L2x*u}LbJ27c~:Nb_88c9c0cacP0bcccdcecfcgchcic                                                                                                                                                                                                                                                                                  ",
"                                                                                                        jckclcmcncu0c/ocL3R(pcqc34|=83rcL2Q<3&3&k#5&4&v%D*T;6&q'!:W1):):):>56=I^z_=&=&440&i i a&i i 0&0&0&i i i 0&,-,->*,-,->*>*9(scB'xaw/zatc                                                                                                                                                                                                                                                                                                                                                                                                                                                                                                                                                                                                                                                                                                                                                  uc+-vckb6]!*E*8&b%p4/6y_59p)p)q7j6/6=&z_I^)*^ =-*-p$i#h)@> -M>$az<}&q2wcH4xcf8I9;1;1yc6[zcAcBcCcDcEc                                                                                                                                                                                                                                                                                ",
"                                                                                                    FcGcE5Hc0bCbL0Icl<n(&0f'Jcf6$aN>%|L2N&[!O%&*5&u%E%D**-X&=-A-y>y>I%I%)*)*q6z_=&=&0&0&i i i a&i i 0&0&0&0&0&i 0&,->*>*,-,->*4]YaKc5]yaw/LcMc                                                                                                                                                                                                                                                                                                                                                                                                                                                                                                                                                                                                                                                                                                                                                  NcOcn^w9Z80*_*):*&,544/63759PcQc59Q7/_/_>*6=[ 5=F%-*S$i'h)o9x*M>x]e_u*<2RcScTcUcE]t{VcWcXcYc*bZc`c d.d+d                                                                                                                                                                                                                                                                            ",
"                                                                                                    @d#d$d%d&d*dh|d1=d-dM]}&;d>du} -&|n<h)3&R;j'5&u%-*D*X&F%A-E*y>y>I%)*)*6=q6z_44440&0&i i i i i 0&0&0&0&0&0&0&,-,->*>*,->*>*K(,d'dU]t_za)d                                                                                                                                                                                                                                                                                                                                                                                                                                                                                                                                                                                                                                                                                                                                                      !d39w9n^#1~d!:W1*&z_44{dQ7]dPc37Q7{d/_,->*6=[ v>F%E%,%i#h)@> -h'0~J2^d/d,cU9(dE]_d:d<dL|[d}d|d1d2d3d4d                                                                                                                                                                                                                                                                            ",
"                                                                                                  5d6d7dY(pb8d9d0dadbdM]Y!mbcddd83L2Q<ed[!&*5&5&p$e&D*T;=-A-5=&&y>7:>0>0A_q6z_440&0&0&0&i i i i i 0&0&0&0&0&0&0&,->*>*>*,->*4]5]fdgdhd]bid                                                                                                                                                                                                                                                                                                                                                                                                                                                                                                                                                                                                                                                                                                                                                          jdkdld*)K{y=B_W1A_z_wa/_mdnd]dod{d{d0&,-O@6=/ 5=6&D*u%S;[!n<pdqdg6rdz@l>a/x0w0*dsdtdiaud[3vdKawdxdydzdAd                                                                                                                                                                                                                                                                        ",
"                                                                                              BdCdDdEdTaN=FdGdt}&1~=HdQ_u-343'Id -p9N#[!O%j'u%C*%--*D*p'A-E*&&):L(7:>0A_q6z_=&/60&0&0&0&0&i i i i 0&0&0&,-,-0&0&>*>*>*>*,->*4]f.U]JdKd^b'.                                                                                                                                                                                                                                                                                                                                                                                                                                                                                                                                                                                                                                                                                                                                                          t$LdMdNdh_8]=-OdPdA_QdK(/_Q75937{d0&i 0&5+O@I^/ 5=m;D*u%**RdSdTd{6B{#*g$r6Y0_8Ud1cVdWdG]W3D2XdYdZd`d e.e+e                                                                                                                                                                                                                                                                      ",
"                                                                                            @e#eV0$eI|W0X0Z6uab/W/e)u-#*~;<!v-L2w-M8z=**=*4=%-%-D*o'A-E*5=!:y>I%/{B'B'f.4]>*,-,-i i i i 0&0&0&0&7$7$44444444{d{d{d/_>*>*O@-.=%6=!:Pd%e&e                                                                                                                                                                                                                                                                                                                                                                                                                                                                                                                                                                                                                                                                                                                                                              *e=e@:(_S$q;Da-e;e>eA_5+P@7$05F*F*F*a#0&,->*I^)*&&E*T;%-/}#ai8];m9b+o%]}u*J[,e'e)e!e~e7'l0{e]e^e/e(e_e:e<e                                                                                                                                                                                                                                                                    ",
"                                                                                          [e}e/4U4|e1eS|:^c(1_nb#<u*2e$a<!O;L2p9D{%*B*=*4=C*e&-*|!p'A-5=!:W1y>I%B'f.f.4]>*,-0&0&i i i 0&0&0&0&0&7$'5444444=&/_/_{d/_>*>*O@-.+@< M2>e`a3e                                                                                                                                                                                                                                                                                                                                                                                                                                                                                                                                                                                                                                                                                                                                                              4e5e6e7ef#u%8e9e0eae>57=u.@$U)F*F*F*F*i 0&>*4]6=I%&&A-|!p7**i'M8.-a^becede#<J[ee2cfe!egeO04[Q0echeiejekeleme                                                                                                                                                                                                                                                                  ",
"                                                                                        neoepef(e(qere/124%<a/z::&e_$aXax*%|n<N9z=B*/}4=%-e&|!o'=-A-B_!:W1W1I%)*4]4]>*>*,-0&0&i i i i 0&0&0&0&0&7$7$4444,-,-/_/_/_wa>*>*O@-.=%)*W1sete                                                                                                                                                                                                                                                                                                                                                                                                                                                                                                                                                                                                                                                                                                                                                                  uew2g[;$^;C*n'veB_W1)*6=L{7$a#F*e.e.a&a&,-,-z_A_>5W1A-o'4&=*i'^9w-weK2xembO<GayezeHaM0AeBeCeDe}dEeFeGeHeIeJeKe                                                                                                                                                                                                                                                              ",
"                                                                                      LeMeNeJ1L6X/re/1eenbJ[#<w*e_$au}83 -&|Q<3&**=*4=C*e&-*o'p'A-E*!:W1W1):)*6=>*>*>*,-,-0&i i i 0&0&0&0&0&0&0&7$7$4444,-,-/_/_wawa4]4]O@-.=%B'^%OePe                                                                                                                                                                                                                                                                                                                                                                                                                                                                                                                                                                                                                                                                                                                                                                    Qe49vcY%^;C*|!p'!:y>I%7=L{P@F*e.e.e.e.i 0&=&z_,5>55=A-T;4&=*i'h)C{ -{6~6Rer5Se`6zeTeUeVeWeXeYeZe`e f.f+f@f#f13                                                                                                                                                                                                                                                            ",
"                                                                                    $f%f&f:3W(P=E_:^c(%<N<(^w*mbLbu}O; -+>N&h)3&=*4=%-e&-*D*o'q'E*5=y>I%I%)*A_q6>*>*>*,-,-0&0&0&0&0&0&0&0&0&0&0&P@P@0&,-,-,-/_/_waK(4]4]4]f.B'/{za*f                                                                                                                                                                                                                                                                                                                                                                                                                                                                                                                                                                                                                                                                                                                                                                        =f-fvc(-#-e&o';fae>eI^I^=&/6a&e.p)p)3737>f,f'f)fW15=m;T;%-/})3/9!frc~f{fn4v*]fyev0Ha^f/f(fK|_f`}:f<f[f}f|f1f2f                                                                                                                                                                                                                                                          ",
"                                                                                  3f4f'aC55fC5^]c/6f1_I[(^u*mb~6u}7f%|L2N&&43&S;=*4=e&D*D*T;p'q'&&W1I%I%)*)*q6z_>*>*>*,-,-,-0&0&0&0&0&0&0&0&0&0&P@P@0&,-,-,-wawawawa4]4]4]f./{8f9f0f                                                                                                                                                                                                                                                                                                                                                                                                                                                                                                                                                                                                                                                                                                                                                                        afbf%^Z%H%S$-*cfdfef>06=q6=&i a&59595937ff>f_a'f>5W1N4m;D*e&5&)32&o9gf=@!bn4.*:8hfifjfkfW9P^4[6[#6lfmfnfofpfqfrf                                                                                                                                                                                                                                                        ",
"                                                                                sftfufvfwfR|f7xfuab/a/#<u*mb0~u}y@%|@>2&h)3&j#5&,%%-#/o'p'q'E*E*):):)*>0>0A_4]>*,-,-,-,-,-0&0&0&0&0&0&0&0&0&0&,-w~w~w~T~,->*wawawawawaK(K(Yaxayfzf                                                                                                                                                                                                                                                                                                                                                                                                                                                                                                                                                                                                                                                                                                                                                                            AfBfCfDf02%-#/EfFfGf)*A_q6/_Q737375959ffff>f,f:6*&;*&&A-o'-*4=#aN9!frcdb%5n4.*~7Hf$;IfJfKfP^bcLfMfNfOfPfQfRfSfTf                                                                                                                                                                                                                                                      ",
"                                                                              UfVfWfXfYfZfV9p1`fK0N<#<w*mb gu}7f%|&|h)[!3&&*,$4&#-%-|!p'q'r'5=!:):>5>0>0>0A_>*,-,-,-,-0&0&0&0&0&0&0&0&0&0&0&,-,-w~w~w~T~,->*wawa/_wawawaK(Yaya.g+g                                                                                                                                                                                                                                                                                                                                                                                                                                                                                                                                                                                                                                                                                                                                                                            @g+ #g$g=>4>X]%g&g>eI%>0q6>*{dQ7375959!$!$ff>fc%'f,5;*5=A-5/e&N%#aM8!f83db!bO<O]*g=g-g;g>g|^,g'g)g!g~g{g]g^g/g(g_g                                                                                                                                                                                                                                                    ",
"                                                                            :g<g[g}g|g1g2g3g4g5gm>#<:&-@$au}${&|N&2&z=i#**=*u%4&%-#/5/A-E*5=y>I%I%7:B'B'f.4]K(wa0&0&0&0&0&0&0&0&0&0&,-,-,-,-,-,-T~C-Q$Q$>*>*z_z_6g7g/_5]T_T_8g9g                                                                                                                                                                                                                                                                                                                                                                                                                                                                                                                                                                                                                                                                                                                                                                                0gagbg6;G%cgdgegaeW1I%>0A_z_{dQ7odnd5959!$ff>f/67=I^6=):!:o'}!fg#aN9%|bap>@*`^gghgigjgkgaclgmgngogpgqgrgsgtgugvgwg                                                                                                                                                                                                                                                  ",
"                                                                          xgygzgAgBga<Y6CgDgEgFg4'u*e_$a|=7f%|n<2&[!i#**=*5&4&K[#/o'A-E*5=W1I%)*7:>0B'f.4]4]wawa,-0&0&0&i i 0&0&0&0&,-,-,-,-,-,-T~S+Q$Q$>*>*z_z_6g6g5]waT_Gg8gHg                                                                                                                                                                                                                                                                                                                                                                                                                                                                                                                                                                                                                                                                                                                                                                                  IgJgV2`%91Kg@/_*!:y>I%A_q6/_{dodnd5959!$ffffff44L{I^)*y>_*|!l'/}#a^} -M>0~e_}#LgMg=3+850NgOgPgb9QgRgSgTgUgVgWgXgYg                                                                                                                                                                                                                                                ",
"                                                                        Zg`gi( h.h+h@hB2&<:2#h$hJc2e$au}O; -@>2&z=>$**5&p$e&-*D*5/A-!:W1W1):)*>0B'f.5]K(K(wa9(J(,-,-0&0&i i i i 0&0&,-,-,-,-,-,-Q$Q$Q$Q$>*>*z_z_7g6gxa9(%h,4,4&h                                                                                                                                                                                                                                                                                                                                                                                                                                                                                                                                                                                                                                                                                                                                                                                    *h=hld-h;hj)=-A-!:W17:A_wa/_{dQ75959!$!$ffffa&i ,-q6>0ae;4|!e&=*Q;^}b*O;~;#*o~>h%<,h'h)h!h~h{h]h:0R0^h/h(h_h:h<h[h                                                                                                                                                                                                                                              ",
"                                                                      }hygh(|h1hC5C<F|2hB]3h4h5hrd$au}ba -L2^}h)>$**=*u%e&-*D*o'A-E*W1):):):>0>0f.f.K(K(K(wa9(9(>*,-,-0&i i i i 0&0&,-,-,-,-,->*Q$Q$Q$>*>*>*z_z_6g/_8f6hn8G!1                                                                                                                                                                                                                                                                                                                                                                                                                                                                                                                                                                                                                                                                                                                                                                                       7h8h9h0hp7k'5/=-E*!:I%>04]wa/_Q73759!$!$!$!$e.a&i ,-q67:y1;45/e&**Q;^}b*(7b+ahbhW/$8chdhehfhghhhih:0jhkhlhmhnhohphqhrh                                                                                                                                                                                                                                          ",
"                                                                    shth!!uhfa^8vh{:whMgxh(^yhzh|=<!N> -+>N&h)[!B*=*S$e&&-*-5/=-E*!:y>I%I%I%>0>0f.f.K(K(y09(Ah9(>*,-,-0&i i i i 0&0&,-,-,->*>*>*9(9(>*>*>*z_z_q6f.{dBhGgn8ChDh                                                                                                                                                                                                                                                                                                                                                                                                                                                                                                                                                                                                                                                                                                                                                                                        EhFhGh$-N%&-5/A-!:y>>0f.4]wa/_Q737e.e.j6j6592/Q7{d>*A_L(B_A-|!$-B*K!C{|&N>HhIh~:m>53JhKhLhMhNh<dOhPhQhRhShThUhVhWhXhYh                                                                                                                                                                                                                                        ",
"                                                                  Zh`h ig5.i+i@ir8Cgb/N<Z^`^e_~{<!M>x*%|N&<83&O%=*5&e&-**-X&=-A-B_!:I%I%)*)*>0A_4]4]K(K(y0y0AhAh,-,-0&0&i i i i 0&0&,-,-,->*>*>*9(9(>*>*z_q6q6q6B'wa#i$i%i&i                                                                                                                                                                                                                                                                                                                                                                                                                                                                                                                                                                                                                                                                                                                                                                                          *i=iGhp.=*E%*-F%E*8$I%B-f.f.wa{dQ7a&a&j6j62/2/37Q70&>*>0L(B_=-e&#-B*K!@> --i;iw*l,{]o{>i,i~|'i)i%d!i~i{i]i^i'8/i(i_i:i<i                                                                                                                                                                                                                                      ",
"                                                                [i}i|i1i=<2i3i4i5i6i7i8iY= %9i0i(7x* -&|h)3&j#j#S$E%-*D*5/=-A-E*B_!:I%)*>0>0f.4]wawa9(9(AhAhAhAh,-0&0&0&i i 0&0&0&0&,-,-,->*>*>*wawa>*>*z_q6q6q6f.sc#i,4Ch,                                                                                                                                                                                                                                                                                                                                                                                                                                                                                                                                                                                                                                                                                                                                                                                             aibig#k#p$e&X&A-^ y>} B'B'4],-0&i a&y_j62/2/T/T/Q7{dz_A_):E*T;e&=*B*K!i{cidiFaz@Z$Hd~=0deifigihi0biiji9_3akiliminioipiqi                                                                                                                                                                                                                                    ",
"                                                              risitiO=uiviwixi=;6iyiziAi]}BiCiDi'] -b*^}[!&*k#5&E%-*D*6&=-A-E*5=B_y>I%)*A_A_4]4]/_/_J(J(EiEiEiEi0&0&0&0&0&0&0&0&0&0&,-,->*>*>*4]wawawawa4]q6q6q6z_O:#iFiGi                                                                                                                                                                                                                                                                                                                                                                                                                                                                                                                                                                                                                                                                                                                                                                                              HiIi}(!%#-%-*-=-E*^ y>} /{f.>*0&i i y_y_p)2/2/2/37Q7=&z_*&W1A-D*%-=*i'<8JiKi%{~{P>Li_!Mi24a6f8NiOiPiQiRi6[SiTiUiViWiXiYiZi                                                                                                                                                                                                                                  ",
"                                                            `i j.jj~+je(@j#j6f$j%j&jpc*jceb+`>(7b*C{E{A*B*=*p$-*e&-*D*o'p'q'r'5=I%} } B-f.4]>*>*/_/_/_/_mdmdmdmd0&0&0&0&0&,-,-,-0&,-,->*>*>*,-,-7g7gwa=jwawaq6A_)*)*q^-j;j                                                                                                                                                                                                                                                                                                                                                                                                                                                                                                                                                                                                                                                                                                                                                                                                >j,j'jZ8M%)j|!p'E*!:4/B'5]9(J(0&i x5v_9=H^p)5937Q7,f!jA_>5!:A-!*$-i&A*N#n<|&S]U5z<Y!f'f}_^a6L0I9N0$d~jYe{jXd]jOf^j/j(j_j:j                                                                                                                                                                                                                                ",
"                                                          <j[j*7e/}jt00aS|/1241_|_z:}&34|jK2N>,3P;b^a*i'**=*%--*-*-*|!o'q'r'N45=y>} } B-f.4]>*>*/_/_/_/_mdmdmdmd0&0&0&0&0&,-,-,-,-,->*>*>*>*>*,-7g7g=j=jAhAhf.>06=y1r11j                                                                                                                                                                                                                                                                                                                                                                                                                                                                                                                                                                                                                                                                                                                                                                                                    2j b3j4je^,(o'q'B_ae/{Ya5j9(,-44w.^_e.H^595937Q7,f!jq6A_W1B_5/9<$-p.i'%*x-q((1B{2e}&<&f}K06j7jB;8jW99j0jajbjcjdjejfjgjhjij                                                                                                                                                                                                                              ",
"                                                        jjkjlj|^F<~aR|a>h|K0L^N<#<u*2e$amjN>,3wer>o/%*i'-]S$e&-*D*D*o'p'E*5=&&&&y>} B-=%4]>*,-,-/_/_/_/_mdmdmdmd0&0&0&0&0&,-,-,-,->*>*>*>*>*>*>*=&7g=j=jAh5jf.7:6=s/8fnj                                                                                                                                                                                                                                                                                                                                                                                                                                                                                                                                                                                                                                                                                                                                                                                                    ojpj`{qjD1X]K[p'B_ae^{sc#iy0>*=&U)x5e.2/59595937>f,f=&z_>5W1E*=-!*p7/}^;a*o/];x*u}LbZ=<=Y0ee6jR|B;rjsjtj@6ujvjwjxj(ekeyjzjAj                                                                                                                                                                                                                            ",
"                                                      Bj[eCjT!8jF]R|6jq5{}I[(^#<w*J2LbK2g)x*we];o/s>A*B*,%S$e&-*T;T;p'q'E*&&&&8&} } B-=%4],-0&0&/_/_/_{dmdmdmdmd0&0&0&0&0&,-,-,->*>*>*>*>*>*>*>*=&z_wa=j5j#iYa^{/{=(Dj                                                                                                                                                                                                                                                                                                                                                                                                                                                                                                                                                                                                                                                                                                                                                                                                      EjFj^(qj91cgn;q;q'B_L(scT_#i4],-7$05a&2/59595937>f>fy_44,5>5&&E*=-5/%-/}i'%*^}w-x*XaM!Z=ggH[!7GjHjB;PbIjl05[JjKjLjMjNj^jOjPjQj                                                                                                                                                                                                                          ",
"                                                    RjSjTjW(UjVjWjc/ua{}v[f}<=u*-@LbL;g)q~{;];w-s>;$h#-]$-%--*D*p'p'A-E*!:W1):):} B-=%-.>*,-0&0&/_/_/_{dmdmdmdod0&0&0&0&0&,-,-,->*>*>*>*>*>*>*>*=&z_waK(y0#iscxaxa>.Xj                                                                                                                                                                                                                                                                                                                                                                                                                                                                                                                                                                                                                                                                                                                                                                                                        YjZj4j91cgC*K[o';4`jL(Ya5]4]>*7$05a&3759595959ffff!$>f=&A_):W1E*A--*%-N%@-/9^}L2v-a~F6d_ kY0G46j.kB;d7+kyc<3@k#k$k%k&k*kOj=k-k                                                                                                                                                                                                                        ",
"                                                    ;k>k,k'kg~g~X0h|K0nbf}l>T5*j$a)kg)x*{;];C{s>;$-$-],%%-e&D*T;p'q'E*E*!:W1):I%B-=%-.-.>*,-0&0&/_/_{d{dmdmdodQ70&0&0&0&0&,-,-,-4]>*>*>*>*>*>*>*z_z_K(K(y0#isc>.>.1j                                                                                                                                                                                                                                                                                                                                                                                                                                                                                                                                                                                                                                                                                                                                                                                                          !k~kqjD1cgC*K[|!o'!:L(/{5]4]>*L{7$i 3737595959!$!${kff44z_*&):5=E*F%-*$-^;i'/9^}L2O;p>-@<&ggY0{}B6WjF](]_]W3]k#6^h^k/k(k_k:k<k[k                                                                                                                                                                                                                      ",
"                                                  }k|k 6$[ta1k2k3k~}a/z:Z!z@-@34<!g)q~];r>b^a*%*-$i&#-%-e&-*5/=-A-A-B_!:W1W1I%I%4]4]4]>*,-,-0&0&/_/_{d{d{d{dQ7Q70&0&0&0&0&,-,-,-4]>*>*,-,-,-,->*>*4]4]4]K(5]4kGgz(5k                                                                                                                                                                                                                                                                                                                                                                                                                                                                                                                                                                                                                                                                                                                                                                                                            6k6c7k914=n;K[#/B_`j^{B'f.4]7=L{i i 3759p)p)5959!$ff44=&7=6=I%W1&&q'#/k'N%)3[!edx*Xa0~mb<&f}A<uaa>Wj#[+jB38k@k9k0kakbkckdkekfkgk                                                                                                                                                                                                                    ",
"                                                66hk16ikjkkkE_A:lk[&z:l>:&34Lbo%g),3{;w-b^a*%*i'(-p.$-%--*D*5/=-A-A-B_!:!:W1I%I%4]4]>*>*,-,-0&0&/_{d{d{d{d{dQ7Q70&0&0&0&0&,-,-,->*>*,-,-0&,-,-,-4]4]4]4]K(5]s_mknkok                                                                                                                                                                                                                                                                                                                                                                                                                                                                                                                                                                                                                                                                                                                                                                                                              pkGh-hi)C*n;K[q'B_L(/{B'f.I^7=i i 3759p)p)p)p)ffff/644L{I^)*I%;*5=o'X]#-N%B*3&C{%|O;p>-@u*f}L^75Gj0aqk+j$dIarksktkuk^kvkwkXixkyk                                                                                                                                                                                                                  ",
"                                              zkAk6_BksdUeCkDkEk1:u[D_]}r%o%b+L!q>{;r>s>=$;$-$j&`%{*G%c{9<!*5/=-J{y1y14/L(7:>0>04]4]>*>*,-0&0&0&{d{d{d{d{d{d{d{d0&0&,-,-,-,->*>*>*>*,-,-,->*>*>*f.0&/{f.,-sc4kFkGk                                                                                                                                                                                                                                                                                                                                                                                                                                                                                                                                                                                                                                                                                                                                                                                                                HkIk4j^.n'C*p;q'B_`jL(/{B'q6z_,-i 37595937ndnd5959!$ff44z_6=)*W1W1B_Jk|!C*N%)3[!n<%|ba|=2eZ!z:#5KkLkUcMkNkOkg/[dPkTiQkRkSkTkUkVkWk                                                                                                                                                                                                                ",
"                                            XkYkZkuh0c`k^1 l.l+lm-9/}&@lo%B{L!a^{;]9o/a*;$-$(-i&{*G%c{&-!*5/=-A-J{y1y14/L(7:>0>04]4]>*>*,-0&0&0&{d{d{d{d{d{d{d{d0&0&,-,-,->*>*>*>*>*,-,-,->*>*>*B'0&f.f.f.8fn8#l$l                                                                                                                                                                                                                                                                                                                                                                                                                                                                                                                                                                                                                                                                                                                                                                                                                  %l3jD1i)n;K[p'q'y1`j^{/{>0q6,-0&37375937]d]d5959!$ff/6=&I^6=)*):W1B_5/p7$-N%A*h)C{%|N>$a}&#<Ga$8a6;6&l*lKf=l!i[d-l;l>l,l'l)l!l~l{l                                                                                                                                                                                                              ",
"                                          ]l^l/l(l_l:l<l<a$j[l}l%1Y!z<o%O>S]1&@=r>o/=$j&|(`%`){*(58]9<5/~*8<y1y1y1y1`jL(7:7:B'B'4]4]>*>*,-0&0&0&{d{d{d{d{d{d{d{d,-,-,-,-,->*>*>*>*>*,-,->*>*>*4]T_8(4]B'xayfmk|l                                                                                                                                                                                                                                                                                                                                                                                                                                                                                                                                                                                                                                                                                                                                                                                                                    Eh1l2l^.K[C*|!o'J{y1A'^{7:>04],-{d373737]d]dPcPcp)59a&0&>*q6q6A_7:ae_*3lp74=^;#a/9^}];g)o%]}4l5l,eU16l7l8lHc=l9lvd0lSgalblcldlelflgl                                                                                                                                                                                                            ",
"                                        hlilWfjlVjklllw0eemlnlolpl8/o%beS]a^@=x-s>a*j&(-`%`){*G%6]9<!*5/8<--y14/y14/`jL(7:>0B'f.4]4]>*>*,-,-0&0&{d{d{d{d{d{d{d{d,-,-,-,-,->*>*>*,-,-,-,->*>*>*K(s_Ei5]/{ya8gmkql                                                                                                                                                                                                                                                                                                                                                                                                                                                                                                                                                                                                                                                                                                                                                                                                                    rlslL7;cp74=|!o'$!J{O:A'7:>0f.>*/_Q7Q737]dPcPcPcp)p)e.i ,-,-=&q6>07:!:_*9<X]#-N%B*/9C{{;S]|jtl4lSe,e<a6lUe8lO0,g5[ujulvlwlxlylzlAlBlCl                                                                                                                                                                                                          ",
"                                      DlElFl[^(]taHj^]uaGlHlIlb(a(O(U5S]7/q(./o/=$Y%Z%`%kb ]Jlh_9$G/~*8<$!J{y14/`j`j^{/{scYa5]5]K(wawawa/_/_{d{d0&0&0&0&0&0&0&0&,-,-,-,-,->*>*>*,-,-,-,->*>*4]K(5jAhscxaxas_ChKl                                                                                                                                                                                                                                                                                                                                                                                                                                                                                                                                                                                                                                                                                                                                                                                                                      LlMlNlcgX]#/|!$!J{^%`j7:>0B'4]wa{d{dQ7]dPcPcPcPcPc5937i 0&,f7gA_7:L(Ol~d,(p7i)N%=5s>./q(a^Lbw*4'nbOb5'Plj9ik|^Ql5[-aRlSlTlUlVlWlXlYlZl                                                                                                                                                                                                        ",
"                                    `l m.mk-^8+mCkT(@m;;Miu[Z!@<8/0( /(1&(__x-s>Y%j&|(`%a2 ]h_9$G/] ~*8<J{J{y14/L(L(^{/{YaYa5]5]K(wawawa/_/_{d{d0&0&0&0&0&0&0&0&,-,->*>*>*>*>*>*,-,-,-,->*>*4]K(5j#m$mscxas_%m                                                                                                                                                                                                                                                                                                                                                                                                                                                                                                                                                                                                                                                                                                                                                                                                                        &m*m=mi]p7#/!*$!J{^%`j7:>0B'f.wa/_{dQ7nd]dPcPcPcPcp)37i 0&{d7gA_>0>0L(_*~d#/p7$-@-s>x-./P;O>#*Y=f}F;-m2c;m8lik>mh2{e#6,m'm)m!m~m{m]m^m/m                                                                                                                                                                                                      ",
"                                  (m_m:mf(J|d><m#j[m}m{=_!Y^|m!]k,1m2mJ8q(./^*y-|(|(kba2[(Jl9$G/] ~*8<--J{y1y14/^{^{/{/{Ya5]5]5]wawawawa/_/_/_{d,-,-,-,-,-,-,-,->*>*>*>*>*>*>*>*,-,-,-,->*>*4]K(3m3m,d,dyaza                                                                                                                                                                                                                                                                                                                                                                                                                                                                                                                                                                                                                                                                                                                                                                                                                            4mL7Z85m8]!*y=$!^%`jy>)*B'f.K(wa/_{dod]d]dPcPcPcH^2/T/Q7{dwaQdQdA_A_!:_*!*|!e&p.6m7mx-./f_8m9mZ!d[F;<aLk400m|^~jiaam9kbmcmdmemfmgmhmimjm                                                                                                                                                                                                    ",
"                                kmlmqa'b0m6'mmnmompmqmrmP_p%z]z@n/:_{9q(__x-y*Y%`%`%a2 ]Jlh_G/] ] y=--J{y1y14/4/^{^{/{/{Ya5]5]5]wawawawa/_/_/_{d,-,-,-,-,-,-,-,->*>*>*>*>*>*>*>*,-,-,-,->*>*4]K(smKcKcsmyftm                                                                                                                                                                                                                                                                                                                                                                                                                                                                                                                                                                                                                                                                                                                                                                                                                            um,0L75m8]9<5/;4J{^%y>7:B'f.4]wawa/_Q7nd59]dPcPcH^2/T/U/{dwa5]Qdz_q6I%B_!*!*-*$-@-~0x-./N(vmQ]p~/^m>eeB6R|e78jwmxmymzmzcAmBmCmDmEmFmGmHm                                                                                                                                                                                                    ",
"                              ImJmKmLmN^~aCkd(#jMmNmOmPmpla(z<0(:_QmRmSm]4y*04Z%`%`%[(Jl9$G/] ~*)/_(p^O:A'A'A'^{^{/{f.f.f.4]4]>*>*>*,-,-0&0&0&0&,-,-0&0&0&,->*4]wawawawawawa/_/_wawawawawawaK(q6Tmy5`jAhUmVm                                                                                                                                                                                                                                                                                                                                                                                                                                                                                                                                                                                                                                                                                                                                                                                                                              WmI&Xmcgn;K[T;=-J{`j^{7:>0A_q6z_=&44>fe.59p)p)p)p)p)59YmZmJ(wawa6g>07:B_;4#/cgp.j&~0x-b^q~O>~{ %r6N<v[C]9d`md7wmk0 n.n+n@n#n$n%n&n*n=n-n                                                                                                                                                                                                  ",
"                            ;n>n,nEdg1:5X/d('n@m)n!n>h~nbh{n]n1mQm^n/n]4^*y-04|(`%`)[(h_9$G/~*y=r/>(O:A'A'^{^{^{/{B'f.4]4]4]>*>*>*>*,-,-0&0&,-,-,-,-0&0&0&,->*4]wawawawawawa/_/_wawawawawaK(K(q6(@n+L((n_n                                                                                                                                                                                                                                                                                                                                                                                                                                                                                                                                                                                                                                                                                                                                                                                                                                :n<n[n(5C*v%q;6&_*`j^{I%)*A_q6z_=&44/6e.e.p)p)p)p)p)59}nZm8(J(wawaA_>0!:_*o'p7#-(-6ms>^}|&mjB{#*V#Z^;@|6C]|n1n2n3n4n5n6n7n8n9n0nanbn*ncndn                                                                                                                                                                                                ",
"                          enfngn$e,2d/X/;2Ichnin1:m-jnknah]n1m:_^n/n]4^*y-Y%Z%|(a2 ]Jlh_G/] ~*$!p^O:O:A'^{/{/{/{/{B'f.4]4]4]>*>*,-,-,-,-0&,-,-,-,-,-0&0&0&,->*>*wawawawawawa/_/_wawawawawaK(K(A_N4)5/{9fln                                                                                                                                                                                                                                                                                                                                                                                                                                                                                                                                                                                                                                                                                                                                                                                                                                  mnZjM%C*v%q;T;_*^%`jy>I%A_q6q6z_44/6a&e.p)p)p)p)p)59}nYmU/8({d/_q6A_):!:p'|!X]91@-%*h)w-q>K^L;r%V#/^{]{7=3f7nnon|^~jpnw7AmBmqnrnUhsntnunvn                                                                                                                                                                                              ",
"                        wnxnynznAn[^BnX/{:Ic-2s7Q=Q(plCn]n1m2mC|DnSm^*y*Y%j&|(`%(5(5h_9$] ~*8<J{O:O:A'^{/{/{B'B'B'f.4]4]4]4]>*>*,-,-0&0&0&,-,-,-,-,-0&0&,-,->*>*wawawawawawawa/_wawawawaK(K(5]A_M2;*/{.gEn                                                                                                                                                                                                                                                                                                                                                                                                                                                                                                                                                                                                                                                                                                                                                                                                                                  Fn%lZ8cgn;K[T;p'_*`jy>I%>0A_q6z_=&44a&a&59p)p)p)p)59}nYmU/U/{d/_z_q6>5W1r'o'#/X]N%^;Q;^}{;q~g)~{r% %r6{]GnHn7j>1%[%aInJnKnvjLnubliMnNnQfOnPn                                                                                                                                                                                            ",
"                        QnRnSns0Tnd4J1A3UnA:_51:q%jno~O(Vn:_Wn^n/nSm^*y-j&(-a2 ]6]6]9$] ~*8<J{y1O:O:A'^{/{/{B'B'B'f.4]>*>*>*>*,-,-0&0&0&0&,-,-,-,-0&,-,-,-,->*>*/_wawawawawawawawawawawaK(5]5]A_>5y18fXn                                                                                                                                                                                                                                                                                                                                                                                                                                                                                                                                                                                                                                                                                                                                                                                                                                      YnE0(5%-K[D*o'_*B_4/y>7:>0A_q6z_=&i a&5959p)p)p)p)}nYmQ7Q7{d{d=&z_*&):!:_*o'#/cg/}85^9L8];1=O>~{`!:&(^H[Zn`ne7F<lc om}@6.o+o@oub#o$o%o&o*o=o                                                                                                                                                                                          ",
"                      -o;o>o,o'o)oBnA3Ic#|oc1:Iljnpl$1]n1m2m^n!oSm]4y*Y%(-i& ](58]8]G/~*8<--y1y1O:A'A'^{/{B'B'B'f.4]>*>*>*>*>*,-,-,-0&0&0&0&0&,-0&0&,-,-,-,->*>*/_/_wawawawawawawawawaK(K(5]YaB'7=^%,4~o                                                                                                                                                                                                                                                                                                                                                                                                                                                                                                                                                                                                                                                                                                                                                                                                                                      4m{oi]X]n;-*D*=-_*y14/7:>0>0A_z_=&0&i 3759p)p)p)p)}n}n37Q7Q7Q744=&,5*&):!:q'o'#/X]N%]o93L8{;(1R]~;r%Z!a/{}:^WjqkJ|^o o9l{eY3@n/o(o_o:o<o[o}o|o                                                                                                                                                                                        ",
"                    fn1o2o3o4o5oc46od2hninS4a1jn){a47oP<C_^n!o8o2=9oM4^.kba2(56]G/G/s/y=p^K&q/q/A'A'^{/{B'f.f.f.f.4]>*>*>*>*,-,-,-,-,-0&0&0&0&0&0&0&,-,-,-,-,-,-/_/_wawawawawawawawaK(K(K(5]YaYaf.xa0o                                                                                                                                                                                                                                                                                                                                                                                                                                                                                                                                                                                                                                                                                                                                                                                                                                        ao{5Nl6]p7K[q;o'=-y14/L(7:>0A_q6z_0&i 3759p)p)p)p)bo}n59373737/644=&q6>5):!:_*5/|!i)-5R9~0x-1=S]b+o%]}z:nbc(aaCkcodoeofoG<goW4qgZcwdhoiojokolo                                                                                                                                                                                        ",
"                  monoooS7po8|)of1Y6I1-2_5)n>hP(a4O(^<$*Wn!o8o7m9oM4^.z-a2 ](56]G/] y=$!p^K&q/q/^{^{/{B'f.4]4]4]f.4]>*,->*>*,-,->*,-,-0&0&0&0&0&0&0&,-,->*>*,-,-/_/_wawawawawawawawaK(K(5]5]YaYat_qoro                                                                                                                                                                                                                                                                                                                                                                                                                                                                                                                                                                                                                                                                                                                                                                                                                                          M7soM%X]e&K[o'p'B_4/L(7:>0A_q6z_0&0&375959p)p)p)tobo59595959y_/644=&,5>5W1!:A-5/p7uo=5R9o/__7/S]R]z<D_W/S(c(65vowoc>7'xoyozmbjzoAoBoCoDoEoFoGo                                                                                                                                                                                      ",
"                HoIoJoKoLoMod/e2{:No-2;;b1a1M]){X2R_$*C|DnSmOo9oPoQo^.[6i]M%7]$/s/y=$!J{K&K&A'^{^{^{/{B'B'f.f.4]>*,-,-,-,-,-,->*,-,-0&0&0&0&0&0&0&0&0&,-,->*>*>*wawawawawawawawawawaK(YascscYa5]GgRo                                                                                                                                                                                                                                                                                                                                                                                                                                                                                                                                                                                                                                                                                                                                                                                                                                            SoToC1z-e&-*n;p'_*y1`jL(7:>0q6z_,-0&Q7Q7373759p)H^H^p)p)5937a&i /644z_A_):!:_*;4,(e^[6^.y-8o&(2mU5o%z<@<UoS(@m#jVoWo1hXoYoZo`o p.p+p@p#p$p%p&p*p                                                                                                                                                                                    ",
"              =p-p;p>p,p'p)pBn!pB2Ek;;1:a1jn:=O(R_P<C|Rm/n]49oPoM4^.z-91M%5m$/~ps/y=J{y1K&K&A'^{^{/{/{B'B'f.4]4]>*,-,-,-,-,-,->*,-,-0&0&0&0&0&0&0&0&0&,-,->*>*>*wawawawawawawaK(5]5]5]5]Yascsc4k(n{p                                                                                                                                                                                                                                                                                                                                                                                                                                                                                                                                                                                                                                                                                                                                                                                                                                              pjx=0hX]e&n;p'=-J{`jL(L(>0q6z_>*,-{dQ7373759p)H^H^p)p)5937a&i /644z_q6>5W1B_;43l)j91z-j&y*g_&(7/ /Q]8/D_R(Mm]p^p/pta(p_p:p<p[p}p^e|p1p2p3p4p5p6p                                                                                                                                                                                  ",
"              7p;p8p9p0pap55A3@[hnl<b1bp_!Q_F17oe$C_=2Smcp=:3=+=;c0hi]M%5m7]s/y=w:>4>(O:O:A'^{^{/{/{/{B'f.f.4]4],-,-,-,-,-,-,-,-,-,-0&0&0&0&0&0&0&0&0&,-,->*>*>*wawawawawaK(K(K(YaYa5]5]Yascxa8gdpep                                                                                                                                                                                                                                                                                                                                                                                                                                                                                                                                                                                                                                                                                                                                                                                                                                              fpgpbi ]X]e&|!=-J{^%`jL(7:A_q6>*,-{dQ7Q73759p)p)p)p)p)59593737/644=&z_q6>0`jhpJk3le^-hkbQoy*8o__J8 /I88/b(ip$4jpkp<^2nlp!cJnYempH5Slrgvk$onpopppqp                                                                                                                                                                                ",
"            rpsptpupvpwpxpypIcG;-2K:O_>hM]o~X2^<C_&(/n]4=:3=+=+-0h7kM%5m7]$/y=y=>4zpO:A'A'A'^{/{/{/{B'B'f.4]4]>*,-,-,-0&0&,-,-,-,-0&0&0&0&0&0&0&0&0&,-,-,-,->*>*wawawawaK(K(K(K(YaYaYaYaYascyayfAp                                                                                                                                                                                                                                                                                                                                                                                                                                                                                                                                                                                                                                                                                                                                                                                                                                                BpH6Cp7kcg-*|!y=$!zp^%`j7:>0q6>*>*{d{dQ7Q73759p)p)p)p)59593737/6/64444=&A_7:`jB_cf)jDpa2kbj&y-%___7/ /Q]<_%1ipEp-2;2F]>gIjFp9bQ0.oGpHpIpJpKpLpMpNpOp                                                                                                                                                                              ",
"          PpQpRpSpTp43+5UpVpB2!}%(bpP_Wpa4O(T$C|XpDnYpI,3=vcNd}(7ki]5m7]$/~pw:>4>4zpA'A'^{^{scsc/{B'B'f.4]4]>*>*,-,-0&0&0&0&,-,-0&0&0&0&0&0&0&,-0&0&,-,-,-,->*>*wawawawaK(K(K(K(5]5]YaYaYascyazaZp                                                                                                                                                                                                                                                                                                                                                                                                                                                                                                                                                                                                                                                                                                                                                                                                                                                  `px=*)M%#/#/y=$!zp^%`jL(>0A_4]>*/_{d{dQ737595959p)p)5959593737Q7i i 44z_>0L(!:;4$/5m(5a2|(j&Z)./1&S]R]z<P(u[;@ qlk{:f1V(f2:]8kx4V4.q+q@qJp#q$qQf%q&q                                                                                                                                                                            ",
"        7p*q=qw4wf8|-q;q>q,q-2d1O_&0_&o~$1n/C_&(Dn/ncp'q3=+=Nd}(i]M%7]$/~p~d>4zpzp^%A'^{^{^{scYaB'B'f.f.4]>*>*>*,-0&0&0&0&0&0&,-0&0&0&0&0&0&,-,-,-,-,-,-,-,-,-,-wawawawaK(K(K(5]wa5]YaYaYaxat_9f)q                                                                                                                                                                                                                                                                                                                                                                                                                                                                                                                                                                                                                                                                                                                                                                                                                                                  !q~qNli]9<9<s/y=>4zp^%`j7:>0f.4]wa/_{d{dQ73759595959595959593737i i 44z_A_>0W1B_~d$/8](5`)|(;$%_<)7/L!R]8/e){q]q_5^qUp/q(q_qj~5nmpAm:q<q[q}q|q1q2q3q4q                                                                                                                                                                          ",
"      5q6q7qyc8q9q0qaqF4'n@mc1G1X>bqWpa4cqP<C|q(/nSmz*3=r&Nd}(A(M%5m$/~pdqW]zp^%^%`j^{/{scscT_T_B'B'f.4]4]>*>*,-0&0&0&0&0&0&0&0&0&0&0&0&0&0&,-,-,-,-,-,-,-,-,-,-wawawaK(K(K(5]5]K(5]YaYaYaxaw/64                                                                                                                                                                                                                                                                                                                                                                                                                                                                                                                                                                                                                                                                                                                                                                                                                                                    eqfqE0qj7]7]K{s/>4zp^%`j7:>0f.4]wa/_/_{dQ73759595959595959595937Q7{d0&,-4]A_):!:_*~d] h_{*|((_=$P;<)a^(1%]z]#;gqb[hqiqjqkqlqmqnqoqpgpqqq`crqsqtquqvqwq                                                                                                                                                                          ",
"    xqyqzqh2>mAqBqCqd(Dq2_@mb1_!EqWpP>m<P<C_q(]4SmOo=:vcQ w9A(Z8<(7]s/~d>4zp^%`j^%`j^{/{scscT_T_B'f.f.4]4]>*,-,-0&0&0&0&0&0&0&0&0&0&0&0&0&0&,-,-,-,-,-,-,-,-,-,-wawawaK(y0#if.f.A_>0U]QdYa8fQ3                                                                                                                                                                                                                                                                                                                                                                                                                                                                                                                                                                                                                                                                                                                                                                                                                                                         bso6c5m6]K{s/w:>4zp`jL(>0f.4]wa/_/_{dQ73759595959p)5959595937Q7{d0&,->*4])*W1y1$!~*G/{*`%`)B(D%@=@=1=e$N;Fq0>MiGqHq'{IqJq)!7'><KqLq1aMqNqOqPqQqRqSqTqUq                                                                                                                                                                      ",
"  VqWq;pRpv4wfXqvhT1#j@m_5)na1P_LiYqS#p($_DnSmI,I,3=vc;c0hqj#1Zqf5x:=(>4>(>(O:O:A'^{^{/{B'B'f.f.4]4]4]>*>*>*,-,-,-,-0&0&i i i i /6/6/6/6/64444=&,-,->*>*>*,->*K(`q`q=jy0z0r^]{6=b%Tm r.rscZ1+r                                                                                                                                                                                                                                                                                                                                                                                                                                                                                                                                                                                                                                                                                                                                                                                                                                                        @r#rbi[6%-9<s/y=$!J{y14/I%A_q6z_z_z_=&/6y_Q737373759595959p)595937Q7{d/_wa4]A_/{`jJ{y=G/9$ ]`%04%_g_q(|~T$u-:!%1{=$r%rV_a<N^}jhabc&r*r=r-r;r%k>r,r'r)r!r                                                                                                                                                                      ",
"  ~rRn{r]r^rBq/rT1l-@ms7b1bp%1WpYq3:p(|~(r/nI,'q3=vc;c0hqj4jZq_r!)=(=(_(>(O:O:O:A'^{/{/{B'f.f.f.4]4]4]>*>*,-,-,-,-0&0&0&i i i i /6/6/6/6/644=&=&,->*>*>*>*,->*6g`q:r=jy0<r[rS~< a%}r|rV]5j1r2r                                                                                                                                                                                                                                                                                                                                                                                                                                                                                                                                                                                                                                                                                                                                                                                                                                                          &e3j[64=9<K{y=y=$!J{4/y>>0A_q6q6z_=&44/6Q7Q7373737595959p)p)5937Q7{d/_/_4]f.B'^{J{y=] G/6] ]|(3r%_g_Xp|~R_O(){M]a1a[NoY6d/9qU4&;C34r|55r6r7r8r&nnh9r0rar                                                                                                                                                                    ",
"brRncrdr^r8|erT1Dkfrb[1:a1%1){$1m<p(|~=2YpI,=:vc+=+-7ki]gr2lf5x:=(=(_(>(O:A'A'A'^{^{/{B'B'f.f.f.4]4]4]>*>*,-,-,-,-0&0&i i i i i /6/6/6/64444=&=&,->*>*>*>*,->*7g`q`qway0<r[rS~< hrir-eefGgD/                                                                                                                                                                                                                                                                                                                                                                                                                                                                                                                                                                                                                                                                                                                                                                                                                                                            jrIk[6$-8]K{s/y=$!J{4/y>7:>0A_q6q6z_=&44Q7Q7373737595959p)p)595937Q7{d/_>*4]f./{K&r/y=s/9<6]`)|(;$Z)g_=2e$R_$1o~%1b1hn57X/:5f(krlrmrnr|5orprqrckrrsrtrurvr                                                                                                                                                                  ",
"wr{rxryr8|er-6l-@mMmMi>hjno~$17oN:$_=2g_I,'qvc+=+-a2i]M%2lzrx:w:_(_(>(O:A'^{^{^{^{/{/{B'f.f.f.f.4]4]>*>*>*,-,-,-0&0&0&i i i i i /6/6/6/64444=&=&,->*>*>*,-,->*>*7g`qwa9&[r[rS~6=ArBrCrDrErFr                                                                                                                                                                                                                                                                                                                                                                                                                                                                                                                                                                                                                                                                                                                                                                                                                                                            GrHr;cX]5m0*K{s/y=$!y14/L(7:A_q6q6z_=&44Q7Q7Q73737595959p)p)595937Q7{d{d,->*4]B'x>K&$!$!5/9<G%`)h#;$Z)g_1&Y$n/$1Q_&0s7hnIcX/`5O^6_IrJrKrLrMr@oNrOrPrOrQrRrSr                                                                                                                                                                ",
"TrUrBqBqD<-6Dk'nb[1:q%jn){P>R_$*$_=2YpI,'q3r+=+-0h7kM%5m_rf5w:>4>(>(O:A'^{^{/{/{/{/{B'f.f.f.f.f.4]4]>*>*,-,-,-,-0&0&i i i a&i i /6/6/6/644=&=&z_,->*>*>*,-,->*>*7g7g>*9&[r[r]{6=*&:6Vr'dWrXr                                                                                                                                                                                                                                                                                                                                                                                                                                                                                                                                                                                                                                                                                                                                                                                                                                                              YrZr7]#1<(0*K{s/y=J{y1L(7:A_q6z_z_=&44{dQ7Q73737595959p)p)p)595937Q7Q7{d{d>*f./{A'y1J{8<] c{G%`)`%04y*x-__C|U5y:P(Mib[lkT(BnI|O^16Ir`r s.s+s@sNj#s$s%s&s*s=s                                                                                                                                                              ",
"]rTpuiD</rl-ocMm1:&0jna4P>m<$*C|^4g_I,'q3rZ%+-kb7ki]5m7]f5x:w:>4>(>(O:A'^{/{/{/{/{B'B'f.f.4]4]4]4]>*>*>*,-,-,-,-0&i i i a&a&a&a&/6/6/6/644=&z_z_>*>*>*>*,-,-,->*7g7gQ$9&[rw%=%=%>0{bDr-s;s                                                                                                                                                                                                                                                                                                                                                                                                                                                                                                                                                                                                                                                                                                                                                                                                                                                                *m[nZq#1#10*0*K{s/$!J{`j7:A_q6q6z_=&=&{d{dQ7Q737595959p)p)p)p)593737Q7Q7Q7,-4]B'/{4/4/--8<&-#!G%{*|(04=$x-q(C_n/:=>h1:b[#|f|d/g1U4>s,s's)s!s~s^i{sbn]s^s/s(s                                                                                                                                                              ",
"Tp8|ervh_sfrb[1:a1jn:=X2^<:s<sDncpI,3r04+=+-kba2Z8#10*K{x:w:>4zp>(O:O:A'^{/{/{/{B'B'f.f.4]4]4]4]4]>*>*>*,-,-,-0&0&i i a&a&a&a&a&/6/6/6/644=&z_z_>*>*>*>*,-,-,->*z_z_x%w%w%w%=%=%L(gb[s}s                                                                                                                                                                                                                                                                                                                                                                                                                                                                                                                                                                                                                                                                                                                                                                                                                                                                    %l^(Nl#1<(0*K{s/$!J{^%L(>0A_q6q6z_z_{d{dQ7Q737595959p)p)p)p)5959373737370&>*f.B'y>y>4/J{~*G/8]6]a2+-Y%y*!oC|1m$1jnQ=Mi|sA:-6d/L6$eRp1sE52s=r3s4s5s6s]s7s8s9s                                                                                                                                                            ",
"BqD<vhl-fr0s)n&0%1WpP>m<:sas(r/nI,'q04Z%+-kba2 ]#1<(K{s/x:w:zp^%>(>(O:A'^{/{/{/{B'B'f.f.4]4]4]4]>*>*>*>*,-,-,-0&i i i a&a&a&a&a&/6/6/64444=&z_z_>*>*4]>*,-,-,->*z_>*O@w%w%w%=%f.yabscsds                                                                                                                                                                                                                                                                                                                                                                                                                                                                                                                                                                                                                                                                                                                                                                                                                                                                    esfsE0#1<(0*0*s/y=J{zp`j7:A_A_q6q6z_{d{dQ7Q7375959p)p)p)p)p)p)5959375937i ,-4]B'I%y>y>y18<] 9<8](5a2`%j&^*!oC_Vna4jna1)n-2Unf1uik}gshsisjs+3kslsmsnsospsqsrsss                                                                                                                                                          ",
"ui/r57@mb[1:q%jnQ_ts7op(as(rYpI,3=vc+=+-kbkbi]M%0*K{s/y=w:>4zp^%O:A'^{/{B'B'B'B'f.f.f.4]4]4]>*>*>*>*>*>*,-,-,-,-0&i a&a&a&i a&a&/6/64444=&z_z_q64]>*>*,-,-,->*>*>*>*-.-.-.=%B'/{scusvsws                                                                                                                                                                                                                                                                                                                                                                                                                                                                                                                                                                                                                                                                                                                                                                                                                                                                    xsH6v9<(0*0*<(0*s/$!>4^%L(7:>0A_q6z_/_{dQ7Q7373759p)59p)p)p)p)p)p)p)593737{d,-4]>0>0y>4/J{$!y=K{9$6] ]z-M4ys!o{90(CnjnQ=;;hnNoA6H|zsS7}c _AsBsI5Cs4sDsEsFsGsHsIs                                                                                                                                                        ",
"/rJs'nMm)n&0%1Wptscqp(|~<sDncp'qvc+=+-kba2 ]M%5m0*K{y=y=>4>4zp^%A'A'^{/{B'B'B'B'f.f.f.4]4]4]>*>*>*>*>*,-,-,-,-0&0&i a&a&a&i a&a&/6/64444=&z_z_q64]>*>*,-,-,->*>*>*>*-.-.-.=%B'xas_KsLs                                                                                                                                                                                                                                                                                                                                                                                                                                                                                                                                                                                                                                                                                                                                                                                                                                                                        L.E0Z8<(0*0*0*s/y=>4zp`j7:>0A_q6q6/_{dQ7Q7Q737595959p)p)p)p)p)p)p)595937Q7,->*A_>0I%y>4/J{$!y=G/9$6]a2QoPo]4RmP<0(a4jnbps7,qb4MsBqNsOs3oPsQsRsSsCsTsUsVsWsunXsYs                                                                                                                                                      ",
"57fr_51:a1%1Q_t*7op(|~(r/n]4y*Y%+-kba2 ]#1#10*K{K{s/y=$!>4zpO:O:A'^{^{/{B'B'B'B'f.f.f.4]4]4]>*>*>*,-,-,-,-0&0&0&0&i a&a&i i i a&/6/64444=&z_z_z_4]>*>*,-,-,->*>*Q$Q$4]4]I^6=/{>.z(zfZs                                                                                                                                                                                                                                                                                                                                                                                                                                                                                                                                                                                                                                                                                                                                                                                                                                                                        `s t*)#1<(0*K{s/s/>4zp`jL(7:>0A_q6/_/_{dQ7Q7Q7375959p)p)p)p)p)p)p)p)p)5937{d/_4]4]f.B'^{A'K&p^)/s/$/5m7k.tPo+t^n:_]na4P_bp@tG[V_c4fa_0kr#t$t%t!1&t*tof=t&o-t;t>t                                                                                                                                                      ",
"-2s7Mi>hjnWptscqp(|~Dn/n]4^*Y%(-kba2 ](5<(0*K{s/s/y=$!J{zpzpO:A'^{^{/{/{B'B'f.f.f.f.4]4]4]>*>*>*,-,-,-,-0&0&0&0&0&i a&a&i i i i 444444=&=&z_z_z_4]>*>*,-,-,->*>*Q$Q$4]4]I^>0/{8fY1,t                                                                                                                                                                                                                                                                                                                                                                                                                                                                                                                                                                                                                                                                                                                                                                                                                                                                          't{oZ8Z8#1<(K{s/K{w:>4^%`jL(7:A_q6wa/_{d{dQ7Q7375959p)p)p)q7q7q7p)q7p)p)59Q7{d,->*4]f.B'/{x>K&p^r/s/7]M%0hQo9oSm^n$*]no~P_X>K:Vp)tMkd>wfgs'a$t!tj1Mq~t#o_k{t]t^t/t                                                                                                                                                    ",
"a[A2q%jn){P>m<:s<s(rSm]4^*y--$i&a2i]#1<(<(0*s/y=y=$!zp^%O:O:A'^{^{/{/{/{B'B'f.f.4]4]4]4]4]>*>*>*,-,-,-,-0&0&0&0&0&i i i i 0&0&i 4444=&=&=&z_z_z_4]>*>*,-,-,->*>*9(9(4]f.A_>0^{(tFi_t                                                                                                                                                                                                                                                                                                                                                                                                                                                                                                                                                                                                                                                                                                                                                                                                                                                                            :tZ8#1Z8#1K{s/K{w:>4zp^%`jL(>0A_K(wa/_{d{dQ7373759p)p)p)q7q7q7q7q7q7p)5937Q7{d/_>*4]f./{/{A'O:>(w:x:5mi]0h.t2=<t^n$*cqo~Eq[t%r}tf|P=D<xr[c|t1t2t3a3tub4t5t6t7t8t9t                                                                                                                                                  ",
"A2&0jno~P>m<0t<sDn/n^*y*y-Y%h#p.a2i]#1<(0*K{s/y=$!J{^%^%A'A'A'^{/{/{/{/{B'B'f.f.4]4]4]4]4]>*>*>*>*,-,-,-,-0&0&0&0&i i i 0&0&0&0&=&=&=&=&=&=&z_z_4]>*>*,-,-,->*>*9(y0f.>0>0L(t_za3c                                                                                                                                                                                                                                                                                                                                                                                                                                                                                                                                                                                                                                                                                                                                                                                                                                                                              at*)#1Z8Z80*K{K{x:w:>4zp^%L(>0A_K(K(/_/_{d{dQ7375959p)q7q7q7q7q7q7q7q7p)5937Q7{d,->*f.B'/{^{A'O:>4w:7]5mi]0hPo2=/nWn^<L:Wp$cbtctVpb4dtet1igsftgthtitjtkt_eltmtntotpt                                                                                                                                                ",
">hjn:=O(7oP<<sDnN[qty*Y%Y%j&B*#- ]M%<(0*K{s/y=$!$!J{O:A'A'A'^{/{B'/{/{/{B'B'f.4]4]4]4]4]4]>*>*>*>*>*>*,-,-,-,-0&0&i i i 0&0&0&0&=&=&=&=&=&=&=&=&4]>*>*,-,-,->*>*y0#iYaU]7:`jJ&54rt                                                                                                                                                                                                                                                                                                                                                                                                                                                                                                                                                                                                                                                                                                                                                                                                                                                                              sttt#1Z8Z8<(K{0*x:w:>4zp^%`j7:A_5]K(wa/_/_{dQ7375959p)q7q7q7q7q7q7q7q7p)5937Q7Q7{d/_K(5]f.B'^{A'^%>4x:_r5mi]+-Po^*/nC_^<P>ut[tvtwt)}ypxtL6v4ytccztKnAtBtCtkeDt7tntEtFt                                                                                                                                              ",
"M]o~$1m<^<$*(r/nqt=:Y%j&j&(-p.$-M%5m0*K{s/y=$!J{J{y1A'A'A'^{^{/{B'B'/{/{B'B'f.4]4]4]4]4]>*>*>*>*>*>*>*>*,-,-,-,-0&i i i 0&0&0&0&=&=&=&=&=&=&=&=&4]>*>*,-,-,->*>*K(5]U]Gt>e`jJ&Ht                                                                                                                                                                                                                                                                                                                                                                                                                                                                                                                                                                                                                                                                                                                                                                                                                                                                                  Itv9#1Z86]8]6]s/y=>4>4zp`j7:>0f.K(>*/_/_{dQ7375959p)q7q7q7q7q7q7q7q7p)5937Q7Q7Q7/_waK(f.B'/{^{`jzpw:x:7]M%kb+=Y%^*q($*m<2:$c$rJtKtLtMt)of(e/NtOtztPtQt4bRtStDtTtUtVt                                                                                                                                              ",
"t*L:m<p(N:<sDnSm=:vc+-+-+-kb(57]7]f5f5x:=(_(_(_(O:O:O:A'L(L(L(7:scscscYaYa5]f.f.f.f.4]>*>*>*-.-.q6z_z_z_=&=&=&44=&44444444=&=&=&=&=&=&=&=&=&=&44z_z_,-,->*>*4]K('dJdWthp>5>0-ck7                                                                                                                                                                                                                                                                                                                                                                                                                                                                                                                                                                                                                                                                                                                                                                                                                                                                                  XtYtu9 ]S$4&E%X&~*r/>(J&{bL(Gf>0q67==&4444/6y_i a&9=9=q7q7d%d%d%d%d%q7q7p)5937Q7{d/_wawa5]Ya^{O:K&J{$!s/0* ]kb^.Qo~0RmQmZt`t uO_Ep.u+uMs@u,kRp#u`g$uX4%u&u*u=u-u;u>u,u                                                                                                                                            ",
"O#S#N:$_(rDnSm^*3=vc+-kb0h7k5m$/f5f5x:w:_(_(_(_(O:O:A'A'L(L(7:7:scscscYaYaYaf.f.f.f.4]>*>*>*-.-.q6q6z_z_=&=&=&=&=&=&444444=&=&=&=&=&=&=&=&=&=&44=&=&,-,->*>*>*K(Drfd'u rW1zpi7)u                                                                                                                                                                                                                                                                                                                                                                                                                                                                                                                                                                                                                                                                                                                                                                                                                                                                                    !u^((5u%l#&%F-~*r/_(J&{bae>e)*6=I^7==&=&44/6i a&e.9=p)q7d%d%d%d%d%q7q7p)595937Q7{d/_waK(Yasc^{q/y1J{y=K{6] ]z-^.6m+tWn*@~u{u&0Mis7kp]u^u/u(u|t_u:u<u[u}u|u1u2u3u4u5u6u                                                                                                                                          ",
"M:N:Xp=2/n]4y*y-vc+-0h7k7ki]7]$/x:x:w:>4_(>(>(>(O:O:A'A'L(L(7:7:scscscYaYaYaf.f.f.f.4]>*>*4]-.-.q6q6z_z_z_=&=&=&=&=&=&44=&=&=&=&=&=&=&=&=&=&=&=&=&=&,-,->*>*4]4]6g~b>eGfzpx/i7                                                                                                                                                                                                                                                                                                                                                                                                                                                                                                                                                                                                                                                                                                                                                                                                                                                                                      7u8uh_S$,$8 #$] )/_(>(^%ae>eI%)*6=I^z_=&4444i a&e.9=p)q7q7d%d%d%d%q7q7p)59593737Q7{d/_waK(5]f.B'x>K&J{y=9<8]91[6@-~0!o^n9u0u~nQ(O_aubuV_^u|gcudueufuguhuiujukulu'rmunuou                                                                                                                                        ",
"p(|~=2^4Sm^*y-Y%+-kbi]i]M%5m$/~pw:w:>4zp>(>(O:O:O:O:A'A'L(L(7:7:scscscYaYaYaf.f.f.f.4]4]4]4]-.=%q6q6q6z_z_z_=&=&=&=&=&=&=&=&=&=&z_=&=&=&=&=&=&=&=&=&,-,->*>*4]4]>07:ae7:x:puqu                                                                                                                                                                                                                                                                                                                                                                                                                                                                                                                                                                                                                                                                                                                                                                                                                                                                                        ru$){*p$#$&-!*$!zpzpOl r-eI%)*6=I^z_z_=&440&a&e.9=p)p)q7d%d%d%d%d%q7p)p)59593737Q7Q7{dwaK(>*f.} q/y1J{5/!*cgcgp.=57m!osu2mCntu>hO_l<bu]uuuvu$ewuJrfuX4xuyuzuAuBuCuDuEuFu                                                                                                                                      ",
"as(r/n]4^*y*vc+-a2 ]i]M%5m7]$/~pw:>4>4zpO:O:O:O:O:A'A'A'L(L(7:7:scscYaYaYaYaB'B'f.f.4]4]4]4]=%=%A_A_q6q6q6z_z_z_=&=&=&=&=&=&=&=&z_=&=&=&44=&=&=&=&=&,->*>*4]4]f.y>6=4/`jGuKs                                                                                                                                                                                                                                                                                                                                                                                                                                                                                                                                                                                                                                                                                                                                                                                                                                                                                          Hu{o*)c{#!&-*-8<J{y1B_OdIuI%)*6=I^7=7==&4444/6a&e.e.9=9=G*d%d%d%d%q7q7p)p)p)59373737Q7{dwa,-4]B'^{4/y1_*;49<p7cg[66m7m!oK8I8CnplJun(KuLuMt|gV}w4IrMuNuOuPuQuRuSuTuUuntVuWu                                                                                                                                    ",
"DnSm^*y-y-j&kba2 ](5M%5m7]$/~p~d>4>4zpzpO:O:O:O:O:A'A'^{L(7:7:7:scYaYaYaYaYaB'B'f.4]4]4]4]4]=%=%A_A_A_q6q6q6z_z_z_z_=&=&=&=&=&=&z_z_=&4444=&=&=&z_z_>*>*4]4]f.B-^ < y1>(ToXu                                                                                                                                                                                                                                                                                                                                                                                                                                                                                                                                                                                                                                                                                                                                                                                                                                                                                          YuZukd9$G%c{&-5/A-A-B_OdIuW1I%6=I^I^7==&4444/6a&e.e.e.9=G*q7q7d%d%q7q7q7p)p)5959373737{d/_0&>*f./{y>y>!:B_=-9<cg91p.6m8o!o2mI8a(pl$cbt`uLudt)oV} vIr[5.v+v@v#v$v%v&v*v>u=v-v                                                                                                                                  ",
"/n]4y-Y%+=+-a2(5(5(5M%5m0*s/s/s/>4>4zpzpO:O:O:O:A'A'A'^{L(7:7:7:YaYaYaYaYaYaB'B'f.4]4]4]4]4]=%B-A_A_A_A_q6q6z_z_z_z_=&=&=&=&=&=&z_z_=&444444=&z_z_q64]4]f.f.B'B-/;/;K&;vFb                                                                                                                                                                                                                                                                                                                                                                                                                                                                                                                                                                                                                                                                                                                                                                                                                                                                                              >v,v39JlG%c{*-p'q'q'r'r'W1):>5*&I^I^7=L{=&44y_y_e.e.9=9=q7q7d%d%d%q7q7q7p)5959595937Q7{d0&,-4]f.>07:y>4/W1~d6]X]X]z-9o+t'v:_]nah)v{=!v~v>qA6D<{v16]vj5|5^v6r/v(v_v:v<v[v}v                                                                                                                                  ",
"/n]4y-Y%+=+-a2(56](5M%5mK{s/s/s/>4>4zpzpO:O:O:O:A'A'A'^{L(7:7:7:YaYaYaYaYaYaB'B'f.4]4]4]4]f.=%B->0A_A_A_q6q6q6z_z_z_=&=&=&=&=&=&z_z_=&444444=&z_q6q64]4]f.B'B'} ++u;p^54|v                                                                                                                                                                                                                                                                                                                                                                                                                                                                                                                                                                                                                                                                                                                                                                                                                                                                                              1vXj2v]a[(#!-*T;6&p'q'q'!:W1):>56=6=I^7==&44y_y_e.e.9=9=q7q7d%d%d%q7q7q7p)5959595937Q7{di 0&>*4]A_>0I%y>>5;48]8]p791PoOo!o3v4v]n`t u5v}m#4>qj48|6v7v8v9v0vav8nbvcvdvevfvgvhv                                                                                                                                ",
"qt=:vc+-kba2 ](56]6]0*K{s/y=y=y=zpzp^%^%O:A'A'A'A'A'A'^{L(7:7:7:YaYaYaYaYaYaB'B'f.f.f.f.f.f.=%=%>0>0>0A_A_q6q6q6z_z_=&=&=&=&z_z_=&=&=&=&=&=&=&z_z_q64]f.f.B'/{x>[ 6:H.<7                                                                                                                                                                                                                                                                                                                                                                                                                                                                                                                                                                                                                                                                                                                                                                                                                                                                                                  )48h-fJl#!-*p;6&q'A-B_!:W1>5*&*&,57=7=L{L{44/6y_y_j6j6p)q7d%d%d%d%d%d%q7q7q7p)5937Q7{dQ7Q7{d/_>*4]>0>0I%y1~d~p9<6]kbM4ivjvkvlvmvnvovJupvqv/pt7Bq 6E5JrrvsvtvuvvvwvxvyvzvAvBv                                                                                                                              ",
"z*3=+=kba2 ](5(56]8]K{s/s/y=y=$!zpzp^%^%O:A'A'A'A'A'A'^{L(7:7:7:YaYaYaYaYaYaB'B'f.f.f.f.B'B'B-B->0>0>0A_A_q6q6q6z_z_=&=&=&=&z_z_=&=&=&=&=&=&z_z_z_q64]f.f.B'/{x>;-K&t91                                                                                                                                                                                                                                                                                                                                                                                                                                                                                                                                                                                                                                                                                                                                                                                                                                                                                                   Cv<n2vZ8cgE%f&T;p'_*_*B_!:):>5>5*&I^7=L{L{44/6y_y_j6j6p)q7q7d%d%d%d%q7q7q7q7p)5937Q7Q737Q7Q7{d,-4]A_>0)*4/;4~d!*8] ]+==:OoDvkv*@Ev2:ovFv!v^pGvHv^rIvJvKvLv!sMvNvOvPvQvRvSvTvUv                                                                                                                            ",
"VvWv;c7ki]M%5m5m0*K{s/s/y=$!$!$!zpzp^%^%A'A'A'A'A'A'A'^{L(7:7:7:scYaYaYaYaYaB'B'4]4]f.f.B'B'} } I%)*)*6=6=I^I^I^7=7=L{L{L{L{7=7==&=&=&=&=&=&z_z_z_q6f.f.f.B'/{^{J{>(XvYv                                                                                                                                                                                                                                                                                                                                                                                                                                                                                                                                                                                                                                                                                                                                                                                                                                                                                                    )4 t*)91p$v%D*o';4J{_*5=&&8&>5>5*&,57=L{L{7$/6y_y_y_p)p)q7d%d%d%d%q7d%d%q7q7p)593737ndnd37Q7{d/_4]f.A_7:y1J{$!s/#10h+=M49oOoZv`vEv w~n.w+w@wA6#w1iEd[3$wi1%w&w*w=wNnni-w;w>w                                                                                                                            ",
",wF00h7ki]M%5m7]K{s/s/y=$!J{J{J{zp^%^%^%A'A'A'A'A'A'^{^{L(L(7:7:scscYaYaYaYaB'B'f.f.f.f.B'B'} } I%)*)*)*6=6=I^I^7=7=7=L{L{7=7=7==&=&=&=&=&=&z_z_z_q6f.f.B'/{^{A'zp'w'.                                                                                                                                                                                                                                                                                                                                                                                                                                                                                                                                                                                                                                                                                                                                                                                                                                                                                                      @rH6*)91u%4&-*!*y=>4_*E*&&8&):>5*&,57=7=L{7$/6/6y_y_59p)q7q7d%d%q7q7d%d%q7q7q7p)5959nd]d595937{d>*4]q6>0y>4/y1$!0*#1a2kbQoPoOo)wZt!w`tPmEp~wI1A6etk}3oC3{w]w^w/w(w_w:w#s<w[w}w                                                                                                                          ",
"WvF00hi]M%M%<(0*s/s/y=$!J{J{J{J{^%^%^%^%A'A'A'^{A'A'^{^{L(L(7:7:scscscYaYaYaf.f.B'B'B'B'B'B'B-B-I%I%)*)*6=6=I^I^7=7=7=L{L{7=7=7==&=&=&=&=&=&z_z_q6q6f.B'B'/{A'O:{b|w                                                                                                                                                                                                                                                                                                                                                                                                                                                                                                                                                                                                                                                                                                                                                                                                                                                                                                        1wH6*)915&u%e&~pw:>4_*E*&&8&8&;**&,5,5b%7=L{7$0505/65959p)q7q7q7q7q7q7q7q7q7q7q7p)p)}n}n}n}n37Q7{d/_>*f./{^{q/p^s/0* ]a2kb+=9oDvQmZt]na(>h!n_5I1G|et2w3w4w}i5w6w7w8wej9w0wawbwcw                                                                                                                        ",
"F0;c7ki]M%5m0*K{s/y=y=$!J{J{J{J{^%^%^%^%A'A'^{^{^{^{^{^{L(L(L(L(scscscYaYaYaf.f.B'B'B'B'B'B'B-B-I%I%)*)*6=6=I^I^7=7=7=7=7=7=7=7=z_=&=&=&=&z_z_z_q6A_B'B'/{^{A't_dwew                                                                                                                                                                                                                                                                                                                                                                                                                                                                                                                                                                                                                                                                                                                                                                                                                                                                                                          fwkd[64=C*e&$/=(_(_*E*&&8&8&;**&*&,5,57=L{7$7$05/6a&59p)p)q7q7q7q7q7q7q7q7q7q7q7p)bobo}n}n37Q7Q7{d>*4]f.B'x>K&$!s/h_(5 ]+-M4Oo^nQm:_]nY!>hMib[e1Ms=<gwX(N|hw5riwiu1djw$pkwlwmwnw                                                                                                                      ",
";c0hi]5m5m7]K{s/s/y=y=$!J{J{p^p^^%^%^%`jA'A'^{^{^{^{^{^{L(L(L(L(scscscYaYaYaf.f.f.B'B'B'B'B'} } I%I%)*)*6=6=I^I^7=7=7=7=7=7=7=7=z_=&=&=&=&z_z_z_q6A_B'B'/{^{A'J&ow                                                                                                                                                                                                                                                                                                                                                                                                                                                                                                                                                                                                                                                                                                                                                                                                                                                                                                            pw'j[6/}/}$-7]x/'w;4q'5=&&&&8&>5*&*&,57=7=L{7$7$44a&3759p)q7q7q7q7p)p)q7q7q7q7q7p)tobo}nYmndodQ7Q70&,->*4]B'^{K&$!] G/6]a2^.Po8o!oJ8:_z<P(1]a1qw)trwswH_twD33auwvw4bww4sxwywzwAwBw                                                                                                                    ",
"0h7kM%7]7]$/s/s/s/y=y=$!J{J{p^p^^%^%^%`jA'A'^{^{^{^{^{^{L(L(L(L(scscscYaYa5]f.f.f.f.f.B'B'/{} } I%I%I%)*6=6=6=I^7=7=7=7=7=b%7=b%7=z_=&=&=&z_>*z_q6A_)*7:/{^{O:`aCw                                                                                                                                                                                                                                                                                                                                                                                                                                                                                                                                                                                                                                                                                                                                                                                                                                                                                                            DwN 0h[6N%915ma0w:~dq'E*5=&&&&):>5*&*&I^7=L{7$7$7$i 3759p)q7q7q7p)p)p)p)q7q7q7q7Qctobo}nYmodod3737i 0&,->*f./{A'K&r/] 9$(5a2Qoy*7mq({9n/<_e{1]%(LuEw43k}>sC3FwguGwkiHwIwdkJwKwLwMw                                                                                                                    ",
"*)Z8<(0*0*K{s/y=$!$!$!$!$!J{J{J{zp^%^%`j`jL(L(L(7:7:7:7:7:7:7:7:7:7:>0>0>0>0>0>0A_>0)*)*I%I%y>y>I%I%I%)*6=6=*&,5'f'f'f'f'fNw'flbb%b%=&44{d/_Q$4])*)*< ):L(`jw/w=Ow                                                                                                                                                                                                                                                                                                                                                                                                                                                                                                                                                                                                                                                                                                                                                                                                                                                                                                              Pwfs;c91p76]7]~d!*=-A-E*5=&&8&;*>5*&,5b%p4p4p47$0&0&Q73759p)~_~_H^~_totototototoboQw}nYmYmYmYmYm8(8(J(J(9(y0Bh^{>($!s/0*#10hvcy*;$x-e$O((/:=_!l<>qRwetk} vSwTwUwVwWwblofXwYwZw`w x                                                                                                                  ",
"*)#1<(0*K{K{s/y=$!$!$!$!$!J{J{J{zp^%^%^%`jL(L(L(7:7:7:7:7:7:7:7:7:7:>0>0>0>0>0>0>0>0)*)*I%I%y>y>I%I%)*)*6=6=,5,5'f'f'f'fNwNwNwNw)5lbL{448(J(9&4])*[ ;*):Gf.x$m+x                                                                                                                                                                                                                                                                                                                                                                                                                                                                                                                                                                                                                                                                                                                                                                                                                                                                                                                @x#xbi7kcgX]5m~p!*5/A-E*5=5=8&8&>5*&,5b%b%p4p4p40&0&Q73759p)H^~_H^~_totototototo$x$x}nYmYmYmYmYmU/8(8(J(J(y0T_BhO:>($!s/0*Z8+-3=j&%_1&R_+[(/P_n(G[b4a<etk}hs`rnr%xVwNqbl&x*xBu=x-x;x                                                                                                                ",
"Z8#10*K{K{s/y=y=$!$!$!$!J{J{J{J{zp^%^%^%`j`jL(L(L(L(L(L(L(L(L(L(7:7:7:>0>0>0>0>0>0>0)*)*I%I%I%y>I%I%)*)*6=6=,5,5'f'f'f'f'f'fNwNw)5>xL{=&J(9(4]f.)*I%):):7:,x%e'x                                                                                                                                                                                                                                                                                                                                                                                                                                                                                                                                                                                                                                                                                                                                                                                                                                                                                                                  )xNl;c91X]M%7]!*5/=-E*E*5=&&8&>5>5*&,5b%p4p4p40&0&Q7Q73759p)p)H^H^~_~_totototobobo}n}nYmYmYmYmT/U/U/8(8(9(#iT_/{^{O:_(s/<(a2+-(-Y%./C|T$7o){c2%(Ekb4j4ui{v!x~x*r{xvl]g'l&x]x5t^xlo/x                                                                                                              ",
"#1<(0*K{s/s/y=$!$!$!$!$!J{J{J{J{zp^%^%^%`j`jL(L(L(L(L(L(L(L(L(L(7:7:7:>0>0>0>0>0>0>0)*I%I%I%I%y>I%I%)*)*6=6=,5,5'f'f'f'f'f'fNw(x)5p4L{=&J(9(4]f.)*)*W1zpu$_x:x                                                                                                                                                                                                                                                                                                                                                                                                                                                                                                                                                                                                                                                                                                                                                                                                                                                                                                                    <xL7F0[6X]i]5m9<!*=-A-E*E*5=&&>5>5*&,5b%b%p4p4,-,-{dQ737375959H^H^H^~_totototobobo}n}nYmYmYmYm2/T/U/U/8(J(9(y0f.B'^{A'J{s/6] ]i&(-=$__7/T$y:Q_m/b1-2b4f1uiv4lrMuj2Gp[x}x*k|xSt1x2x3x4x                                                                                                            ",
"#10*K{s/s/s/y=$!$!$!$!J{J{J{J{J{zp^%^%^%`j`j`j`j`jL(L(L(L(L(L(L(L(7:7:>0>0>0>0>0>0>0I%I%I%I%I%y>I%)*)*)*6=6=I^I^'f'f'f'f'f'fc%c%u:p4L{=&9(y0f.f.I%6=`jw:scza5x                                                                                                                                                                                                                                                                                                                                                                                                                                                                                                                                                                                                                                                                                                                                                                                                                                                                                                                      ~kZr7kcgcgX]8]!*5/=-A-E*5=&&):>5>5*&,5b%b%b%,-,-,-0&Q73737592/H^H^~_~_~_tototobobo}n}n}n}n}nbo}nT/U/U/8(J(9(4]f.B'^{y1$!9<6]`)p.h#%___C|T$O(jn>hb1,q_s/r|ega4[6[ujSi6x7x}x8x9x0xaxbx                                                                                                            ",
"<(0*K{s/s/y=$!$!$!$!$!J{J{J{J{y1^%^%^%^%^%`j`j`j`j`j`j`jL(L(L(L(L(7:7:>0>0>0>0>07:7:I%I%I%I%I%I%I%)*)*6=6=I^I^I^'f'f'f'f'fc%c%c%u:p4L{>*y0#if.B'y>A_`jw/Ggcx                                                                                                                                                                                                                                                                                                                                                                                                                                                                                                                                                                                                                                                                                                                                                                                                                                                                                                                        dx^(0h91X]cg8]9<5/=-=-A-E*5=):):>5*&,5,5b%b%z_>*,-0&{dQ7Q7372/2/H^~_~_~_totototobo}n}n}n}n}nbo}nT/T/U/U/8(J(>*4]f.B'y>y15/9<#!G%-];$%___7/R_V/<_>ha[ex_sfxk-e/gx6[hxvl6xktixjxkx*nlxmx                                                                                                          ",
"0*K{s/y=y=y=$!J{$!$!J{J{J{J{J{y1^%^%^%^%^%`j`j`j`j`j`j`jL(L(L(L(L(L(7:7:>0>0>0>07:7:I%I%I%I%I%I%)*)*)*6=6=I^I^I^z_z_z_z_z_=&=&=&u:p4L{>*y0#iB'B'L(>0A't_9fnx                                                                                                                                                                                                                                                                                                                                                                                                                                                                                                                                                                                                                                                                                                                                                                                                                                                                                                                        ox%l6cz-X]#-6]8]!*5/=-A-E*E*W1):>5*&,5,5b%b%z_z_>*,-0&0&i i 5959H^H^~_~_~_~_totobobo}n}n}n}nbo}nYmZmU/U/U/8({d/_wa5]>0L(J{y=9<8]G%(-Y%y*^4C_U5n/o~O_pxqxJsMorxsxjidcPttxuxofvxwxxxyxzxAx                                                                                                        ",
"0*K{s/y=y=y=$!J{$!$!J{J{J{J{y1y1^%^%^%^%^%^%`j`j^%`j`j`j`jL(L(L(L(L(7:7:>0>0>0>07:7:I%I%I%I%I%I%)*)*)*6=6=I^I^I^q6z_z_z_z_=&=&=&'5L{>*>*y0#iB'B'7:7:yaGg[9                                                                                                                                                                                                                                                                                                                                                                                                                                                                                                                                                                                                                                                                                                                                                                                                                                                                                                                            '.-fF0X]/}6]8]!*5/=-=-A-E*W1):>5*&*&,5,5,5z_z_>*,-,-0&i i 5959H^H^~_~_~_~_totobobo}n}n}n}nbo}nYmZmU/U/U/8(Q7{d/_waA_7:y1$!5/!*#!`)(-j&D%$_7/S]O($cEppx@wt7MoD8Bx9_Cx{xGwDxExFxGx*vHxIxJx                                                                                                      ",
"s/s/s/y=y=y=y=y=J{J{J{J{J{y1y1y1^%^%^%^%^%`j`j`j^%^%`jL(L(L(7:7:L(7:7:7:>0>0>0A_>07:I%I%I%I%I%)*)*)*)*6=6=6=6=6=q6q6z_z_=&=&=&=&7=7=>*>*K(5]f.B'`jA_'w(nKx                                                                                                                                                                                                                                                                                                                                                                                                                                                                                                                                                                                                                                                                                                                                                                                                                                                                                                                            5xLx6c[6/} ]6]9<!*5/=-A-E*!:W1W1):>5*&*&*&q6z_z_=&4444i i 373759p)p)p)H^H^H^H^H^H^bobo}n}n}n}nYmYmYmYmZmZm{d{d{d/_>*f.7:L(y1$!!*6]a2+='q]4__&(P<`tPmNmexY6erI|gaMxMuFwNxOx&kPxQxRx&oSxTxUx                                                                                                    ",
"s/s/y=y=$!$!$!$!J{J{J{J{J{y1y1y1^%^%^%^%^%^%`j`j^%`j`jL(L(7:7:7:7:7:7:7:>0>0>0>0>07:I%I%I%I%I%)*)*)*)*6=6=6=6=6=q6z_z_=&=&=&=&=&7=7=>*>*K(5]B'B'7:t_zaVx                                                                                                                                                                                                                                                                                                                                                                                                                                                                                                                                                                                                                                                                                                                                                                                                                                                                                                                                WxZr^.p.916]9<!*5/=-A-E*!:!:W1):>5>5*&*&q6q6z_=&4444i i 37375959p)p)H^H^H^H^H^H^bobo}n}n}n}n}nYmYmYmZmZmQ7Q7Q7{d,-4]>07:4/J{5/9<(5a2+=3r%___C|^<o~OmaukpA6fxwf3oSwMuXxGwYxZx`x y.y+y@y#y                                                                                                    ",
"s/y=y=$!J{J{J{J{J{J{J{J{J{J{y1y1`j^%^%^%^%^%^%^%^%`jL(L(7:7:7:7:7:7:7:7:>0>0>0>0>0>0I%I%I%I%)*)*)*)*)*6=6=6=6=I^z_z_>*,-,-,-,-,-7=7=>*4]K(5]>07:~b'wzatm                                                                                                                                                                                                                                                                                                                                                                                                                                                                                                                                                                                                                                                                                                                                                                                                                                                                                                                                >'c5F0[691cgp7#/|!o'p'q'OdOdIuIuhrTmAr*&I^I^z_z_=&44/6/6a&a&e.e.p)p)p)p)H^H^H^H^H^H^bo}n}n}n}nYmYmYmYmYmndnd37Q7{d/_4]f.L(`jJ{y=K{<(*)kby-%_g_C|Vnknbp$y%yF4d/}^16Ir&yUwcm*y=y-y;yMp>y,y'y                                                                                                  ",
"s/y=$!$!J{J{J{J{J{J{J{J{J{J{y1y1`j^%^%^%zpzp^%^%`j`jL(7:7:7:>0>0>0>0>0>07:7:7:7:>0>0)*I%I%)*)*)*)*)*)*6=6=6=I^I^z_=&,-,-,-,-,-,-7=7=4]4]5]Ya7:7:{b`a)y                                                                                                                                                                                                                                                                                                                                                                                                                                                                                                                                                                                                                                                                                                                                                                                                                                                                                                                                    fqIb[6[6cgX]#/#/o'p'q'[2OdOdIuhrhrTmTm6=I^q6z_=&4444/6i a&a&e.59595959H^H^H^~_H^H^bo}n}n}n}nYmYmYmYmYmndnd37Q7Q7/_>*>*>07:4/J{$!K{<(Jl|(;$Z)g_C|]n_&bp$yfrf|d4O^3oSwMu!y~y3s{y]y^y/y(y_y:y                                                                                                ",
"y=y=$!$!J{J{J{J{J{J{J{J{J{J{J{y1^%^%^%zpzpzp^%^%`j`jL(7:7:7:>0>0>0>0>0>07:7:7:7:>0>0)*)*)*)*)*)*)*)*)*6=6=I^I^I^,-,-,-,-,-,->*>*O@-.4]4]5]Ya7:L(gb&cK.                                                                                                                                                                                                                                                                                                                                                                                                                                                                                                                                                                                                                                                                                                                                                                                                                                                                                                                                    <y6c7k[691cgp7p7|!o'q'[2[2OdOdIuhrhrTm6=6=I^7=z_=&4444i i a&a&e.e.5959H^H^H^H^H^H^2/2/}n}n}nYmYmYmYmYmYmYmYmZmQ7{d/_/_4]f./{A'O:=(K{h_`)(_;$Z)./2m$1%1)nocIcvhV(U4!xIr[y}y|y1y2y3y=u4y5y6y7y                                                                                              ",
"$!$!$!J{J{J{J{J{J{J{J{$!J{J{J{J{zpzpzpzpzpzp^%^%^%`jL(L(7:7:7:7:7:7:7:7:>0>0>0>0A_>0)*)*)*)*)*6=)*)*)*6=6=I^I^I^>*,-,-,->*>*>*4]-.-.4]f.YascL(L(u$8y                                                                                                                                                                                                                                                                                                                                                                                                                                                                                                                                                                                                                                                                                                                                                                                                                                                                                                                                      5x[n7k[691cgX]p7#/o'p';f;f[2OdIuIuhrhr6=6=6=I^z_=&=&440&i i a&a&e.59372/2/H^H^H^2/2/2/}n}n}n}n}n}nYmYmYmYmZmZm{d{d{d{d>*4]f./{A'>(y=] #!4>g#;$%_q(U5$1a1)n@mIcX/9qv4 vD52t9y0yaybycydy'reyxk                                                                                              ",
"J{J{J{y1y1J{J{J{J{J{J{$!$!J{J{J{>4>4>4zpzp^%^%`j^%`j`jL(L(7:7:7:7:7:7:7:>0>0>0>0A_A_)*)*)*)*6=6=)*)*)*6=I^I^I^7=>*>*>*>*>*4]9&9&-.-.4]f.Yasc~bgbyafy                                                                                                                                                                                                                                                                                                                                                                                                                                                                                                                                                                                                                                                                                                                                                                                                                                                                                                                                        gy0hz-[691cgX]p7|!p';f;f[2[2OdIuhrhr)*6=6=I^7=L{=&=&4444i a&a&a&37372/2/2/2/2/2/T/T/}n}n}n}n}n}nQwQwYmYmYmZmododQ7Q7/_wa4]f./{^{O:$!*-`-4>g#;$x-a^U5u-u[S(b/h|P=g1'bhyiyjy{xfc(ekekylymynyoy                                                                                            ",
"y1y1y1y1y1y1y1J{J{J{J{$!$!$!J{J{>4>4>4>4zp^%^%`j^%^%`jL(L(L(7:7:^{7:7:7:>0>0>0A_A_A_)*)*)*)*6=6=)*)*)*6=I^I^7=7=>*>*>*>*>*4];.;.4]4]q6A_>0u$~b%epy>|                                                                                                                                                                                                                                                                                                                                                                                                                                                                                                                                                                                                                                                                                                                                                                                                                                                                                                                                        - qy0h[691cgX]p7|!p'q';f;f[2OdIuIuhr>5)*6=I^7=7==&=&4444i i a&a&3737T/T/2/2/2/T/T/T/}n}n}n}n}n}n}n}n}n}nYmYmododQ737/_wa4]4]f.B'^{q/F%*-)%{*h#=$./a^Q]f)u[$<A<g|V(rysyS!Jrtycjuygcfjvywyxyyyzy                                                                                          ",
"^%`jL(L(4/y1y1y1J{J{------8<8<$!>4>4>4>4zpzp^%^%O:O:A'A'^{^{^{^{L*^{/{B'B'B'B'B'>0>0>0>0>0A_A_A_f.f.4]4]>*>*>*>*>*>*>*>*>*>*4]4]wau$_aPdTm rQd)yAy                                                                                                                                                                                                                                                                                                                                                                                                                                                                                                                                                                                                                                                                                                                                                                                                                                                                                                                                            ]+c5[6[6N%C*4=C*X1p'p'_*B_N4N4ByM2hr):>5*&,5b%z_=&4444Q7Q73737595937595959595959375959595959593737T/T/T/T/T/U/8(8(8(8(J(9(y0#iT_/{A-o'D*p7$-(-^*__S]z<Y!f'|_A:c4;{CyDyiyfuEyFy1dGyHyIyJyKyMwLy                                                                                        ",
"^%`jL(L(4/4/y14/J{J{------8<8<$!>4>4>4>4zpzp^%^%O:O:A'^{^{^{H.H.H.H./{B'B'B'B'B'>0>0>0>0A_A_A_q6f.4]4]4]>*>*>*>*>*>*>*>*>*>*4]4]K(Qd'fMyIuTmNyOyPy                                                                                                                                                                                                                                                                                                                                                                                                                                                                                                                                                                                                                                                                                                                                                                                                                                                                                                                                            Qy ti][6N%u%Z-C*p;o'p'_*B_N4N4m+Byo4hr>5*&,5,5z_z_4444Q7Q73737595937595959595959375959595959593737T/T/2/2/T/T/U/8(U/8(8(J(9(y0#if.!:q'o'|!p7[6Y%]4q( /y:<_9/|sf|F_RySyTymrUyVyWyXyfjYyZy`y z.z+z                                                                                      ",
"`jL(7:7:L(`j`j`jJ{J{J{J{J{J{$!$!w:w:>4>4zpzp^%^%O:A'A'^{^{^{^{^{^{^{/{B'B'B'B'B'A_A_A_A_A_q6q6q64]4]4]>*>*>*>*>*>*>*>*>*>*>*4]4]5]6gPdMy;f:6Gu@z                                                                                                                                                                                                                                                                                                                                                                                                                                                                                                                                                                                                                                                                                                                                                                                                                                                                                                                                                #zM%91N%5&u%C*q;o'o';4_*r'N4m+$zM2hr):>5*&,5z_z_4444{dQ73737595937595959595959375959595959593737T/2/2/2/T/T/T/U/T/T/U/8(J(9(9(4]I%W1B_;4!*6]z-Y%x-1=O>o%}&Mifr{:%z;{)aC;&z*z=z-zww*k;z>z,z'z)z                                                                                      ",
"`jL(7:7:L(L(L(L(y1y1y1y1y1J{J{J{w:w:>4>4zpzp^%`jA'A'A'^{^{/{/{/{/{/{/{B'B'B'f.f.A_A_q6q6q6z_z_z_4]4]>*>*>*>*>*>*>*>*>*>*>*>*4]4]5]7gL(Gf_*Pdyf!z                                                                                                                                                                                                                                                                                                                                                                                                                                                                                                                                                                                                                                                                                                                                                                                                                                                                                                                                                ~zC1M%[64=4&n;K[|!o';4_*r'r'm+m+M2Iu):>5*&,5q6z_=&44{dQ7Q7373759375959595959593759595959595937372/2/2/2/2/T/T/T/T/T/U/U/8(8(J(/_A_>5W1B_A-!*(5z-y-x-1&O>k,f'b[fr{zf18|d8]z[y^zAt2dixTk/z(z_z:z<z                                                                                    ",
"yaxascYa/{^{^{/{A'A'A'A'A'O:O:>(>4>4>4zpzp^%O:A'A'A'^{^{/{/{/{/{/{/{/{B'B'f.f.f.4]4]z_z_z_z_z_z_4]>*>*>*>*>*>*>*>*>*>*>*>*>*4]4]A_q6I%I%^%.x[z                                                                                                                                                                                                                                                                                                                                                                                                                                                                                                                                                                                                                                                                                                                                                                                                                                                                                                                                                  }z[nC10h#-n;n;K[|!|!~d;4A-r'l)m+N4M2W1):>5*&q6q6=&=&{d{dQ737375937595959595959375959595959593737T/T/T/T/T/2/2/2/T/T/U/U/U/8(8({dz_A_7:L(4/;4$/X](-%*x-a^b+@l9/)n@m|z1z2z3z4z5zztvl6z7z8z9z0zazbzcz                                                                                  ",
"xascYaYaB'/{/{/{^{^{^{^{^{A'A'A'^%^%zpzp^%^%O:A'A'A'^{/{/{/{/{/{B'B'B'B'B'f.f.4]4]>*=&=&44=&=&=&>*>*>*,-,->*>*>*>*>*>*>*>*>*4]4]A_A_)*7:A'I&dz                                                                                                                                                                                                                                                                                                                                                                                                                                                                                                                                                                                                                                                                                                                                                                                                                                                                                                                                                    ezso6c[6C*C*n;#/#/~p;4A-E*s'l)N4N4W1):>5>5A_q6z_=&/_{dQ737373737595959595959375959595959593737T/T/T/T/T/T/2/2/T/U/U/U/U/U/U/8(,-z_A_>0I%4/$!~p(5p.;$x-1=mjp~9/L3qxwi2i2zfz*7gz2alahzizjzXgkzlzmz                                                                                  ",
"xascYaYaYaYaYaYaBhBhk k k H.H.^{`j`j`j^%O:O:O:O:A'^{^{/{/{/{/{/{B'B'B'B'B'f.4]4]>*>*,-0&4444=&=&>*>*,-,-,-,->*>*>*>*>*>*>*>*4]4]6=)*f.O:8fnz                                                                                                                                                                                                                                                                                                                                                                                                                                                                                                                                                                                                                                                                                                                                                                                                                                                                                                                                                      oz{5[n7kcgC*n;p7#/~p~d;4_*r'r'r'N45=&&):>56=6=z_z_,-0&Q7Q7373737595959595959375959595959593737T/U/U/U/U/T/2/2/T/T/T/T/T/U/U/U/i ,-4]f.f.7:y1;48]X]p.a*w-weB{7cR(mlpzVo2iqz3wSwfurzsztzuzvzwzxzyzzz                                                                                ",
"xascYa5]YaYaYaYaT_T_'+'+'+k k H.^{L(`j`jO:O:O:O:A'^{^{/{/{/{/{/{B'B'B'B'B'f.4]4]>*,-0&0&/64444=&>*,-,-,-,-,->*>*>*>*>*>*>*>*4]4])*I%f.;v$iGi                                                                                                                                                                                                                                                                                                                                                                                                                                                                                                                                                                                                                                                                                                                                                                                                                                                                                                                                                         b[n0hcgC*n;p7#/~p~d;4_*r'r'r'r'5=&&):>56=6=z_z_,-0&Q7Q7373737595959595959375959595959593737U/U/U/U/U/T/2/2/T/T/T/T/T/T/T/T/a&i ,->*4]B'y>y1G/8]p.Y%o/];L!AzR(BzCgCzCqswUrDzJrguEzFzGzUhHzIzJzKzLz                                                                              ",
"A'^{B'B'B'B'Ya5]T_T_T_#iT_T_Bh>.B'/{^{^{A'A'^{^{A'A'^{/{>0>0>07:>0>0A_A_4]4]>*>*,-0&i i i i 0&,-0&0&,-,-,-,-,->*0&,->*4]>*>*4]4]6=I%^{n8XjMz                                                                                                                                                                                                                                                                                                                                                                                                                                                                                                                                                                                                                                                                                                                                                                                                                                                                                                                                                        mnB0bi91C*C*%-p7$/~p~d;4A-5=r'r'5=5=&&8&)*6=q6z_,-0&0&i 3737373737373759595959595959593737Q7T/T/U/U/T/T/T/2/T/T/T/T/T/T/U/U/a&i i ,-4]B'^{^%s/9<$-j&s>.- /8/z:nb#|A6-18|$eDzNzXxuw#n,lNj<o|qUuOzPzQz                                                                            ",
"B'B'B'B'B'B'5]5]T_#i#i#i#i#iT_T_f.B'B'/{/{^{^{^{^{^{/{B'>0>0>0>0A_A_A_q64]>*>*>*,-0&i i i i 0&,-0&0&0&,-,-,-,-,-,-,->*>*>*>*4]q6>-)*/{,.Rz                                                                                                                                                                                                                                                                                                                                                                                                                                                                                                                                                                                                                                                                                                                                                                                                                                                                                                                                                          Klsl[ni]91C*e&-*9<~p~d~dA-E*q'r'5=5=&&8&)*6=q6z_,-,-0&0&Q737373737373759595959595959593737Q7U/U/U/U/U/T/T/T/T/2/2/2/2/T/T/T/a&a&i 0&>*B'^{A'y=~p6](-a*./ /8/l,H[t};2e2Tn$eDz8vSztyTzdjrnUzGxVzWzXzYzZz                                                                          ",
">0>0>0>07:>0f.>*f.4]9&9&9(y0y0y04]4]4]4]f.B'B'/{B'B'>0>0A_A_q6q6q6q6q6z_z_=&,-,-0&0&i i i i 0&0&0&0&0&0&,-,-,-,-,->*>*>*>*>*>*q68&*&(t`z A                                                                                                                                                                                                                                                                                                                                                                                                                                                                                                                                                                                                                                                                                                                                                                                                                                                                                                                                                            jr^(i][64=n;-*!*!*~d~d;4_*q'r'5=5=&&&&)*6=6=I^>*,-,-0&i a&37373737375959595959595959373737U/U/U/U/U/U/T/T/2/2/H^H^2/2/2/T/a&a&3/w~>*f./{^{$!~d8]i&%*x-2mz<r6{a$|}[a:Z27dDz.A+A@A#A-z$A%A&A*A=A-A^t;A                                                                          ",
"L(7:>0>0A_A_>*,->*>*Q$Q$J(J(J(J(,-,-,-,->*4]4]f.4]f.A_A_A_q6q6z_z_z_z_=&=&=&0&0&i i i i i i i i i 0&0&0&0&0&,-,-,->*>*>*>*>*4]q65=>5t9>A                                                                                                                                                                                                                                                                                                                                                                                                                                                                                                                                                                                                                                                                                                                                                                                                                                                                                                                                                              4-%l0hcg4=n;K[|!!*~p~d~d;4q'q'E*5=5=&&)*6=6=I^>*>*,-,-0&i 37373737375959595959595959593737U/U/U/U/U/U/U/U/2/2/2/2/2/2/T/T/a&a&3/w~,-4]B'/{J{;4p7[6%*x-{9,AZ!a/[['A)Ar{7dD5!A+A@A!y~A{Agc]A^A%s/A(A_A:A                                                                        ",
"W1):*&,5b%b%L{L{,-,-,-,-T~w~w~w~0&0&i i 0&,->*>*z_z_q6q6q6q6z_z_=&=&=&444444/6/6i i a&a&a&a&i i i i i 0&0&0&0&0&,->*>*>*>*>*4]A_o4_*pu<A                                                                                                                                                                                                                                                                                                                                                                                                                                                                                                                                                                                                                                                                                                                                                                                                                                                                                                                                                                [AXmX]/}C*n;|!|!~p~d~d;4p'm;E*5=5=&&)*6=6=I^>*>*,-,-0&i 37373737375959595959595959593737T/U/U/U/U/U/U/U/2/2/2/2/T/T/U/U/i a#i 0&,-4]B'/{J{;4#/[6%*o/{9,A[_0/cbG;}A'kB3|A!A+A@A!y~A{A'l1A,rVl2A/A3A4A                                                                        ",
"!:):,5p4p4p4L{L{0&,-,-,-T~T~w~w~i i i i i 0&0&0&=&=&=&=&=&=&=&=&444444/6/6/6y_y_a&a&a&a&a&a&a&a&i i i i i 0&0&0&,-,-,-,-,->*f.>0Ar5A6A                                                                                                                                                                                                                                                                                                                                                                                                                                                                                                                                                                                                                                                                                                                                                                                                                                                                                                                                                                  {3XmX]/}4=n;#/|!~p~d~d;4p'm;E*E*5=&&I%6=6=I^>*>*,-,-0&i 37373737375959595959595959595959T/T/T/U/U/U/T/T/T/T/T/T/U/U/8(8(a#a#i 0&,-4]f.>0_*;4#/#-A*93J87AknQ(S4lk2kta8A7_9A0AaAbAFycA'lNnWidA2AeAfAgAhA                                                                      ",
"o'q'M2O4v:*4p4'57$7$5+5+,-,-,-0&3/w~0&0&i i i i /6/6/6/6/6/64444/6/6/6y_y_y_y_y_a&a&a&a&a&a&;&;&a&a&i i i i 0&0&0&,-,-,-,-4]f.7:Od+/iA                                                                                                                                                                                                                                                                                                                                                                                                                                                                                                                                                                                                                                                                                                                                                                                                                                                                                                                                                                  jAkAa2#-/}C*#/|!~d~dw:;4o'6&A-E*5=&&[ < 6=I^O@5+,-0&i i 373737373759595959595959595959592/2/T/T/T/T/T/T/T/T/T/T/U/U/8(8(P@P@P@P@5+-.6=)*B__*|!$-i'M81=lAmA~n1:&<nAkk1hhaNtoApAqArA]gsAUstAniIzuAvAwAxAyA                                                                    ",
"/}C*p;l)o<a5l$957$7$5+O@>*>*,-,-0&0&P@440&/6a&y_y_y_j6j6j6y_/6/6y_y_a&y_a&y_e.e.e.a&a&a&a&a&;&-&a&a&a&i i i i 0&0&0&,-,-,-4]B'^{b0zAAA                                                                                                                                                                                                                                                                                                                                                                                                                                                                                                                                                                                                                                                                                                                                                                                                                                                                                                                                                                    Yrld ]#-4=e&|!5/~dw:;45/6&A-E*5=&&[ < I^I^O@5+,-0&i a&373737373759595959595959595959592/2/2/T/T/T/T/T/T/T/T/T/U/U/8(0&5+P@P@P@5+-.=%>04/B_5/$-^;^9webe0uplMi|s'AE]F<|^P0BACADAEArgFA&xGA^sHAIAJAJAKALAMA                                                                  ",
"NAOAP8PA`./@a5a5p4'5L{7=L{7$7$7=7$7$@$'57$'5x5^_y_j6j6:7{k{k59590&0&3/i ;&a&;&;&;&;&;&-&#~#~#~8=x5x5i i U/U/8(8(0&>*05L{=%O@'+>.ErQA                                                                                                                                                                                                                                                                                                                                                                                                                                                                                                                                                                                                                                                                                                                                                                                                                                                                                                                                                                      &hRASAa2p.C*q;|!$/w:B_5/p'A-E*5=&&;*>-*&,57=L{L{7$7$44Q73737595959a&a&e.e.e.e.9=e.e.e.T/}n}n}n]d]d37373737373737Q7{d,-P@_ 5+5+T~Q$;.YaA'`j;4X]@-TAUAVAz<f)M;&<@[WA$[XAYAT7G5ZA`A B4t_e.Blt+B@B#B$B%B&B*B                                                                  ",
"Jc=B-B;Bi8j'(@>Ba%,5b%,56=b%p4p4u:l$l$l$'5'5K$G.v_:7]_]_`8,Bq7q7;&;&;&;&;&;&;&;&;&;&;&-&#~#~#~8=w.K$i Q7ZmZm8(8(0&L{@$: -.=%L*,4|l                                                                                                                                                                                                                                                                                                                                                                                                                                                                                                                                                                                                                                                                                                                                                                                                                                                                                                                                                                          12{oZ891n;p;o'|!~p;4p'p'A-E*5=&&8&>-*&,5I^7=L{7$7$44i 3737595959e.a&e.e.e.9=9=e.8=e.T/Ym2/}n5937373737373737Q7{d/_>*5+L{O@>*Q$Q$y0#iscL($!X]@-M8'BB{z@z])B|6C]a>F]%[K|Qg-a!Bfcub~Bxd{Bjw+B]B^B/B(B_B:B<B                                                                ",
"[Bq1Jcqd}B|B1BO2$zO4y5Ar>5y5>x2Bu:u:u:u:u:l$U)^_v_p8'*`8{_{_H*H*q)q)-&-&-&;&;&;&;&;&;&-&-&-&;&a&x5K$a&Q7ZmZmU/U/0&05: v:L{B-=/h.3B                                                                                                                                                                                                                                                                                                                                                                                                                                                                                                                                                                                                                                                                                                                                                                                                                                                                                                                                                                          4BbfNl914=q;o'o'~d~dp'p'A-E*5=&&8&;**&,5I^7=L{7$7$44i 3737595959595959599=9=9=9=e.e.-&2/-&2/e.a&a&a&i i Q7Q7{d/_9(wa0&0&T~9(9(9(y0y0A'^%y=p74=#a!f|=;35B 7`6g76B7B|hpnXc8B-l^euyww9B0BaBbBcBdBeBfBgBhBiBjB                                                              ",
"6'j9(0kBMblBmBnBW-X5$zBy+birlblb*4*4u:u:u:l$U)h ^_v_p8'*>&H*>&H*0!0!q)q)-&;&;&3/;&;&-&-&-&-&;&a&x5(63737ZmZmU/Q77$^_v:v:L{7:r1oB                                                                                                                                                                                                                                                                                                                                                                                                                                                                                                                                                                                                                                                                                                                                                                                                                                                                                                                                                                              Mlkd0h[6C*|!o'5/~dp'p'A-E*5=&&8&;**&*&I^7=L{7$7$44i Q7373759595959p)p)9=9=9=9=e.e.-&-&-&-&e.e.a&a&i i Q7Q7Q7{dJ(9({d/_9(9(9(9(y04]^{4/=--*i6N9<!<=|nN=pB%[7'nqqBW4Kjlf;l]jrB,lsBtBuBvBwBxByBzBABBBCBDBEBFB                                                            ",
"KnzbAeUd'eObJcGBHBIBPAX5JBKBLB+bS<x.1.5>: _ U)w.w.h =#*#f@>&f@4+G*q7p)p)5937Q7Q75959595959595937y_(637ndYmZmQ7Q77$S9*4v:I^7:H.MB                                                                                                                                                                                                                                                                                                                                                                                                                                                                                                                                                                                                                                                                                                                                                                                                                                                                                                                                                                              NBLxZ8[64=n;k)p'o'p'p'A-E*E*5=8&;**&*&I^7=L{7$7$44i U/Q7375959p)p)p)p)p)p)p)p)59e.9=[~[~[~8=8=;&;&3/3/;&;&Q7{d{d/_9(Ah5jAh9(9(4]4]I^8&Z.&*&|2elkN^OBPBMq~sprQBRBSBTBUBVB9B&x1AWBVlevXBYBZB`BzB C.C+C@C#C$C                                                            ",
"%Cjubj&CNif8*Cd6=C-C-0;C>C,C'C)C*%<.}.}.>-( _ U)w.w.h =#H{f@f@4+G*q7p)p)5959373759p)p)p)p)595959j6!$ndndYmndQ7>f'5S9v:b%>0xa8f!C                                                                                                                                                                                                                                                                                                                                                                                                                                                                                                                                                                                                                                                                                                                                                                                                                                                                                                                                                                                8hC1(54=n;p;p'o'p'p'A-E*E*5=&&;**&*&I^7=L{L{7$7$3/U/Q7373759p)q7q7q7q7q7p)p)p)e.8=8=8=8=F*F*3/3/w~3/3/a&Q7Q7{d{d/_/_/_/_,->*I^;*%&f&%8bal,g| v+3~C{C]C^C/C(C_CRq:C<C[C-AZw}C<v|C1C2C3C4C5C6C7C8C9C0CaCbCcC                                                          ",
"dCdCeC/jalfCgChCiCjCkClCmC-0nC:9]@U %&%&M2;*v:*47$7$x5^_=#=#=#v_G*q7p)p)p)p)p)p)p)p)QcQcPcPcPcPc!$!$]dndndnd37ff'5J$Arp4L(t_oC                                                                                                                                                                                                                                                                                                                                                                                                                                                                                                                                                                                                                                                                                                                                                                                                                                                                                                                                                                                  ]5^(#1cgn;q;p;q;p'p'A-E*E*5=&&8&*&*&I^7=L{L{7$7$3/3/3/3/;&-&p)q7q7q7q7q7q7p)p)e.x5w.F*a#a#P@0&,-/_/_{dQ7i /6/64444=&z_6=8&E*D*4&N&83d_uata(4pCqCrCsCtC<CuCvCwCxCZwyCzCACBCCC0CDCECFCGCHCICJCKCLCMCNCOCPCQC                                                          ",
"2ARCRCSCTC=x yOxUCVCWCjCXC%5YCZC`Ck+]@;5l)M2O4>-7=7=L{05w.w.w.x5G*q7q7q7q7q7q7q7q7q7QcQcQcQcPcPc!$!$]dndndndff(6>x>xTmc%yaza D                                                                                                                                                                                                                                                                                                                                                                                                                                                                                                                                                                                                                                                                                                                                                                                                                                                                                                                                                                                  .D+Dbi ]X]q;p;q;p'p'A-E*E*5=&&8&>5*&I^7=L{L{7$7$3/3/3/3/;&-&q7q7q7q7q7q7q7p)p)j67$@$P@P@P@,->*>*wa7g!j44/6_695'5)5@Do<;5v%O%&|83Z=o>v0KfJj%u#D$D%D<wzC<v&D*D=D-D-D;D>D,D'D)D)D!D~D{D]D]D{D^D/D/D(DOC_D:D<D[D                                                        ",
"}D|D1D2D3DUu4D5D6Dux7D8D9D0DaDbDcDdDW5PAG0l)q'N4):>5)f:6p4p4'57$i a&p)q7q7q7d%d%q7q7QcPc]d]dPcQc!$!$]d]d]dnd>f_a2B>x'fL(54eD                                                                                                                                                                                                                                                                                                                                                                                                                                                                                                                                                                                                                                                                                                                                                                                                                                                                                                                                                                                      fDc55m[6p7N2p;o'p'A-E*E*5=8&;**&*&I^7=7=L{L{L{w~w~3/3/a&e.9=G*G*G*]_]_gD{kff/6L{b%7=7=z_z_z_7g>0c%_ay5y5lb+bhDq,t>Q<v-p>Z=.*:8iDkgjDjablZy5D4u%sIzkD|ClDmDKC)D+CnDoDpDqDrDrDsDtDuDvDvDwDxDyDzDADBDCDDDEDFDGD                                                      ",
"HDHDIDJDKD2DLDMDxzNDMpOD{hPDQDllSeRDSDTDUD<9K[|!r'!:W1>e):>5*&*&44i 59p)q7q7q7d%q7q7QcQcPcPcPcPc!$!$]d]d]dff_6_ay595GfU]KsVD                                                                                                                                                                                                                                                                                                                                                                                                                                                                                                                                                                                                                                                                                                                                                                                                                                                                                                                                                                                      WD{5bii]p7m;q;o'p'A-E*E*5=&&;**&*&I^7=7=L{L{L{,-w~w~3/a&e.e.9=H*]_]_]_]_!$/6c%*&*&,5,5q6)f7:>eGfhrM2_bXDYDZD`D}_J[Y0#5hf@bD7ac E.E+E_k@E#E$E%E&E*E=E-E;E>E8C,E'ErD)E!E!E!E!E~E{E]E^E^E/E(E_E:E<E[E}E|E]D1E2E3E                                                    ",
"4E5E6E6E7E8E9E0EaEbExzcEXi+EdEeEfE>6gEhEiER8q,Z-p;o'Jk;f;f[2OdW1z_,-a&e.9=G*q7d%d%d%jEjEQcPcPcPc{k{k5959!$!$_6_a,5K$7:,dkE                                                                                                                                                                                                                                                                                                                                                                                                                                                                                                                                                                                                                                                                                                                                                                                                                                                                                                                                                                                          82c5i]X]m;-*o'p'A-E*E*5=&&8&>5*&I^7=7=L{L{L{,-0&0&i a&a&^_^_p8p8p8S9G._6b%*&!:N4IuTm*&Tm):OdM2^@/''CUD-0lEmEo16'N0%aIavdEznEUBoEpE'r^sqE3DrErEsEtEdBuEvEwExEBByEgBzEAE_BBE~ECEDEDEDEEEFEGEHEIEJEKELEMENEOEPE                                                    ",
"6EQEREREREXBososSETEnsUEVE/yWE6zXEmcYEH4ZEYC`Ew_R;4=l'p7#/3lp'[2)*4]0&a&9=G*G*d%x~x~x~ FQcPcPcPc{k{k5959!$ff_6_ap4=&Ya*2.F                                                                                                                                                                                                                                                                                                                                                                                                                                                                                                                                                                                                                                                                                                                                                                                                                                                                                                                                                                                          +F{5bi5m8]D*o'p'A-E*5=5=&&8&>5*&6=I^7=7=L{L{,-,-0&i a&y_x5x5x5K$K$95l$)58&N4q'q'p'q'r'N4r';5Z.@F#F$F%F;dM9d>Q0&F*Fux=F-F;FWs<CxC>Fni,F'F)F!F~F{F]FsE^FtEuEvE/F(F_F:F<FyEzE[F{E]E}FEE|F|F|F1F<E2F3F4F<E5F6F7F8F                                                  ",
"9Fos0F0FaFaFaFbFbFcFSEohdFsneFtCoEfcfFgFVChF#_iFi{2&A*@-^;uoC*#/y1I%I^7$x5:7]_`8`8N$N$N$,BgDjFjF{k:7!$!$j6y_'5p4,5A_(tRokF                                                                                                                                                                                                                                                                                                                                                                                                                                                                                                                                                                                                                                                                                                                                                                                                                                                                                                                                                                                            lF[n5mkb=-|!p'A-E*5=5=&&8&>5>56=I^7=7=7=7=z_=&44/6x5x50595u:I$I$)5!5/@%&;5N2p;K[n;K[q;f&00k8j8mFnFoF@8=l{xpFqF3yrFsFZyVh'rtF,raBni2DuF,FvBvF)F|D~F{F]F^FtEwFxF(F_F_F<FgByFzFAFwDPCBFCF2FDFEFFFGF1F1FHFxDIFJFKF                                                ",
"LFMFNFNFcFOFPFPFbFQF:hSEdAuB<o>r,rRFmfPkSFTFUFc[VF<!|&x-s>R9B*#-!*J{I%7=7$x5j6:7`8`8N$N$,BgDjFgD:7:7!$!$y_/6p4b%>5q6t9WF                                                                                                                                                                                                                                                                                                                                                                                                                                                                                                                                                                                                                                                                                                                                                                                                                                                                                                                                                                                              XF[nZq;c=-|!p'A-5=5=5=&&8&>5>56=I^I^7=7=7=z_=&44447$'5p4b%a%O4o<o<(@q.l+f&Z-j'k#,$`@YFZF@&`F G.G+Ggiw7Ox@Gix=tXwXwXwNn]xtA$E^s#GuBxvvB0E'F,F$G1D|D~F{FsE^F%G&G*G/F/F_F:F=G]D-G;G>G,G<E'G3F)G!G~G{G]G^G)G/G(G_G:G                                              ",
"Bu<GVl[G}G}G|G1G2G3G4G4G5G6G7G8G9G0GVlaGbGcGuhE]$|~=e{Q]S].-^}A* ]9$--[ I^L{05x5:7]_N$N$,B,BgDgD:7j6j6y_y_44p4,5)*f.h.dG                                                                                                                                                                                                                                                                                                                                                                                                                                                                                                                                                                                                                                                                                                                                                                                                                                                                                                                                                                                              eG~kNlM%$/|!p'A-5=5=&&&&&&):>56=I^I^7=7=7=z_=&c%c%b%*&8&M2s'm;Z.f&v%`@-4R;2&2&<8P%$%D$i$fGgGhGpbWciG`d'ljGkGtBlG]x3pmGUE0wohuBnGoGoGLFnGdAqEpGuF2DqGrG{F]F]FsEsGtGuG*G/BvGwGfBxGMCyGzGAGBGCGPCDGEGFGGGHGIGJGKGLG                                              ",
"tF0BMGNGGxGxOGOG:hPG6sOGQG:o6GRGSGTG6G<o&xqFEzUGU!C5VGN]f)o%q~b^(_G%/)^ / I^L{7$v_]_`8N$`8,B]_gDp)59y_y_05'5b%,56=;vWG                                                                                                                                                                                                                                                                                                                                                                                                                                                                                                                                                                                                                                                                                                                                                                                                                                                                                                                                                                                                  -c^(~dM%!*5/A-5=5=&&&&&&):>56=6=I^7=: 7=L{=&c%'f*&):E*q'D*e&5&k#O%%8N#edL>fbXGYGZG&5{q`G1n Hrz.H7r+Hvk&k&k@HUh#H#H$HDsdF%H&H*Hnsnsns0wniqEpGuFuF2DqG~F{F{F]F=HsGtGuG/BvG-H;H>HxGgB,H'HAG'G/G)H!H~H{H]H^H/H(H_H:H                                            ",
"VlVlfmNGNG*A*A*ADo:o<H[H}Han|H|H1H2H3H4H5H#qrn6H7Hfo+k0aK0e)x]b**$h#)%X&F%E*/ 7=x5'*8HCa'*`8T9]_bobo59x5M{u:v:)*/{$i9H                                                                                                                                                                                                                                                                                                                                                                                                                                                                                                                                                                                                                                                                                                                                                                                                                                                                                                                                                                                                  >j0H$/ ]$/~p;4[2M2M2M25=):7:f.I^7=*41.1.*4b%7=6=y>;49<8]e&(-a*2&n<*0*0iFkCaHbHcH+G!e=7H5vl[xFz|pdHGemfliMn2p8r8reHtB#HfHfmVluB#GdAdALFxx]sgHhH$GvF)F|D~F{F]FsGtGtGuGuGzBiHjHABkHlHlHmH]DyFzFnHoHoHpHqHrHsHtHuHvHwH                                          ",
"ohoh%H%H^A^Asn#H^A<oxHyHzHzHAHAHBHsqsqBHAHAH_o0nCH8BIaN0GjH[z]j{W~E{W@E%F-F%[ ( 05v_d.'*p8'*x9:7}n}na&95l$)5>-I%(tDH                                                                                                                                                                                                                                                                                                                                                                                                                                                                                                                                                                                                                                                                                                                                                                                                                                                                                                                                                                                                      EH#1 ]$/5AJk[2ByByM2M2I%>0f.A_v:v:!5!5v:v:I^)*y1~p(5[6^*x-^}n<83FHId=CGHHHIH1cmpPu/oJH88TiKH'8QkGemfliMn2p8r8reHtB#HfHNGfm&HuB#G#GMFMFLHgHhH$GvFvF|D~F{F]F=HsGtGuG*G/FzBjHMHNHOHOH-GPHyF[FQHRHRHRHqHSHTHUHVHWHXH                                          ",
"%H%HNGNGtAfHsnsn<oxH$o{sYH%nZHZH(h(h3H(h(h`H IZx$n+q-ae<406jY0VF`>];K!B*S$D*5=>-L{^_]_]_:7]_]_:7YmYmi '5u:a5;*L(h..I                                                                                                                                                                                                                                                                                                                                                                                                                                                                                                                                                                                                                                                                                                                                                                                                                                                                                                                                                                                                      +Ikdi]@I5AJkr'(@(@M2M2I%)*>0A_>-v:!5!5;*;*;*&&=-6]|(y-D%&((1mjLbF6&5#I$I*C>mUy%I&IRl*I=I]jTi-I/eIp;I[f>IMn2p2p8r,I$H#HfHfHohoh&HuBNFNF'ILHgHhH$GvF1D|D|D~F)I!I=HsGuG*G~IeBMHNHOHOH-G-G-GyF[F{IQH]I'GqH]H^I/I(I_I:I<I                                      ",
"%H%HNGNGfHsn#H$HyHPx{s[I%n}I|I|I1I(h(h1I2I3IOq4I5I6ISi0|Kfe7Znc[M!g)L22&>$S$6&&&v:05:7:7:7:7:7:73737/6'5*4>-):A',4                                                                                                                                                                                                                                                                                                                                                                                                                                                                                                                                                                                                                                                                                                                                                                                                                                                                                                                                                                                                          {5=m@I~pp'Dam+(@o<o4):)*>06=>->-S<S<8&8&&&E*!*p.y*__./n/<_}&T5L4O<#5fa7I8I9Ihx]e0IaI,8CHbITirBcI;I;Ili1pdI>I>IMn#pUh$H#H<HDo%Hoh}G8GcF'ILHgHhH$GeI1DeIeIfIgIhI)I=HtG2CiIjIvGkIMHlIlI=G-GPHyFmIQH{I]InIqHoIpIqIrIsItIuI                                  ",
"<o<o<o<o$HUhmimi@H@HvIvI}IwIwIwIxIyIzIAIBICIDIEIFIGIrAit!iBkF7obO<rdbaL2i8)3K[r';*p4(6L$j6:7:7j6a&i 7$p4*4>-y>(ty(                                                                                                                                                                                                                                                                                                                                                                                                                                                                                                                                                                                                                                                                                                                                                                                                                                                                                                                                                                                                          HIII_r$/o'JIm+JB^@o4):):)*)*>->-d&d&8&&&r'o'%-j&__S]KIb(~:Mb k#5LIMI5zNIOILfPIit0I$9JHQI^h;lw8RISITIGemflilidI>Ick(k#pUhxH<oDo%HohQG8GNFio]sgHhHUIeIUIUIJDVIfIhI!I=HWI2CiI~IXIjIkIMHlHlHNH-GYIzGOCOCnIJEZI^ICE`I J.J+J@J#J                              ",
"<o<o<oxHUh#p$J$J&k&kThTh%JwIjeje&Jbk*JCICI=J-J;J>J,J6Icj'J)JBkea!J>c!bXa%cN9i6q;M2v:'5_6/6j6j6j6a&/6'5p4v:)*A',4>|                                                                                                                                                                                                                                                                                                                                                                                                                                                                                                                                                                                                                                                                                                                                                                                                                                                                                                                                                                                                          Klpj_r,(|!N2`.~J^@^@M2):)*6=>-;*o<o<&&r'o'e&p.s>(1k,tu}_q2{JS|]JS7N6^J/J(JmpPhXE`o$9_J-lJHbm:JHpRISITIGemfli1pdIck@HmimiPxyH<HDo%H%H}G8GioioLHgH<JUIUIeIVI[JgIhI!I=H2C2CiIiI}JXIvGMHMHMHMHNHOHYImI|JOCnInI3F:DrH^I|F1J2J3J4J5J                          ",
"#H$HtBeH(k@HMnMn6J6J6J%J7J4I8J9JDI0JakaJaJ-J;JbJcJdJeJfJaIgJ&a|chJ,eiJf6~fNAjJO2JIo4b%p4=&/6ff/6/67$u:*4*&I%(tkJ                                                                                                                                                                                                                                                                                                                                                                                                                                                                                                                                                                                                                                                                                                                                                                                                                                                                                                                                                                                                              lJx=)j#/p;G0~JmJ^@M2o4>5*&>-;*o<m+m;T;%-N%%*{;o%@<l>nb/1o1nJ7IoJXe><pJYeqJ]e]egJrJsJsJzctJuJvJiGHp|pcIIpIpGemf1p>Ickck>ryHwJ<HDo%H}G8GNFMFio]shH$GUIeI|D|D[J}DxJxJ=HsGsGtGiI~IeByJMHkIzJfBHCAJAJmH{ImIBJCJDJEJFJGJHJIJJJKJLJMJ                        ",
"#p#p@Hckck&k>I>I6J6JNJNJ4IOJPJie0J0JakUiQJbJbJcJRJSJTJAcUJ:qVJWJXJYJZJe6{fcD`J1Bo;$zAr,5z_44>f447$L{*4,5>5L(,4 K                                                                                                                                                                                                                                                                                                                                                                                                                                                                                                                                                                                                                                                                                                                                                                                                                                                                                                                                                                                                              .K-c5m#/q;l+`.mJ+K%&M2>5,5>-O4(@m+T;n;N%Q;C{g)]}z:%<S|@KNs#KO0}a[b$Kb9b9b9%KPh'JgJ8B8BsJzcKj&KEz*K=K>lrB/e-KQk;K>K&kck>rPxwJ<HDo%HQG}G8GNFio]sgHhHUIeI1D|D[J[J[J}D!I=HsGtGiIiI~I~IkIkIzJ,KHCGCGCOH(BmI<EBD'K)K!KBJqH/E~K{K]K^K/K(K                    ",
"ckckMnMn>IdIvkSkvkli_K:KemOJie!m<KFe[K}K|K1K1Ktk2K3KKaKa4K|d5K-}6KK97K8K)69K%ch6s2JIIu):A_/6y_=&'5p4b%>54/Ya0K84                                                                                                                                                                                                                                                                                                                                                                                                                                                                                                                                                                                                                                                                                                                                                                                                                                                                                                                                                                                                                ,jx:5mq'l)f&mJ)C*%o4*&>5O4O4m+N2u%**i'^}a^z<pc>cq5Uc]JikB9aKbKcKtjtjb9b9$KpJQg0|dKvd&F-aRgH5&KSg:JLjw8Fz/eMjGemf6J&kmi#pyHxH<HDoOGQG}G8GNFMFioioeK<J<JUIUIeIVI[JfIhI)I!I=HsGiIiIjIvG,KHCHCHCGCOHYIzGzGmImICGQHRH)G{EfKGEgKhKiKjKkK                  ",
"&k&k>I>IdIdIlivkmfmflKlKmKnKieEIFe[KoKpK1KqKtkrK3KKasKtKTb4K5K[puK^fUd>6'6vKwKOA1BxKr'Od*&44/6z_'5,5'57:f.zayK                                                                                                                                                                                                                                                                                                                                                                                                                                                                                                                                                                                                                                                                                                                                                                                                                                                                                                                                                                                                                  zKAK_r~ds'Z.a3m+N4o4>5):o4o4l)p;5&)32&L2mj]}q23h'e7l8lc,6KBKbKcK otjCKb9b9pJ@60|w7dKvd&F-aDKEKFK^e'mw8FzrBMjGemfNJ6J$J#pyHxH<HDoQGQG}G8GNFNFioioGKeKeK<J<JUIJDVIfIgIhI)I!I=H2CiI}JjIzJ,KfBfBHCOHYIPHzG[F{I>G,GHKHKpHpH{EqHIKJK!GKKLKMKNK            ",
"dIdIvkvk+H+H[f[fGeRkMj@q@qFIOKtbPKbIV7QKRKSK*aTKUKVKWKXKXKYKYKZK$Keo[aYJ5l)6dbNA`KO2p'[2>5p47$7=p4,5q6>0sc<+ L                                                                                                                                                                                                                                                                                                                                                                                                                                                                                                                                                                                                                                                                                                                                                                                                                                                                                                                                                                                                                    + x/f5p';5m+m+N4M2hrIuM2N4N2w5i6[!b*N>Lbl>I[#5;6.LD7ncNiBKmccK&C+L otj)J!i/JT7Qg0|@Luj-aRgvjRl^e^eLjw8Fz^iIp,lmfvk&k@H#pUh<o^AOGOGQG}G}G8GSESEcFioaFGKGKeK<JUIJDVIfIgIhI)I=HsG2C~IeBABkIMHfBNH(B-GyF#L$L%LxD&L&LHKwD*L3F=L-L;LGJ>L,L'L)L          ",
"dIdIlili+H[f[f!LQkQk/erB~LYxtbLa{LV7QKEeSKTKUKYcVKVKWK]Lrbrbrb-}pJ^o^LUdQ5/L!6rci8S;-*q'8&b%L{7=b%p4^%K(*2Ks                                                                                                                                                                                                                                                                                                                                                                                                                                                                                                                                                                                                                                                                                                                                                                                                                                                                                                                                                                                                                      (LY1Gu~dr's'l)N4M2IuOdr'Dao;_7R;p9g)$amb4'#5Kk^1Ha1cXJ_L6Kmcmc.c&C+L o:L)Jzb/J@6Qg0|mp&F-aittJQIbm'mLjw8FzMjIpGemf6J&k$J#pxH<o<H&n&nOGOGOG:h:h<LbnPFPFbFaFGKeK[L[L}L}LfIgI!I=HWI2C~IeBvGkIMHlH|L1L-GyG;G2LHFHF&LHKED3F!K3L4L5L6L7L^E8L9L0L        ",
"vklimfmf[f[f!LdHcI|prB-IYx,JLa{LAckhaL4KbLYcVKcL`o`o`o[pdLeLeLJnCK^oc,[aKkfLtl{6!fQ;%-p'8&*4: ( 6=I^^{YaG&gL                                                                                                                                                                                                                                                                                                                                                                                                                                                                                                                                                                                                                                                                                                                                                                                                                                                                                                                                                                                                                      hLZ5Htw:!:q'r'N4M2M2r'DaJIxKZ-h6L2L;2ew*4'G4<ahJ^1iL1cncc,B9aKWJjLbKcKOk=le<K|9bOtQg0|rJgJsJzcJHQIbm*ILjw8/eMjRkGekLNJlL$J#pxHxH<o<HDo&n&nmLmLmL:hnLoLpLbFaFeKXB7E7E[LqLfIhI!I!IsGtG*G/F(FrLlH|L1L]DyFyF;G$L$L,GED*L'G3F=L=L3LsL7LsHtLuLvLwLxL    ",
"limfRkRk!L!LTgyL|pTl-ITiLa{L{LdJkhaL4KzLYccLYKYKJaALALALdLY}&ab9B[lgB9E82cq1>cLb -^},%T;<.>-( < )*L(/_zaBL                                                                                                                                                                                                                                                                                                                                                                                                                                                                                                                                                                                                                                                                                                                                                                                                                                                                                                                                                                                                                          CL,.!)y1A-q'N4M2M2r'X1k)w5j'Rd -$aJ2d_DLx0KkELhJFLf8GLAe9|9|BKWJmcbK%aOkFpe<K|9b@6QgfC'J8BsJ-lJHQI^e'mLjrBMjQkRkHLkL@pUg$J#pxHxH<HDo&nOG:h:h0GmLILnLQFPFbFGKJLREXB7EqL}LgI)I!I=HsGtGuG/FKLrL|L(B|JMEmIMEmImI]I]I]I'G*L*LqHLLMLNLEJOLPLQLRLSLTLUL",
"mfRkyLyLTgTgTl>l|p>lPKbIdJVLqKqKWLXLzLYLYK{j`oZKfCYepJYepJ)JZL)JuK`LB9E8LkU9&j}&N>w-g#D*7&}.++/ )*^%5]za M                                                                                                                                                                                                                                                                                                                                                                                                                                                                                                                                                                                                                                                                                                                                                                                                                                                                                                                                                                                                                          .M}s+MJ{A-q'N4M2N4p'p;q;Z-(9i8x*$ardZ=iJ]f_8@Mp1FLf8XJ#M8lc,BKaKmcbKlcPiYA`/FpK|$MQgfCrJ%M}d0I&MJHbm;lLjrB/eQkQk^k^k*M=MUg$JPxPx-MwJ7G&n&n&nmLmL:h<LQFpLPFbF;MJLXB7E[LJD>M,M'M)M!M~M{M%G]M/B^M/MCJ(M(M_M:M_M<M[MOCRHnHPC&L}M(E|M{H1M2M3M4M5M6M7M",
"RkQk8M8MyL|p>l9MTlLjbICH0MEeSKaMzLzLTbYK{jVJ[p[pKnbMpJpJ9lcMf/[bbKdMc,6'2ci0J[]<mj{;i'-*a-R$/;8$I%7:eMmkfM                                                                                                                                                                                                                                                                                                                                                                                                                                                                                                                                                                                                                                                                                                                                                                                                                                                                                                                                                                                                                          gMhMeM$!q'm;s'N4r'o'D*K[i6h6&|x*|=LbT5 kGaQ5_8p1eaf81cnc*lrjBkBKW9W9lcO0YA,gFpe<ia@6QgfCrJ'JsJ&MJHQI;l'm>l/e-KQk%k%kiM*M@plLjMkMlMmM5GnMnMnM:h:h<L<LQFQFpLPFbFaFXB<J[LeIoM>M'M'M)M!M!M~MpMqMrMsMtMuMvMvMwM(M_MxMmI{I,GyM&LzMAMBMCMDMEMFMGMHMIMJM",
"/e/erBrB>lLjLjLj;lbmKMJHJH_JLMU7}dYKMMJaJaPhPhPh@6@6T7/JK|,g=lPi9|9|on6'N5NMJ[qcK2,3A*D*a-E*;-y>):>0GgOM                                                                                                                                                                                                                                                                                                                                                                                                                                                                                                                                                                                                                                                                                                                                                                                                                                                                                                                                                                                                                              Wr1<!*Z.]@r.%&r'o'-*K[j'N9L2EaXa2el> kd[Seeea6LkHa)e.LD7!ePbacPb%;ge3nWdWd4ne<K|9bOt@60|@Lvd]ezctJlf^e'mw8rBrBnfnfuk%kHLNJThvI>r>rPxPx}H[H7G&n:h<LbnbnbnbnPMOFbF'IGK<JeI1DeI|D)I)I)I!IsGQMXIRM^MSM|L(BTM|J|J|JmImIUMUM{IzFVMVMVM{EWMWMEEDEXMtH",
"/erBrB-Iw8LjLj'mbmQIJHJH0lzc8BZe}d`oVJJaPhPhPhYe$M$M/J><`/YAPiO0N0N0faj9UcYMI[^d)k,3/9n;q'A-y14/):zpqoZM                                                                                                                                                                                                                                                                                                                                                                                                                                                                                                                                                                                                                                                                                                                                                                                                                                                                                                                                                                                                                              `M N#/q.G0r.%&r'5/-*n;**N9%|v-u}]}u*l>4'I[ee/1LkN5)e.LD7!ePbPb%;%;gewm3n3n~j4ne<K|9bOtQ06[vd-azctJlf,m'mLj-IrB/h/huk%kHLNJThvI>r>r>rPx}H[H7G&n:hbnbnSESEbnPMPMOF'IgHhHUIeIeI1DhIhIhI)IsGuG}JXIvGkIMHlHNHOHmH|J|JmImImImImIvD.N.N^EpHJGCECEEFEF",
"rBrBGIGILj'm'm'mbmQIJH-lzcsJ8B.E%MVJrk7HXEXEYepJ9l><zbii,gPilclcJ|fa*lj9Uc+Nnb^d)km9^94=o'=---4/I%x/@N                                                                                                                                                                                                                                                                                                                                                                                                                                                                                                                                                                                                                                                                                                                                                                                                                                                                                                                                                                                                                                  y/8]V Z.U %&q'o'-*4=B*i8%|ba$a]}w*w* kI[ee/1Lk;6Ha.LUeM0PbPbPb%;%;gewmwm7'~jFpe<K|9b5[6[vd&F#6jatJ!B^e+q88GIrBrBnf#NHLkL%JThvIvI>r>rPxyHnM7G&nOG<L<L<L<L$s$NOF'IgHhHUIUIUIeIfIgIgIhI!ItG%N}JjIvGkIMHlHNH(BmHmH|J|JmImImIQHvDRH.N^EqH)GJG^I^I",
"rB-IGI88'm'm;l;lQIJH-l_JsJ8B.E[dVJJa7H%K%K%K$K$Kzbzbii^JYAO0lc=}J|8l6'&NLI*N%<yh$a7f^}j'-*o'A-y1^%=N                                                                                                                                                                                                                                                                                                                                                                                                                                                                                                                                                                                                                                                                                                                                                                                                                                                                                                                                                                                                                                    -NK{s'D*s's'q'o'e&=*[!N&%|XaLb2embT5l,nbeeq5'e;6Ha)eUeI9!eE7;N;NPb%;gewmWd7'=lFpe<9b5[Q0dK&F>N#6tJRlbm*I'm88-I-I/hnf^kHLDm%JThThkMkM>rPx6G5GnM7GmLmLmLmL,N$sOF'ILHgH<J<JeKUIfIgIgIhI)I=H'N%N}JjIjIvGMHMH|L(B(BmH|J|JmImICGZIvDvDRH^EpH)G)NCE",
"w8w8Lj'm;l;lbmbmJH-lzcsJ8BZe[drkPhXE%KJnJn$K!i)Jzbii`/,gPiOs=}!Nfa@Ko1Uc06*N1_8iLb7f^})3e&T;A-y1x/~N                                                                                                                                                                                                                                                                                                                                                                                                                                                                                                                                                                                                                                                                                                                                                                                                                                                                                                                                                                                                                                      {N=-T;m;m;m;6&v%**h)N&&|N>Lb34Lb*jz:%ji075a62c;6N5)e.L]N]N>1pBrjon~e~e|^@0>mP^e<K|Ot5[w7dK&F-azctJlfbm;l'mTi-I/hnfmKlK:K_K%J%JThvI>rPx>rPx6G5GnM7G7G7GOGQG8GNF'ILHLHLHGK<JeI~F)I)I)I)I^N/N%N}JXIjIvGkIMHMH|L(BmH|J|JME(N(NCGQHQHRHRH*L*L^E",
"LjLj'm'm;l^hQIQI-l_JsJ8BZe.ErkXE%K%KJnY}b9b9)JcMii^J,gYAOs_N!N:N^8Mk&lV9re lBz<N34{6C{)3u%T;A-J{t99f                                                                                                                                                                                                                                                                                                                                                                                                                                                                                                                                                                                                                                                                                                                                                                                                                                                                                                                                                                                                                                      [Na0A-A-m;m;6&v%j#<8&4n<x*$a$a$a]}z:[&1_U9q5'eLk;6HaHa}N|Nnn]NM0rjonN0~eKf@0>m=le<9bOt_fw7vd&FsJzc#klfKM^hPKTiKH/h#NmKlK:KDm%J%JThkM>rPxPx5G5GnM7G&n&nOGOGQG}GOFOF'I'IaFeKeI|DhI)IhIgI1N^N/N%N%N}J}JXIjIvG^MSM(B(BmHmH2N(N3NCGQHQH]IRH*L*L",
"LjLj'm;lbmQIJHJHzcsJ8BZerJfCXE%KJn$Kb9b9!i)JcM[b=lYAYA#K4Nik:N5N@Ke(qere(d5iBzo3]}K2C{#a5&p;p'$!6N                                                                                                                                                                                                                                                                                                                                                                                                                                                                                                                                                                                                                                                                                                                                                                                                                                                                                                                                                                                                                                        7NHbO:=-F%m;0-8 &*N#<8p9,3mjmj|=]}z:|_%<i0eeq52cLk;6;6L0u0u0fe]N>1!erjN0~eKf|^>mP^8N9b=7_f0|mpvd-azc0lJHQI;l88-IrBMjIpmKlK:K_K_K9NThvI{s{sPxyHxH<o<o^A&n&nOGQG}G8GOF'ILHLH<JeI1D|D|D>MhI)I!I=H0N0N0NaNQMQMjIvG^MSM|L|L2N2NbNbN[M:DOCQH'G'G",
"Lj'm'm;lbmQIJHJHzcsJ8BZerJPhXEJn$Kb9CKCK)Jii[b(fPi#K#KOsNsJ|5N^8e(1eCk l5iNMcN[&}&b+w-Q;/}n'o'x:dN                                                                                                                                                                                                                                                                                                                                                                                                                                                                                                                                                                                                                                                                                                                                                                                                                                                                                                                                                                                                                                          eN;v$!=-m;U 8 &*N#N#^},3g)g)|=2eg'$<nb%<G4q5'eLkLkLkL0L0u0fenn]NM0!erjon~eKf|^>mQl8NOt=70|@Lvd&FsJzc#kQI;lLj-IrB/eMj#NmK:K:K_K9NThvI[I[I>rPxPxyHxH<o&n&n&nOGQG}GPMOFLHLHGKeKUI1D|D|DgIhI)I)IfNfNfNgNaNhN}JXIRM^M^MSM]D2N2NbN[M[MOCOCOCQH",
"fc*I^ebm^ebmtJzczc8B'JrJfCPhpJ$K)J)JcMcMcMcMOkPiO0Os4Nd<iN5N@K+mU(/rT1652_$j[&#<34x*{;93n;q'9<jNkN                                                                                                                                                                                                                                                                                                                                                                                                                                                                                                                                                                                                                                                                                                                                                                                                                                                                                                                                                                                                                                          lNh.!)^ a-F-&%,$z=h)2&1=m9,3B{Az@<Uo&j-;i0U9q5/15'j02cLkmNL0u0feB;40M0!eN0Kf@0P^P^QlOtOt5[5[Qg@L-aectJRlbm^e;l'mGInN/eMj)m5I5I(e9NNj}qSu@H@H[I{syHxH}H}H[HoNOGQG}G8GOFLHgH$GeIeI|D|D>M>MoMoMgIhIgN0N0N0N'N/N}JXIjIRM^MSM|L(BmH|J|JMEmImI",
"*I^ebmbmQIJH0lzcsJ8BrJfCPhXE$Kb9)JZLcMcMcMX}PiOsOs_Nd<d<iN5N@Kco/r/rT165pNcN|_f'8/a^93@-p7~p7]=f                                                                                                                                                                                                                                                                                                                                                                                                                                                                                                                                                                                                                                                                                                                                                                                                                                                                                                                                                                                                                                            qNXj+MJ{b#q$8 k#z=z=2&{;,3,3B{z<@<9/W/o3%<i075q5U15'2cLkmNL0L0fee740!erjon~e|^>mP^QlK|9bOt5[_f@L&F-a0ltJQIbm;l'mGInNrBMjZd)m)m5I_K9NNj}q@H@H[I{syHxH}H}H[HoN&nOGQG}GOF'IgHhHUIeI1D|D,M>M>M>MgIhIfNfN0N0N'N/N%N}JXIXIRM^MSM|L(BmH|J|JMEME",
"bmbmbmQI0lzcsJsJgJrJfCPh@6$M!i)JiicM[b[bYAYAPiOse>nJd<iNb>rNsNE;/raqF4CgocGlQ=D_k,(1%*#-5m_rtN~z                                                                                                                                                                                                                                                                                                                                                                                                                                                                                                                                                                                                                                                                                                                                                                                                                                                                                                                                                                                                                                              uNXvr/F%q$8 k#-$B*^9]9.-.-beKIAzb(~:vNo3%ji00,NM/1'e2cLk;6N5Uce7B;0m0monN0~e|^>mP^Ql8Nh25[Q06[@Lujec0l#klfbm*ILjFznNuy{gxjIp,lxlxl_KNj}qSu(k(k(k$oanan[HoN:oQqQGQG8GMFLHhHhH$GvF)F,M,M>M>M>M>MgIgIgNgN^N'N'N/N%N%NXIjIvGkI|L(B(BmHmH|J",
"JHQIbmJHzc8B8BsJrJfCPh%K$M9l)JZLcM[b|a(fPiPiOs_NnJd<iNwNxN+icoyNaqzNl-@5|sHl9/<_(1q(j&a2C1x/,0                                                                                                                                                                                                                                                                                                                                                                                                                                                                                                                                                                                                                                                                                                                                                                                                                                                                                                                                                                                                                                                ANBN_(X&F-j=S$h#h#a*]9]9.-be,A@ltupc~:&j-;q1U90,NMU1'e2cLk;6N5feB;jk0mrjon~eKf@0>mP^Qlh2C2Q06[@Lmp-aectJlfbm^eLjFznNuy{gxjIpIp,lxl:K9N}qSu@H(k(k(k$o5H[HoN:oQqOGQG8GNF'IgHgHhH$GvFoM>M>M>M>M>MfIfICNCNDNDN^N'N'N/N%N%NXIjI^MSM|L|L(BmH",
"tJRlRltJsJ8BgJgJfCPh$M9l9l!iZL:L=lPiO0O0O0Os4N4NnJiNb>xN+iENFNyNzN/p@w0s)nQ=p%k,{;./vc*)Guh.GN                                                                                                                                                                                                                                                                                                                                                                                                                                                                                                                                                                                                                                                                                                                                                                                                                                                                                                                                                                                                                                                  kJ;v] -*q$E%H%Z%R98oL8.-1m7AHN7c]<pcq2o3-;Bz0,NMq5/1(daaLkN5&lo140jk0mNk~eKfKf|^>mQlQiRiQ06[D[mp-aRg0ltJQI^e+qfcfcal{gxjxjxj,lxl,l#oNj}qSuSuSuINUzUzJNJN:oQqQqGx}G8GNFMFLHgHhH$GKNLNMNMNoMoMNNNNfIfIONPNQNDN^N'NWIWI/N}JXIvGkIkIlHlH",
"0ltJtJ0lsJZe'J'JPhXE$M9l!i)JZL[bYAPilclc_N_N4Nd<d<iNxN+iENRN@iSNF4TN]pUNMi9/8/U5__]4Q v9+M6k                                                                                                                                                                                                                                                                                                                                                                                                                                                                                                                                                                                                                                                                                                                                                                                                                                                                                                                                                                                                                                                    VNGu~*c{F-&-l&Z%y-7m93.-:_1mWNIhAz]<#<<No3%jU90,75q5(daaLk;6Uc&le740jkF<~e~eKfKf@0P^Qigx5[6[D[Jj-aRg0l0lJHbm^e*I+q2duy{gxjxj,lxlxl#o9NNj}q}qSuSu$o$oUzJN:oQqQqGxQG}G8GNF'ILHgHgHXNYNKNLNNNNNNNNNqLqLZNZNONQNDNDN1N`N^N'N%N}JXIjIkIkI",
"0lzcsJsJ8BZerJfCYepJ9l!i!i)J[b|aYAO0lcHc=}=}d<d< Ob>rN+iRNFN@j.Ol-@wqxHlu[D_k,S]./9on^Gu{5+O                                                                                                                                                                                                                                                                                                                                                                                                                                                                                                                                                                                                                                                                                                                                                                                                                                                                                                                                                                                                                                                      {o;-&-c{&-<*Q Y%R9TA@O2m:_#OHN$Ode]<}_&j-;z9U975q5/1(dj0(0N5&le7B;400mon~eKfKf4NhaQl4[gx%O6[D[&F-azczc0ltJQIbm*I+q2dal{gxj(o[qxl#o&O&ONjNj}qSu[I{s{sUzKp*OQqQqOGQG8GNF=O-OLHgHLHgHXNYN;O>O>O>OqLqL,O,OZNONPNPN1N1N1N`NWI2C}J}JjIjI",
"zc]e8B'JZe'JfCYeYepJ9lzb)Jii[b(fPiO0Hc!N=}=}d<d<pob>rNsNRN@i@jvo#j%y0s1:9/Y!Q]7/s>3=6ceM'O                                                                                                                                                                                                                                                                                                                                                                                                                                                                                                                                                                                                                                                                                                                                                                                                                                                                                                                                                                                                                                                        d=A'~*6]c{G%`%j&6m]o)O{9{9a^WNo%@l}&~:W/o3%jz9240,q5(daa!OR|&lo1B;B;40rjN0Kf|^Nse>P^8N4[Ri6[~Omp&FsJsJsJzcJHQI^e*Ifc2d^i{gxj(o#o#o&O&Ovk9NNj}qckck@H{sUzKp:oQqQqQG}G8GNF=OMFLHLHgHXNXN{O;O;O;OqLqLqL,O]OZNZNON^O^O^O1N`NWI/N%N}J}J",
"ec/O-aPI&FmpQgT7><zbK|`/e<,gPiO0lc=}ik:N:N:N]J]JxNrNe(1eR7yNr8 l(O$jUNMiM]O(Y$q(=5OoZq_O                                                                                                                                                                                                                                                                                                                                                                                                                                                                                                                                                                                                                                                                                                                                                                                                                                                                                                                                                                                                                                                          :O<O'w~de&=*5&N%^;6m8o__K8(1beB{ce]}@<e)$<[&BzGl$j6fDq65*N-8CkCk0ao1o1400mNk;1;1Z/ycg(4[gx5[Q0@Lmp&F-aecittJRl,mSgSlfc2dalrg[O[O[O;Ixl&ONrsBsBSkGzjGSuIN}OUzJNUz<o^ANGfm[GNGQG'I'IaFGKGKGKGKeK<J;O|O|O|OqLqLqLfIfIfIgIhI)IfNgN'N'N",
"Am/OPIujmp@LOI/Jzbzb`/`/`/,gPiO0_N=}iN:N:N:N]J^8rN+i1eU(1O@j*N[B(O2O)n&0Wp7oC|__7m3O^(4O                                                                                                                                                                                                                                                                                                                                                                                                                                                                                                                                                                                                                                                                                                                                                                                                                                                                                                                                                                                                                                                            5O%l$!K[j'Z-**^;=57m./__a^ /b+o%2e@<e)0/[&S(Gl|spN@5DqT(E_-8qeqeo1+m400mNk;1;1Z/ycj-Qi4[5[Q00|@L&F-a]eec0ltJlf,m*KSlfc2d^irgrg[O;I98#o&ONrsB4s4sjGkGININ$o$oUzJN^A*ANGNGNGGxcFOFbFbFaFaFGKGKeKeK6O6O|OqLqL}LqL}L}LfIgIhIfNgN^N'N",
"hxPIujmp@LQgT7/Jzbii`/,g,gYAO0lc4Nik:N5N5N5NrN+i+isN1OyNyNvo l5i$jmlMijn$1T$=2]42=4j7O                                                                                                                                                                                                                                                                                                                                                                                                                                                                                                                                                                                                                                                                                                                                                                                                                                                                                                                                                                                                                                                              8O{5J{D*=*_7**N%=57m././a^S]b+B{2e}&Z!g'|_[&Gl|s$j@5Dq65g|-8qeU(o1+m40jkF<9O;18A3[ycQlQiOt5[_f{evd&FgJ]eecittJRlSg*K+q+qFzFz^irgTI;Ixl#o&O&OTs4sjGkGSuSu[I[I$oUz<o^A*A*A*AQqbn|G|GPMOFOF'I'IaFaF0O0O{O;O>O>O;O;O;O>O}LgICNfNfNgN",
"PIuj@L0|QgQgT7/Jzbii,gYAYAPiO0_NNsik5N5Ne8e8+isNsNcoyN@j@jr8[B(OaOL3m-Y!7oY$^4^*bOcO                                                                                                                                                                                                                                                                                                                                                                                                                                                                                                                                                                                                                                                                                                                                                                                                                                                                                                                                                                                                                                                                dO8hp^-*u%Z-/}/}@-~0x-x-1=(1mjB{34]}Y=e)$<|_S(Gl$jpN2_Dqc/E_06Ck&lo1B;jk0mNk;1;1$d3[P^8N9b5[=7_fw7vd'JgJ]eec0ltJ,mSg*I+qw8FzFz^i|pcI,lxlxl#osgTsjGjGSu}qvIvI{s$oxH<o^A^A*A*AOG1G1G|GPMPMOFOFbFbFeOfO0O0O{O;O{O{O{O;OqL}LgOgOCNCN",
"mp@L0|QgQg@6/J/Je<FpYAPiPiO0_N=}ik:N5Ne8d>d>sNcosNE;yN@jvor8[B(O2OhOIl<_R_1&D%=:iOjO                                                                                                                                                                                                                                                                                                                                                                                                                                                                                                                                                                                                                                                                                                                                                                                                                                                                                                                                                                                                                                                                  Fba08]#$=*4=k'^;R9o/o/];a^g)b+Lb2e:&Z!W/$<[&S(cN$j6f2_:^c/reS|Uc&le7400mF<9O9O8AZ/>mQlkOh2lO=7Qg@LdKvdgJ]ezctJRl!BSg*K+qfcw8FzFz^icITI;I98[fsgSkGz}q}qThvI{s{syHxHxH<o<o^AOGOGQGQG$s$sPMPMOFPMPMOFmOnOnOoOoOoO0O0O{O;O;O;OpOqO",
"0|Qg@6@6@6@6/J><Fp=lPiO0O0lc=}=}:N5Ne8d>rOrOcoE;cosO@jvor8*N5i$jUNipjn8/e$q(I,vctO                                                                                                                                                                                                                                                                                                                                                                                                                                                                                                                                                                                                                                                                                                                                                                                                                                                                                                                                                                                                                                                                      T88]F-5&C*i)N%6ms>s>w-1=N>mj$a34z@Y=z:W/|_[&BzcNc(6fh|:^(dreN5Uce7B;jk0mF<Nk;18A@0P^4nkOialOQg0|dKdK'JgJsJ0ltJ!B,mSg*I+qw8w8Fz^icITITI;I!L[fvkSkNjNjThvI[I[IPxPxyHxH<o<o&nOGOGOG,N,N1G1GPM|G|G|GuOuOmOmOoOoOfOfO0O0O0O{OvOvO",
"Qg@6@6@6T7/J9be<,gYAO0lc_N_N=}!N:N5Nd>rOMk+mE;sO1O@jvor8T(65pN2OwOxOpl,AY$./04ldyO                                                                                                                                                                                                                                                                                                                                                                                                                                                                                                                                                                                                                                                                                                                                                                                                                                                                                                                                                                                                                                                                      T8] &-E%C*l'N%=5R9~0L8.-m9VA|j$O]}@<#<z:|_[&%jBz24c(M^:^aareN5UcfeB;40jk0mNk9O8A@0>mP^Ql9bOt_f{ew7dKvd&F8Bzc0ltJlf,mSg*KLjw8w8Fz|pcITITI!L[flili9N9NThvIvIvI>r>rPxyHxHxH:o:o:o:o&n&nrrrr,N,N,N,N|GPMPMOFnOnOnOnOnOoOoOoO0O0O"};
