/* XPM */
static char *door_half_xpm[] = {
"64 64 64 1",
"  c #1A0A05",
". c #2D1B0E",
"+ c #3D2515",
"@ c #4A2E1A",
"# c #5C3A22",
"$ c #6B4428",
"% c #7A4E2E",
"& c #8B5A2B",
"* c #9A6530",
"= c #A87035",
"- c #B57B3A",
"; c #C2863F",
"> c #CD9044",
", c #D89A4A",
"' c #E3A450",
") c #EDAE56",
"! c #F5B85C",
"~ c #F8C268",
"{ c #FACE78",
"] c #FCDA8A",
"^ c #FDE69C",
"/ c #FEF0AE",
"( c #0D0705",
"_ c #150B07",
": c #1D0F09",
"< c #25130B",
"[ c #2D170D",
"} c #35190F",
"| c #3D1B11",
"1 c #451D13",
"2 c #4D1F15",
"3 c #551F17",
"4 c #5D2119",
"5 c #65231B",
"6 c #6D251D",
"7 c #75271F",
"8 c #87CEEB",
"9 c #6BB8DC",
"0 c #4FA2CD",
"a c #A0522D",
"b c #B85E35",
"c c #D06A3D",
"d c #0F0806",
"e c #170C08",
"f c #1F100A",
"g c #27140C",
"h c #2F180E",
"i c #371A10",
"j c #3F1C12",
"k c #471E14",
"l c #4F2016",
"m c #572218",
"n c #5F241A",
"o c #67261C",
"p c #6F281E",
"q c #772A20",
"r c #000000",
"s c #080404",
"t c #100806",
"u c #180C08",
"v c #200E0A",
"w c #28100C",
"x c #30120E",
"y c #38140F",
".............................                                   ",
".+@@@@@@@@@@@@@@@@@@@@@@@@+.rrrrrrrrrrrrrrrrrrrrrrrrrrrrrrrrrrrrr",
".@#$$$$$$$$$$$$$$$$$$$$$$#@.rrrrrrrrrrrrrrrrrrrrrrrrrrrrrrrrrrrrr",
".@$&&&&&&&&&&&&&&&&&&&&&&&&$@.rrrrrrrrrrrrrrrrrrrrrrrrrrrrrrrrrrr",
".@$&*=========------;;;;*&$@.rrrrrrrrrrrrrrrrrrrrrrrrrrrrrrrrrrr",
".@$&=;;;;;;;;;;;;;;;;;>=&$@.rrrrrrrrrrrrrrrrrrrrrrrrrrrrrrrrrrrrr",
".@$&=;>>>>>>>>>>>>>>>>>;=&$@.rrrrrrrrrrrrrrrrrrrrrrrrrrrrrrrrrrr",
".@$&=;>,,,,,,,,,,,,,,,>;=&$@.rrrrrrrrrrrrrrrrrrrrrrrrrrrrrrrrrrr",
".@$&=;>,''''''''''''',>;=&$@.rrrrrrrrrrrrrrrrrrrrrrrrrrrrrrrrrrr",
".@$&=;>,'))))))))))',>;=&$@.rrrrrrrrrrrrrrrrrrrrrrrrrrrrrrrrrrrrr",
".@$&=;>,')!!!!!!!)(',>;=&$@.rrrrrrrrrrrrrrrrrrrrrrrrrrrrrrrrrrrrr",
".@$&*=========------;;;;*&$@.rrrrrrrrrrrrrrrrrrrrrrrrrrrrrrrrrrr",
".@$&&&&&&&&&&&&&&&&&&&&&&&$@.rrrrrrrrrrrrrrrrrrrrrrrrrrrrrrrrrrr",
".@$&*=========------;;;;*&$@.rrrrrrrrrrrrrrrrrrrrrrrrrrrrrrrrrrr",
".@$&=;>,')!!~~~~~~~~!)(',>;=&$@.rrrrrrrrrrrrrrrrrrrrrrrrrrrrrrrr",
".@$&=;>,')!~88888888~!)(',>;=&$@.rrrrrrrrrrrrrrrrrrrrrrrrrrrrrr",
".@$&=;>,')!~88888888~!)(',>;=&$@.rrrrrrrrrrrrrrrrrrrrrrrrrrrrrr",
".@$&=;>,')!~88888888~!)(',>;=&$@.rrrrrrrrrrrrrrrrrrrrrrrrrrrrrr",
".@$&=;>,')!~88888888~!)(',>;=&$@.rrrrrrrrrrrrrrrrrrrrrrrrrrrrrr",
".@$&=;>,')!~88888888~!)(',>;=&$@.rrrrrrrrrrrrrrrrrrrrrrrrrrrrrr",
".@$&=;>,')!~88888888~!)(',>;=&$@.rrrrrrrrrrrrrrrrrrrrrrrrrrrrrr",
".@$&=;>,')!~88888888~!)(',>;=&$@.rrrrrrrrrrrrrrrrrrrrrrrrrrrrrr",
".@$&=;>,')!!~~~~~~~~!)(',>;=&$@.rrrrrrrrrrrrrrrrrrrrrrrrrrrrrrrr",
".@$&*=========------;;;;*&$@.rrrrrrrrrrrrrrrrrrrrrrrrrrrrrrrrrrr",
".@$&&&&&&&&&&&&&&&&&&&&&&&$@.rrrrrrrrrrrrrrrrrrrrrrrrrrrrrrrrrrr",
".@$&*=========------;;;;*&$@.rrrrrrrrrrrrrrrrrrrrrrrrrrrrrrrrrrr",
".@$&=;>>>>>>>>>>>>>>>>>;=&$@.rrrrrrrrrrrrrrrrrrrrrrrrrrrrrrrrrrr",
".@$&=;>,,,,,,,,,,,,,,,>;=&$@.rrrrrrrrrrrrrrrrrrrrrrrrrrrrrrrrrrr",
".@$&=;>,''''''''''''',>;=&$@.rrrrrrrrrrrrrrrrrrrrrrrrrrrrrrrrrrr",
".@$&=;>,'))))))))))',>;=&$@.rrrrrrrrrrrrrrrrrrrrrrrrrrrrrrrrrrrrr",
".@$&=;>,')!!!!ab!!)(',>;=&$@.rrrrrrrrrrrrrrrrrrrrrrrrrrrrrrrrrrr",
".@$&=;>,')!!!!bc!!)(',>;=&$@.rrrrrrrrrrrrrrrrrrrrrrrrrrrrrrrrrrr",
".@$&=;>,')!!!!ab!!)(',>;=&$@.rrrrrrrrrrrrrrrrrrrrrrrrrrrrrrrrrrr",
".@$&=;>,')!!!!bc!!)(',>;=&$@.rrrrrrrrrrrrrrrrrrrrrrrrrrrrrrrrrrr",
".@$&=;>,')!!!!ab!!)(',>;=&$@.rrrrrrrrrrrrrrrrrrrrrrrrrrrrrrrrrrr",
".@$&=;>,'))))))))))',>;=&$@.rrrrrrrrrrrrrrrrrrrrrrrrrrrrrrrrrrrrr",
".@$&=;>,''''''''''''',>;=&$@.rrrrrrrrrrrrrrrrrrrrrrrrrrrrrrrrrrr",
".@$&*=========------;;;;*&$@.rrrrrrrrrrrrrrrrrrrrrrrrrrrrrrrrrrr",
".@$&&&&&&&&&&&&&&&&&&&&&&&$@.rrrrrrrrrrrrrrrrrrrrrrrrrrrrrrrrrrr",
".@$&*=========------;;;;*&$@.rrrrrrrrrrrrrrrrrrrrrrrrrrrrrrrrrrr",
".@$&=;>,')!!~~~~~~~~!)(',>;=&$@.rrrrrrrrrrrrrrrrrrrrrrrrrrrrrrrr",
".@$&=;>,')!~88888888~!)(',>;=&$@.rrrrrrrrrrrrrrrrrrrrrrrrrrrrrr",
".@$&=;>,')!~88888888~!)(',>;=&$@.rrrrrrrrrrrrrrrrrrrrrrrrrrrrrr",
".@$&=;>,')!~88889900~!)(',>;=&$@.rrrrrrrrrrrrrrrrrrrrrrrrrrrrrr",
".@$&=;>,')!~88889900~!)(',>;=&$@.rrrrrrrrrrrrrrrrrrrrrrrrrrrrrr",
".@$&=;>,')!~88888888~!)(',>;=&$@.rrrrrrrrrrrrrrrrrrrrrrrrrrrrrr",
".@$&=;>,')!~88888888~!)(',>;=&$@.rrrrrrrrrrrrrrrrrrrrrrrrrrrrrr",
".@$&=;>,')!!~~~~~~~~!)(',>;=&$@.rrrrrrrrrrrrrrrrrrrrrrrrrrrrrrrr",
".@$&*=========------;;;;*&$@.rrrrrrrrrrrrrrrrrrrrrrrrrrrrrrrrrrr",
".@$&&&&&&&&&&&&&&&&&&&&&&&$@.rrrrrrrrrrrrrrrrrrrrrrrrrrrrrrrrrrr",
".@$&*=========------;;;;*&$@.rrrrrrrrrrrrrrrrrrrrrrrrrrrrrrrrrrr",
".@$&=;>>>>>>>>>>>>>>>>>;=&$@.rrrrrrrrrrrrrrrrrrrrrrrrrrrrrrrrrrr",
".@$&=;>,,,,,,,,,,,,,,,>;=&$@.rrrrrrrrrrrrrrrrrrrrrrrrrrrrrrrrrrr",
".@$&=;>,''''''''''''',>;=&$@.rrrrrrrrrrrrrrrrrrrrrrrrrrrrrrrrrrr",
".@$&=;>,'))))))))))',>;=&$@.rrrrrrrrrrrrrrrrrrrrrrrrrrrrrrrrrrrrr",
".@$&=;>,')!!!!!!!)(',>;=&$@.rrrrrrrrrrrrrrrrrrrrrrrrrrrrrrrrrrrrr",
".@$&=;>,'))))))))))',>;=&$@.rrrrrrrrrrrrrrrrrrrrrrrrrrrrrrrrrrrrr",
".@$&=;>,''''''''''''',>;=&$@.rrrrrrrrrrrrrrrrrrrrrrrrrrrrrrrrrrr",
".@$&*=========------;;;;*&$@.rrrrrrrrrrrrrrrrrrrrrrrrrrrrrrrrrrr",
".@$&&&&&&&&&&&&&&&&&&&&&&&$@.rrrrrrrrrrrrrrrrrrrrrrrrrrrrrrrrrrr",
".@#$$$$$$$$$$$$$$$$$$$$$$#@.rrrrrrrrrrrrrrrrrrrrrrrrrrrrrrrrrrrrr",
".+@@@@@@@@@@@@@@@@@@@@@@@@+.rrrrrrrrrrrrrrrrrrrrrrrrrrrrrrrrrrrrr",
".............................                                   ",
".............................                                   ",
".............................                                   "
};