/* XPM */
static char *door_closed_xpm[] = {
"64 64 64 1",
"  c #1A0A05",
". c #2D1B0E",
"+ c #3D2515",
"@ c #4A2E1A",
"# c #5C3A22",
"$ c #6B4428",
"% c #7A4E2E",
"& c #8B5A2B",
"* c #9A6530",
"= c #A87035",
"- c #B57B3A",
"; c #C2863F",
"> c #CD9044",
", c #D89A4A",
"' c #E3A450",
") c #EDAE56",
"! c #F5B85C",
"~ c #F8C268",
"{ c #FACE78",
"] c #FCDA8A",
"^ c #FDE69C",
"/ c #FEF0AE",
"( c #2A1A0D",
"_ c #3A2414",
": c #4D301C",
"< c #5E3C24",
"[ c #6F482C",
"} c #805434",
"| c #91603C",
"1 c #A26C44",
"2 c #B3784C",
"3 c #C48454",
"4 c #D5905C",
"5 c #E69C64",
"6 c #F7A86C",
"7 c #FFB474",
"8 c #FFC07C",
"9 c #FFCC84",
"0 c #FFD88C",
"a c #FFE494",
"b c #FFF09C",
"c c #87CEEB",
"d c #6BB8DC",
"e c #4FA2CD",
"f c #A0522D",
"g c #B85E35",
"h c #D06A3D",
"i c #4A3020",
"j c #5A3C28",
"k c #6A4830",
"l c #7A5438",
"m c #8A6040",
"n c #9A6C48",
"o c #AA7850",
"p c #BA8458",
"q c #CA9060",
"r c #DA9C68",
"s c #EA A870",
"t c #352010",
"u c #452A18",
"v c #553420",
"w c #653E28",
"x c #754830",
"y c #855238",
"................................................................",
".+@@@@@@@@@@@@@@@@@@@@@@@@@@@@@@@@@@@@@@@@@@@@@@@@@@@@@@@@@@@@+.",
".@#$$$$$$$$$$$$$$$$$$$$$$$$$$$$$$$$$$$$$$$$$$$$$$$$$$$$$$$$$$#@.",
".@$&&&&&&&&&&&&&&&&&&&&&&&&&&&&&&&&&&&&&&&&&&&&&&&&&&&&&&&&&&&$@.",
".@$&*==============---------;;;;;;;;;;;;>>>>>>>>>>>,,,,,,,,*&$@.",
".@$&=;;;;;;;;;;;;;;;;;;;;;;;;;;;;;;;;;;;;;;;;;;;;;;;;;;;;;>=&$@.",
".@$&=;>>>>>>>>>>>>>>>>>>>>>>>>>>>>>>>>>>>>>>>>>>>>>>>>>>>>;=&$@.",
".@$&=;>,,,,,,,,,,,,,,,,,,,,,,,,,,,,,,,,,,,,,,,,,,,,,,,,,,,>;=&$@.",
".@$&=;>,'''''''''''''''''''''''''''''''''''''''''''''''',>;=&$@.",
".@$&=;>,')))))))))))))))))))))))))))))))))))))))))))))))',>;=&$@.",
".@$&=;>,')!!!!!!!!!!!!!!!!!!!!!!!!!!!!!!!!!!!!!!!!!!!!)(',>;=&$@.",
".@$&*==============---------;;;;;;;;;;;;>>>>>>>>>>>,,,,,,,,*&$@.",
".@$&&&&&&&&&&&&&&&&&&&&&&&&&&&&&&&&&&&&&&&&&&&&&&&&&&&&&&&&&&&$@.",
".@$&*==============---------;;;;;;;;;;;;>>>>>>>>>>>,,,,,,,,*&$@.",
".@$&=;>,')!!~~~~~~~~~~~~~~~~~~~~~~~~~~~~~~~~~~~~~~~~!)(',>;=&$@.",
".@$&=;>,')!~cccccccccccccccccccccccccccccccccccccccc~!)(',>;=&$@.",
".@$&=;>,')!~cccccccccccccccccccccccccccccccccccccccc~!)(',>;=&$@.",
".@$&=;>,')!~cccccccccccccccccccccccccccccccccccccccc~!)(',>;=&$@.",
".@$&=;>,')!~cccccccccccccccccccccccccccccccccccccccc~!)(',>;=&$@.",
".@$&=;>,')!~cccccccccccccccccccccccccccccccccccccccc~!)(',>;=&$@.",
".@$&=;>,')!~cccccccccccccccccccccccccccccccccccccccc~!)(',>;=&$@.",
".@$&=;>,')!!~~~~~~~~~~~~~~~~~~~~~~~~~~~~~~~~~~~~~~~~!)(',>;=&$@.",
".@$&*==============---------;;;;;;;;;;;;>>>>>>>>>>>,,,,,,,,*&$@.",
".@$&&&&&&&&&&&&&&&&&&&&&&&&&&&&&&&&&&&&&&&&&&&&&&&&&&&&&&&&&&&$@.",
".@$&*==============---------;;;;;;;;;;;;>>>>>>>>>>>,,,,,,,,*&$@.",
".@$&=;>>>>>>>>>>>>>>>>>>>>>>>>>>>>>>>>>>>>>>>>>>>>>>>>>>>>;=&$@.",
".@$&=;>,,,,,,,,,,,,,,,,,,,,,,,,,,,,,,,,,,,,,,,,,,,,,,,,,,,>;=&$@.",
".@$&=;>,'''''''''''''''''''''''''''''''''''''''''''''''',>;=&$@.",
".@$&=;>,')))))))))))))))))))))))))))))))))))))))))))))))',>;=&$@.",
".@$&=;>,')!!!!!!!!!!!!!!!!!!!!!!!!!!! ff !!!!!!!!!!!!)(',>;=&$@.",
".@$&=;>,')!!!!!!!!!!!!!!!!!!!!!!!!!!! fg !!!!!!!!!!!!)(',>;=&$@.",
".@$&=;>,')!!!!!!!!!!!!!!!!!!!!!!!!!!! gh !!!!!!!!!!!!)(',>;=&$@.",
".@$&=;>,')!!!!!!!!!!!!!!!!!!!!!!!!!!! fg !!!!!!!!!!!!)(',>;=&$@.",
".@$&=;>,')!!!!!!!!!!!!!!!!!!!!!!!!!!! ff !!!!!!!!!!!!)(',>;=&$@.",
".@$&=;>,')))))))))))))))))))))))))))))))))))))))))))))))',>;=&$@.",
".@$&=;>,'''''''''''''''''''''''''''''''''''''''''''''''',>;=&$@.",
".@$&*==============---------;;;;;;;;;;;;>>>>>>>>>>>,,,,,,,,*&$@.",
".@$&&&&&&&&&&&&&&&&&&&&&&&&&&&&&&&&&&&&&&&&&&&&&&&&&&&&&&&&&&&$@.",
".@$&*==============---------;;;;;;;;;;;;>>>>>>>>>>>,,,,,,,,*&$@.",
".@$&=;>,')!!~~~~~~~~~~~~~~~~~~~~~~~~~~~~~~~~~~~~~~~~!)(',>;=&$@.",
".@$&=;>,')!~cccccccccccccccccccccccccccccccccccccccc~!)(',>;=&$@.",
".@$&=;>,')!~cccccccccccccccccccccccccccccccccccccccc~!)(',>;=&$@.",
".@$&=;>,')!~cccccccccccddddddddddddddccccccccccccccc~!)(',>;=&$@.",
".@$&=;>,')!~cccccccccccddddddddddddddccccccccccccccc~!)(',>;=&$@.",
".@$&=;>,')!~cccccccccccccccccccccccccccccccccccccccc~!)(',>;=&$@.",
".@$&=;>,')!~cccccccccccccccccccccccccccccccccccccccc~!)(',>;=&$@.",
".@$&=;>,')!!~~~~~~~~~~~~~~~~~~~~~~~~~~~~~~~~~~~~~~~~!)(',>;=&$@.",
".@$&*==============---------;;;;;;;;;;;;>>>>>>>>>>>,,,,,,,,*&$@.",
".@$&&&&&&&&&&&&&&&&&&&&&&&&&&&&&&&&&&&&&&&&&&&&&&&&&&&&&&&&&&&$@.",
".@$&*==============---------;;;;;;;;;;;;>>>>>>>>>>>,,,,,,,,*&$@.",
".@$&=;>>>>>>>>>>>>>>>>>>>>>>>>>>>>>>>>>>>>>>>>>>>>>>>>>>>>;=&$@.",
".@$&=;>,,,,,,,,,,,,,,,,,,,,,,,,,,,,,,,,,,,,,,,,,,,,,,,,,,,>;=&$@.",
".@$&=;>,'''''''''''''''''''''''''''''''''''''''''''''''',>;=&$@.",
".@$&=;>,')))))))))))))))))))))))))))))))))))))))))))))))',>;=&$@.",
".@$&=;>,')!!!!!!!!!!!!!!!!!!!!!!!!!!!!!!!!!!!!!!!!!!!!)(',>;=&$@.",
".@$&=;>,')))))))))))))))))))))))))))))))))))))))))))))))',>;=&$@.",
".@$&=;>,'''''''''''''''''''''''''''''''''''''''''''''''',>;=&$@.",
".@$&*==============---------;;;;;;;;;;;;>>>>>>>>>>>,,,,,,,,*&$@.",
".@$&&&&&&&&&&&&&&&&&&&&&&&&&&&&&&&&&&&&&&&&&&&&&&&&&&&&&&&&&&&$@.",
".@#$$$$$$$$$$$$$$$$$$$$$$$$$$$$$$$$$$$$$$$$$$$$$$$$$$$$$$$$$$#@.",
".+@@@@@@@@@@@@@@@@@@@@@@@@@@@@@@@@@@@@@@@@@@@@@@@@@@@@@@@@@@@@+.",
"................................................................",
"................................................................",
"................................................................"
};