/* XPM */
static char *door_open_xpm[] = {
"64 64 20 1",
"  c #1A0A05",
". c #2D1B0E",
"+ c #3D2515",
"@ c #4A2E1A",
"# c #5C3A22",
"$ c #6B4428",
"% c #7A4E2E",
"& c #8B5A2B",
"* c #9A6530",
"= c #A87035",
"- c #B57B3A",
"; c #C2863F",
"> c #CD9044",
", c #D89A4A",
"' c #000000",
") c #080404",
"! c #100806",
"~ c #180C08",
"{ c #0D0705",
"] c #150B07",
"......                                                          ",
".+@@+.''''''''''''''''''''''''''''''''''''''''''''''''''''''''''",
".@#$@.''''''''''''''''''''''''''''''''''''''''''''''''''''''''''",
".@$&@.''''''''''''''''''''''''''''''''''''''''''''''''''''''''''",
".@$&@.''''''''''''''''''''''''''''''''''''''''''''''''''''''''''",
".@$&@.''''''''''''''''''''''''''''''''''''''''''''''''''''''''''",
".@$&@.''''''''''''''''''''''''''''''''''''''''''''''''''''''''''",
".@$&@.''''''''''''''''''''''''''''''''''''''''''''''''''''''''''",
".@$&@.''''''''''''''''''''''''''''''''''''''''''''''''''''''''''",
".@$&@.''''''''''''''''''''''''''''''''''''''''''''''''''''''''''",
".@$&@.''''''''''''''''''''''''''''''''''''''''''''''''''''''''''",
".@$&@.''''''''''''''''''''''''''''''''''''''''''''''''''''''''''",
".@$&@.''''''''''''''''''''''''''''''''''''''''''''''''''''''''''",
".@$&@.''''''''''''''''''''''''''''''''''''''''''''''''''''''''''",
".@$&@.''''''''''''''''''''''''''''''''''''''''''''''''''''''''''",
".@$&@.''''''''''''''''''''''''''''''''''''''''''''''''''''''''''",
".@$&@.''''''''''''''''''''''''''''''''''''''''''''''''''''''''''",
".@$&@.''''''''''''''''''''''''''''''''''''''''''''''''''''''''''",
".@$&@.''''''''''''''''''''''''''''''''''''''''''''''''''''''''''",
".@$&@.''''''''''''''''''''''''''''''''''''''''''''''''''''''''''",
".@$&@.''''''''''''''''''''''''''''''''''''''''''''''''''''''''''",
".@$&@.''''''''''''''''''''''''''''''''''''''''''''''''''''''''''",
".@$&@.''''''''''''''''''''''''''''''''''''''''''''''''''''''''''",
".@$&@.''''''''''''''''''''''''''''''''''''''''''''''''''''''''''",
".@$&@.''''''''''''''''''''''''''''''''''''''''''''''''''''''''''",
".@$&@.''''''''''''''''''''''''''''''''''''''''''''''''''''''''''",
".@$&@.''''''''''''''''''''''''''''''''''''''''''''''''''''''''''",
".@$&@.''''''''''''''''''''''''''''''''''''''''''''''''''''''''''",
".@$&@.''''''''''''''''''''''''''''''''''''''''''''''''''''''''''",
".@$&@.''''''''''''''''''''''''''''''''''''''''''''''''''''''''''",
".@$&@.''''''''''''''''''''''''''''''''''''''''''''''''''''''''''",
".@$&@.''''''''''''''''''''''''''''''''''''''''''''''''''''''''''",
".@$&@.''''''''''''''''''''''''''''''''''''''''''''''''''''''''''",
".@$&@.''''''''''''''''''''''''''''''''''''''''''''''''''''''''''",
".@$&@.''''''''''''''''''''''''''''''''''''''''''''''''''''''''''",
".@$&@.''''''''''''''''''''''''''''''''''''''''''''''''''''''''''",
".@$&@.''''''''''''''''''''''''''''''''''''''''''''''''''''''''''",
".@$&@.''''''''''''''''''''''''''''''''''''''''''''''''''''''''''",
".@$&@.''''''''''''''''''''''''''''''''''''''''''''''''''''''''''",
".@$&@.''''''''''''''''''''''''''''''''''''''''''''''''''''''''''",
".@$&@.''''''''''''''''''''''''''''''''''''''''''''''''''''''''''",
".@$&@.''''''''''''''''''''''''''''''''''''''''''''''''''''''''''",
".@$&@.''''''''''''''''''''''''''''''''''''''''''''''''''''''''''",
".@$&@.''''''''''''''''''''''''''''''''''''''''''''''''''''''''''",
".@$&@.''''''''''''''''''''''''''''''''''''''''''''''''''''''''''",
".@$&@.''''''''''''''''''''''''''''''''''''''''''''''''''''''''''",
".@$&@.''''''''''''''''''''''''''''''''''''''''''''''''''''''''''",
".@$&@.''''''''''''''''''''''''''''''''''''''''''''''''''''''''''",
".@$&@.''''''''''''''''''''''''''''''''''''''''''''''''''''''''''",
".@$&@.''''''''''''''''''''''''''''''''''''''''''''''''''''''''''",
".@$&@.''''''''''''''''''''''''''''''''''''''''''''''''''''''''''",
".@$&@.''''''''''''''''''''''''''''''''''''''''''''''''''''''''''",
".@$&@.''''''''''''''''''''''''''''''''''''''''''''''''''''''''''",
".@$&@.''''''''''''''''''''''''''''''''''''''''''''''''''''''''''",
".@$&@.''''''''''''''''''''''''''''''''''''''''''''''''''''''''''",
".@$&@.''''''''''''''''''''''''''''''''''''''''''''''''''''''''''",
".@$&@.''''''''''''''''''''''''''''''''''''''''''''''''''''''''''",
".@$&@.''''''''''''''''''''''''''''''''''''''''''''''''''''''''''",
".@$&@.''''''''''''''''''''''''''''''''''''''''''''''''''''''''''",
".@#$@.''''''''''''''''''''''''''''''''''''''''''''''''''''''''''",
".+@@+.''''''''''''''''''''''''''''''''''''''''''''''''''''''''''",
"......                                                          ",
"......                                                          ",
"......                                                          "
};