/* XPM */
static char * wall_north_xpm[] = {
"64 64 3775 2",
"  	c #81341A",
". 	c #8C3718",
"+ 	c #C76A4B",
"@ 	c #B65535",
"# 	c #88280F",
"$ 	c #943215",
"% 	c #AB4821",
"& 	c #93330B",
"* 	c #8F3A1D",
"= 	c #9B4C2D",
"- 	c #85360D",
"; 	c #C96E39",
"> 	c #EE7933",
", 	c #FA7B2E",
"' 	c #F3742D",
") 	c #D85E1B",
"! 	c #BE4C0D",
"~ 	c #AF4C0B",
"{ 	c #AB5B14",
"] 	c #E09051",
"^ 	c #CF7044",
"/ 	c #9D3917",
"( 	c #963419",
"_ 	c #943E27",
": 	c #7D3527",
"< 	c #994C30",
"[ 	c #DE7B37",
"} 	c #FF9843",
"| 	c #FF9344",
"1 	c #B34A06",
"2 	c #BA5423",
"3 	c #C25F35",
"4 	c #CD6B3C",
"5 	c #B1582C",
"6 	c #84401B",
"7 	c #C0805D",
"8 	c #F9AE86",
"9 	c #DF814B",
"0 	c #FF9245",
"a 	c #FD7B25",
"b 	c #E46312",
"c 	c #DE5C0E",
"d 	c #E25C13",
"e 	c #EA641B",
"f 	c #E8661A",
"g 	c #E66512",
"h 	c #EC6C13",
"i 	c #F67319",
"j 	c #F46A12",
"k 	c #F56A15",
"l 	c #FA6F1A",
"m 	c #F67017",
"n 	c #F57218",
"o 	c #FF8528",
"p 	c #FF8E2D",
"q 	c #FF912B",
"r 	c #FF962D",
"s 	c #FF9C30",
"t 	c #FC9C2C",
"u 	c #F59A28",
"v 	c #F69F2B",
"w 	c #FFAF37",
"x 	c #FFBB42",
"y 	c #FFBC44",
"z 	c #7A2E17",
"A 	c #813015",
"B 	c #9A4327",
"C 	c #AB5033",
"D 	c #A34428",
"E 	c #AF4C2F",
"F 	c #C45C39",
"G 	c #B04C2A",
"H 	c #8D3215",
"I 	c #A65538",
"J 	c #904A28",
"K 	c #86390D",
"L 	c #B34F14",
"M 	c #EB7432",
"N 	c #F4742D",
"O 	c #F26F29",
"P 	c #CE5413",
"Q 	c #BB4F0E",
"R 	c #B25C13",
"S 	c #CA7A35",
"T 	c #ED8E5E",
"U 	c #C4603E",
"V 	c #8D2B0E",
"W 	c #77200C",
"X 	c #6D291E",
"Y 	c #7B3720",
"Z 	c #9B440E",
"` 	c #E7853E",
" .	c #F68E45",
"..	c #A44100",
"+.	c #843002",
"@.	c #A9562E",
"#.	c #D06B3F",
"$.	c #D8774A",
"%.	c #C67B51",
"&.	c #9F5E34",
"*.	c #9B5730",
"=.	c #A95B2D",
"-.	c #CF6F33",
";.	c #F28540",
">.	c #F27D37",
",.	c #E0611A",
"'.	c #DC530F",
").	c #E75C19",
"!.	c #EA6721",
"~.	c #E8691C",
"{.	c #F06C17",
"].	c #FA721A",
"^.	c #F86D18",
"/.	c #F06512",
"(.	c #F36614",
"_.	c #FC711C",
":.	c #FA721C",
"<.	c #FF7F24",
"[.	c #FD8224",
"}.	c #FE8A27",
"|.	c #FF9D36",
"1.	c #F88F24",
"2.	c #F89425",
"3.	c #FD9F2E",
"4.	c #F59C28",
"5.	c #F6A32B",
"6.	c #FFB53C",
"7.	c #FFBD43",
"8.	c #81351D",
"9.	c #7A2C15",
"0.	c #7E3019",
"a.	c #89381B",
"b.	c #A24825",
"c.	c #B4502C",
"d.	c #BA4B2D",
"e.	c #8C2004",
"f.	c #953B21",
"g.	c #904123",
"h.	c #B26843",
"i.	c #84390F",
"j.	c #A65526",
"k.	c #EA8750",
"l.	c #EA6A29",
"m.	c #F46B27",
"n.	c #E7672A",
"o.	c #B44003",
"p.	c #B95813",
"q.	c #AF5612",
"r.	c #DA7D40",
"s.	c #F89A67",
"t.	c #BF633C",
"u.	c #934022",
"v.	c #793522",
"w.	c #783620",
"x.	c #81360E",
"y.	c #A84E19",
"z.	c #E4773C",
"A.	c #A84410",
"B.	c #6A2B0C",
"C.	c #602E17",
"D.	c #6B2A14",
"E.	c #7F381A",
"F.	c #A35F30",
"G.	c #D18E5A",
"H.	c #BC774E",
"I.	c #813F1D",
"J.	c #753C21",
"K.	c #B87451",
"L.	c #E4854F",
"M.	c #F5803D",
"N.	c #E55E1C",
"O.	c #E15311",
"P.	c #E45D19",
"Q.	c #F06A21",
"R.	c #F16516",
"S.	c #F46715",
"T.	c #F36817",
"U.	c #F36A19",
"V.	c #EB600F",
"W.	c #F66B18",
"X.	c #F36B15",
"Y.	c #F26F15",
"Z.	c #F07316",
"`.	c #F27C1A",
" +	c #F98822",
".+	c #F4891F",
"++	c #FE982A",
"@+	c #FF9E2F",
"#+	c #FA9F2C",
"$+	c #F7A22D",
"%+	c #FCAD36",
"&+	c #FFC54A",
"*+	c #83351E",
"=+	c #8A3E26",
"-+	c #7D3318",
";+	c #732608",
">+	c #893310",
",+	c #A84726",
"'+	c #B84C30",
")+	c #A43A20",
"!+	c #711300",
"~+	c #822D0E",
"{+	c #A1512C",
"]+	c #8C4119",
"^+	c #722906",
"/+	c #CD7649",
"(+	c #E86D31",
"_+	c #E55E1A",
":+	c #F27233",
"<+	c #D45E20",
"[+	c #B94F11",
"}+	c #B14F0E",
"|+	c #AD500D",
"1+	c #E78D4F",
"2+	c #F69F6A",
"3+	c #A5532B",
"4+	c #732C10",
"5+	c #6C290F",
"6+	c #70290B",
"7+	c #C06C47",
"8+	c #EC8155",
"9+	c #B4542C",
"0+	c #7B4731",
"a+	c #724C3F",
"b+	c #6E3C31",
"c+	c #6E3019",
"d+	c #702900",
"e+	c #7D2E00",
"f+	c #9A4818",
"g+	c #B16847",
"h+	c #703F2E",
"i+	c #683726",
"j+	c #C07852",
"k+	c #E0804D",
"l+	c #E66D34",
"m+	c #E96525",
"n+	c #EE6A29",
"o+	c #FB7631",
"p+	c #EF651D",
"q+	c #EE6419",
"r+	c #F46F24",
"s+	c #F26F21",
"t+	c #F36E1F",
"u+	c #EB6715",
"v+	c #F16F1B",
"w+	c #E7650F",
"x+	c #F07015",
"y+	c #F87D1F",
"z+	c #F88220",
"A+	c #FA8A24",
"B+	c #FF9A30",
"C+	c #FF9F30",
"D+	c #FC9E2D",
"E+	c #F7A02C",
"F+	c #F8A32F",
"G+	c #FFB13A",
"H+	c #81331F",
"I+	c #8B3E24",
"J+	c #863814",
"K+	c #863613",
"L+	c #752105",
"M+	c #81270F",
"N+	c #98391D",
"O+	c #B45132",
"P+	c #B65431",
"Q+	c #9F411B",
"R+	c #88330A",
"S+	c #863812",
"T+	c #783113",
"U+	c #9C4824",
"V+	c #EE7D45",
"W+	c #CE510E",
"X+	c #DE681E",
"Y+	c #F5833D",
"Z+	c #BF5018",
"`+	c #BC531A",
" @	c #AC4E0E",
".@	c #B9621D",
"+@	c #E7904D",
"@@	c #E9975D",
"#@	c #954A22",
"$@	c #823B1D",
"%@	c #80381F",
"&@	c #8B3B22",
"*@	c #A64429",
"=@	c #963C24",
"-@	c #753D2C",
";@	c #74483B",
">@	c #733A31",
",@	c #8E482F",
"'@	c #A8561E",
")@	c #C76824",
"!@	c #C55C22",
"~@	c #8D2D00",
"{@	c #863F23",
"]@	c #6F3A28",
"^@	c #885B48",
"/@	c #BE8568",
"(@	c #D1764A",
"_@	c #E3743C",
":@	c #EF7536",
"<@	c #ED6D2C",
"[@	c #E76726",
"}@	c #E86827",
"|@	c #E86926",
"1@	c #ED712B",
"2@	c #E46A21",
"3@	c #E56B1E",
"4@	c #EA6F1F",
"5@	c #EB6D19",
"6@	c #F1711A",
"7@	c #EF6F16",
"8@	c #F4771A",
"9@	c #F98321",
"0@	c #FF942D",
"a@	c #FE992D",
"b@	c #FB9B2D",
"c@	c #FA9F2D",
"d@	c #F69729",
"e@	c #EE9724",
"f@	c #782209",
"g@	c #762104",
"h@	c #86340F",
"i@	c #8C3C19",
"j@	c #883620",
"k@	c #7A2511",
"l@	c #862C12",
"m@	c #8E300E",
"n@	c #AD4A21",
"o@	c #C36134",
"p@	c #9F4014",
"q@	c #822A04",
"r@	c #A4573B",
"s@	c #812E0C",
"t@	c #B34B14",
"u@	c #CF5D17",
"v@	c #DB6818",
"w@	c #EE7A2D",
"x@	c #DD672A",
"y@	c #B94A13",
"z@	c #BB581D",
"A@	c #A14506",
"B@	c #C96C27",
"C@	c #E8914E",
"D@	c #D38352",
"E@	c #8A401B",
"F@	c #7D331A",
"G@	c #752814",
"H@	c #7A2310",
"I@	c #71200D",
"J@	c #652813",
"K@	c #783C34",
"L@	c #7D3926",
"M@	c #B15F2F",
"N@	c #D67437",
"O@	c #D8672B",
"P@	c #EB7C45",
"Q@	c #CF714B",
"R@	c #984F2F",
"S@	c #744229",
"T@	c #AD7A5D",
"U@	c #B06840",
"V@	c #B65E2E",
"W@	c #CF6B37",
"X@	c #B84F18",
"Y@	c #B14610",
"Z@	c #CB5C25",
"`@	c #D9662D",
" #	c #E26E31",
".#	c #DD6A29",
"+#	c #E7722D",
"@#	c #DF661D",
"##	c #D75C0F",
"$#	c #EE6F1E",
"%#	c #F07019",
"&#	c #EF6F14",
"*#	c #F3781A",
"=#	c #F98522",
"-#	c #FA8D26",
";#	c #FC952C",
">#	c #F79228",
",#	c #EA8A1C",
"'#	c #922C06",
")#	c #943310",
"!#	c #802C0A",
"~#	c #7B2A0F",
"{#	c #782513",
"]#	c #8A3423",
"^#	c #873118",
"/#	c #8F3713",
"(#	c #923607",
"_#	c #AB4A17",
":#	c #D7683B",
"<#	c #AF451D",
"[#	c #8A3413",
"}#	c #8F3B16",
"|#	c #9D3E08",
"1#	c #D36A26",
"2#	c #E57020",
"3#	c #F47A27",
"4#	c #FB7F35",
"5#	c #D1591C",
"6#	c #B14214",
"7#	c #AB4213",
"8#	c #B24C0E",
"9#	c #CE6F2D",
"0#	c #D6844A",
"a#	c #BE7143",
"b#	c #792D0D",
"c#	c #5B1000",
"d#	c #69210B",
"e#	c #884229",
"f#	c #85401F",
"g#	c #7A391D",
"h#	c #753631",
"i#	c #652621",
"j#	c #702B0E",
"k#	c #A45125",
"l#	c #AA3F0B",
"m#	c #CA551F",
"n#	c #EF7C46",
"o#	c #E67D46",
"p#	c #BE652B",
"q#	c #924710",
"r#	c #7D3A0D",
"s#	c #7F411A",
"t#	c #904F2F",
"u#	c #823D1C",
"v#	c #8F411B",
"w#	c #994217",
"x#	c #B35424",
"y#	c #A9440E",
"z#	c #D2652D",
"A#	c #E16F33",
"B#	c #EE7637",
"C#	c #DC611B",
"D#	c #EA6F22",
"E#	c #E66915",
"F#	c #EA6E16",
"G#	c #F17418",
"H#	c #F87C1C",
"I#	c #FF8424",
"J#	c #FF8B29",
"K#	c #FD8D27",
"L#	c #FA8E29",
"M#	c #F48F25",
"N#	c #DB6E47",
"O#	c #B8512E",
"P#	c #AA5433",
"Q#	c #AB573B",
"R#	c #7D220D",
"S#	c #862A15",
"T#	c #923B1F",
"U#	c #96411C",
"V#	c #D17949",
"W#	c #9A3A08",
"X#	c #B3461F",
"Y#	c #E2744F",
"Z#	c #B75731",
"`#	c #741900",
" $	c #A5460C",
".$	c #D26C24",
"+$	c #F27F2C",
"@$	c #FB812B",
"#$	c #F27427",
"$$	c #DC6020",
"%$	c #BB4819",
"&$	c #C05529",
"*$	c #A54106",
"=$	c #B25215",
"-$	c #B55F26",
";$	c #D58250",
">$	c #B15E36",
",$	c #732300",
"'$	c #611400",
")$	c #6E2303",
"!$	c #85380E",
"~$	c #8A3F1F",
"{$	c #7C3931",
"]$	c #6F322F",
"^$	c #672C1A",
"/$	c #783314",
"($	c #90320C",
"_$	c #A93A0D",
":$	c #C8501B",
"<$	c #D55D1E",
"[$	c #E87C31",
"}$	c #FEA056",
"|$	c #D58B4C",
"1$	c #A26330",
"2$	c #93532F",
"3$	c #6F2D0D",
"4$	c #813818",
"5$	c #9D4821",
"6$	c #822500",
"7$	c #AD481A",
"8$	c #A73C08",
"9$	c #CD5A21",
"0$	c #EF7738",
"a$	c #EE742B",
"b$	c #E96E20",
"c$	c #EB6D18",
"d$	c #F3731A",
"e$	c #FA791D",
"f$	c #FF8224",
"g$	c #FF8323",
"h$	c #F67E1D",
"i$	c #FA8825",
"j$	c #FE912C",
"k$	c #B64A2E",
"l$	c #993418",
"m$	c #9A411F",
"n$	c #9C421F",
"o$	c #C25735",
"p$	c #9E3110",
"q$	c #8A2B0B",
"r$	c #8D3511",
"s$	c #A1481C",
"t$	c #8C3309",
"u$	c #96381E",
"v$	c #AC4A2D",
"w$	c #EC8656",
"x$	c #C65D23",
"y$	c #B04906",
"z$	c #DF7529",
"A$	c #E4721A",
"B$	c #EB731D",
"C$	c #F77B33",
"D$	c #D45A1B",
"E$	c #B7490E",
"F$	c #A64308",
"G$	c #AD5219",
"H$	c #9C420D",
"I$	c #AC4B1E",
"J$	c #B65626",
"K$	c #D47640",
"L$	c #B65822",
"M$	c #933207",
"N$	c #AE5529",
"O$	c #7A2803",
"P$	c #7B321F",
"Q$	c #7F4134",
"R$	c #653423",
"S$	c #5C2715",
"T$	c #67200C",
"U$	c #983E24",
"V$	c #AD4019",
"W$	c #D05D24",
"X$	c #E27427",
"Y$	c #FF9F46",
"Z$	c #FFA047",
"`$	c #F79645",
" %	c #E17F40",
".%	c #9B3B09",
"+%	c #852904",
"@%	c #963D1D",
"#%	c #903A19",
"$%	c #852C0A",
"%%	c #9E401A",
"&%	c #841F00",
"*%	c #AB400C",
"=%	c #E77338",
"-%	c #E26724",
";%	c #E5651C",
">%	c #EB6818",
",%	c #F26E19",
"'%	c #F8751B",
")%	c #FF8125",
"!%	c #FF8021",
"~%	c #F47919",
"{%	c #FA8223",
"]%	c #FF8B2B",
"^%	c #B4482C",
"/%	c #972F12",
"(%	c #7C2301",
"_%	c #7F2502",
":%	c #9D310D",
"<%	c #B74721",
"[%	c #9D3A13",
"}%	c #852800",
"|%	c #913810",
"1%	c #9C4321",
"2%	c #A74626",
"3%	c #C85A25",
"4%	c #FF9654",
"5%	c #D9722F",
"6%	c #BF5710",
"7%	c #E47524",
"8%	c #E97425",
"9%	c #DD6526",
"0%	c #D15F23",
"a%	c #B24A0B",
"b%	c #A34507",
"c%	c #A54C14",
"d%	c #A04612",
"e%	c #A43F13",
"f%	c #BC5324",
"g%	c #C35F24",
"h%	c #DA7436",
"i%	c #D26731",
"j%	c #D56B37",
"k%	c #FB9861",
"l%	c #C46837",
"m%	c #6F1D00",
"n%	c #6B250B",
"o%	c #6D351E",
"p%	c #693422",
"q%	c #6D3126",
"r%	c #661E0F",
"s%	c #7E2409",
"t%	c #A84619",
"u%	c #C76423",
"v%	c #D56F1D",
"w%	c #F4852B",
"x%	c #EC7920",
"y%	c #FB8639",
"z%	c #F07E40",
"A%	c #9C3103",
"B%	c #9F3E1B",
"C%	c #9E4429",
"D%	c #8E371B",
"E%	c #933712",
"F%	c #710E00",
"G%	c #B24919",
"H%	c #D2632B",
"I%	c #E06625",
"J%	c #E5651E",
"K%	c #EA661B",
"L%	c #EF6B19",
"M%	c #F46E15",
"N%	c #FF7E23",
"O%	c #FF8227",
"P%	c #FC7B1F",
"Q%	c #FE8124",
"R%	c #FE8325",
"S%	c #B2451E",
"T%	c #A84019",
"U%	c #751E00",
"V%	c #712003",
"W%	c #8B2C0E",
"X%	c #9C3512",
"Y%	c #C05728",
"Z%	c #9D3707",
"`%	c #892B07",
" &	c #993C1D",
".&	c #AE4B2E",
"+&	c #BE4C10",
"@&	c #F18441",
"#&	c #EC8E51",
"$&	c #CC5E1F",
"%&	c #D05E20",
"&&	c #B94C14",
"*&	c #B8531D",
"=&	c #A74810",
"-&	c #9D420B",
";&	c #A74913",
">&	c #A64711",
",&	c #AA4413",
"'&	c #A94010",
")&	c #C05823",
"!&	c #CC652B",
"~&	c #DA7034",
"{&	c #EC803F",
"]&	c #F5893E",
"^&	c #FFA35C",
"/&	c #C2642E",
"(&	c #A75327",
"_&	c #753013",
":&	c #6C3123",
"<&	c #682F24",
"[&	c #5A1B0A",
"}&	c #5F1700",
"|&	c #7E2C07",
"1&	c #A44412",
"2&	c #CB5A18",
"3&	c #E96F24",
"4&	c #F57D31",
"5&	c #EB7630",
"6&	c #DD6C30",
"7&	c #A53F0F",
"8&	c #9B4224",
"9&	c #AD583B",
"0&	c #8B2902",
"a&	c #B75023",
"b&	c #BE5828",
"c&	c #B24711",
"d&	c #DF6A25",
"e&	c #E3671D",
"f&	c #E6661B",
"g&	c #EC6B1A",
"h&	c #F7711A",
"i&	c #F0690F",
"j&	c #FF7722",
"k&	c #FF7923",
"l&	c #F57A1D",
"m&	c #FF8A2A",
"n&	c #AB411A",
"o&	c #B9522F",
"p&	c #7F2B0F",
"q&	c #661801",
"r&	c #842E13",
"s&	c #943612",
"t&	c #CB5F2E",
"u&	c #B94B18",
"v&	c #822000",
"w&	c #993712",
"x&	c #BE542C",
"y&	c #AD3D0D",
"z&	c #C45214",
"A&	c #EA8140",
"B&	c #FCA36B",
"C&	c #A54B17",
"D&	c #AB410D",
"E&	c #B64813",
"F&	c #B24D19",
"G&	c #AD4F1B",
"H&	c #993E09",
"I&	c #9B400B",
"J&	c #AC4B14",
"K&	c #B4511A",
"L&	c #B44C17",
"M&	c #9F3704",
"N&	c #A43E0D",
"O&	c #C05B25",
"P&	c #D66F34",
"Q&	c #E27935",
"R&	c #F28435",
"S&	c #FF9648",
"T&	c #B65214",
"U&	c #D77943",
"V&	c #D17641",
"W&	c #9B481C",
"X&	c #853F25",
"Y&	c #773A28",
"Z&	c #793E2E",
"`&	c #783928",
" *	c #69220C",
".*	c #752001",
"+*	c #BE5325",
"@*	c #C24E15",
"#*	c #DE6B2A",
"$*	c #DA6927",
"%*	c #E47234",
"&*	c #D76F3C",
"**	c #852D09",
"=*	c #792300",
"-*	c #C15C30",
";*	c #CE6432",
">*	c #922D00",
",*	c #C55E24",
"'*	c #DC7236",
")*	c #DE7033",
"!*	c #E9722E",
"~*	c #F47322",
"{*	c #FD751D",
"]*	c #FF761F",
"^*	c #FE761E",
"/*	c #F17417",
"(*	c #F6801E",
"_*	c #A5432A",
":*	c #892D18",
"<*	c #8E3C26",
"[*	c #6B1E04",
"}*	c #79280B",
"|*	c #8E320D",
"1*	c #CD5F2E",
"2*	c #C85620",
"3*	c #8A2100",
"4*	c #AE4613",
"5*	c #D5662E",
"6*	c #B9480E",
"7*	c #C65920",
"8*	c #D7743D",
"9*	c #FFA873",
"0*	c #C56E39",
"a*	c #B5511D",
"b*	c #B74F1C",
"c*	c #BD5D2A",
"d*	c #8A2F00",
"e*	c #9B3D07",
"f*	c #B14E15",
"g*	c #B04C11",
"h*	c #B64E19",
"i*	c #AF4A16",
"j*	c #9C3709",
"k*	c #A44213",
"l*	c #BD5C27",
"m*	c #CA672C",
"n*	c #E17A37",
"o*	c #F99450",
"p*	c #A24206",
"q*	c #AE5013",
"r*	c #EE8B47",
"s*	c #CE6F2F",
"t*	c #A64B1E",
"u*	c #863311",
"v*	c #84371B",
"w*	c #884028",
"x*	c #7C3A24",
"y*	c #6E260E",
"z*	c #882F0F",
"A*	c #872400",
"B*	c #BB5225",
"C*	c #BF5523",
"D*	c #A53B09",
"E*	c #E98554",
"F*	c #D2794D",
"G*	c #8B3003",
"H*	c #C85F28",
"I*	c #D7692E",
"J*	c #BF5519",
"K*	c #B75725",
"L*	c #914525",
"M*	c #641A01",
"N*	c #A65333",
"O*	c #D87649",
"P*	c #F37A35",
"Q*	c #FA7822",
"R*	c #FD7B1B",
"S*	c #F97813",
"T*	c #FB7B18",
"U*	c #F67A18",
"V*	c #9E3F23",
"W*	c #973B24",
"X*	c #822A16",
"Y*	c #8C3820",
"Z*	c #91330F",
"`*	c #C05221",
" =	c #E47037",
".=	c #B8470B",
"+=	c #C0500E",
"@=	c #CE5C15",
"#=	c #D0611C",
"$=	c #C55C25",
"%=	c #AE4C1B",
"&=	c #B35728",
"*=	c #A44817",
"==	c #B14F1E",
"-=	c #B04F1C",
";=	c #AA4A17",
">=	c #983903",
",=	c #913000",
"'=	c #A8450A",
")=	c #BD5518",
"!=	c #C1571B",
"~=	c #C35820",
"{=	c #BC541F",
"]=	c #AC4719",
"^=	c #9E3D10",
"/=	c #9C3C0C",
"(=	c #AE4E1B",
"_=	c #D36E36",
":=	c #E78348",
"<=	c #C3642C",
"[=	c #B05014",
"}=	c #D76E2A",
"|=	c #DF742E",
"1=	c #D66C30",
"2=	c #A5400C",
"3=	c #903008",
"4=	c #8D3A1A",
"5=	c #83412B",
"6=	c #702F1B",
"7=	c #762C13",
"8=	c #78270A",
"9=	c #8B3514",
"0=	c #711C00",
"a=	c #98431A",
"b=	c #CF764C",
"c=	c #AD4D1D",
"d=	c #CE642A",
"e=	c #E07332",
"f=	c #DB6F2F",
"g=	c #CD6E36",
"h=	c #9E4F30",
"i=	c #692512",
"j=	c #5C1D0C",
"k=	c #924529",
"l=	c #FA8F59",
"m=	c #FC8334",
"n=	c #F47D19",
"o=	c #F77E13",
"p=	c #FA7F17",
"q=	c #FF8E26",
"r=	c #BF5D2C",
"s=	c #B75129",
"t=	c #97331B",
"u=	c #91301D",
"v=	c #A04229",
"w=	c #AC4A27",
"x=	c #D96A35",
"y=	c #F17A38",
"z=	c #F87E33",
"A=	c #DE6512",
"B=	c #E26E17",
"C=	c #F98B3E",
"D=	c #C9642C",
"E=	c #A03D13",
"F=	c #96300A",
"G=	c #AC461E",
"H=	c #B04E1F",
"I=	c #B0501D",
"J=	c #963500",
"K=	c #8F2C00",
"L=	c #A83F05",
"M=	c #AF4305",
"N=	c #B74604",
"O=	c #C85715",
"P=	c #CB5B1C",
"Q=	c #CB6028",
"R=	c #B6501F",
"S=	c #9D3B0C",
"T=	c #9D3C0F",
"U=	c #A03E0F",
"V=	c #AC4817",
"W=	c #CD6937",
"X=	c #E58552",
"Y=	c #BD5925",
"Z=	c #C65720",
"`=	c #D05C1F",
" -	c #EC7630",
".-	c #E7722F",
"+-	c #AC3D06",
"@-	c #781800",
"#-	c #651A05",
"$-	c #6B2C1B",
"%-	c #86462B",
"&-	c #804025",
"*-	c #551605",
"=-	c #5C2113",
"--	c #6C3823",
";-	c #63250C",
">-	c #A0492B",
",-	c #942F05",
"'-	c #9E3400",
")-	c #C05511",
"!-	c #AA4100",
"~-	c #B54E0C",
"{-	c #D1672D",
"]-	c #DC8359",
"^-	c #733B2E",
"/-	c #6B3628",
"(-	c #BA623C",
"_-	c #F68A49",
":-	c #FA8C2D",
"<-	c #EA7C0D",
"[-	c #F98D20",
"}-	c #F4881B",
"|-	c #B55217",
"1-	c #C6612D",
"2-	c #B1482A",
"3-	c #8C2610",
"4-	c #9B3920",
"5-	c #C56242",
"6-	c #D77141",
"7-	c #EF8343",
"8-	c #F27D2D",
"9-	c #E66E18",
"0-	c #F48430",
"a-	c #EC813B",
"b-	c #952E0B",
"c-	c #A73A1B",
"d-	c #BB502E",
"e-	c #A24114",
"f-	c #923603",
"g-	c #923100",
"h-	c #A54008",
"i-	c #B94C11",
"j-	c #B84808",
"k-	c #C5520F",
"l-	c #CF5C19",
"m-	c #CE5E1F",
"n-	c #C95C23",
"o-	c #BF5A26",
"p-	c #A54314",
"q-	c #933205",
"r-	c #9A370D",
"s-	c #A64115",
"t-	c #AE491B",
"u-	c #C16232",
"v-	c #C36130",
"w-	c #B24315",
"x-	c #D65D18",
"y-	c #E36A21",
"z-	c #F68042",
"A-	c #C25828",
"B-	c #A75337",
"C-	c #8A432D",
"D-	c #672407",
"E-	c #75381B",
"F-	c #763D2C",
"G-	c #5D291C",
"H-	c #5F3122",
"I-	c #672D17",
"J-	c #832809",
"K-	c #B54A1C",
"L-	c #C4581A",
"M-	c #FC914B",
"N-	c #EA7D38",
"O-	c #DE7231",
"P-	c #DD7538",
"Q-	c #C16F47",
"R-	c #5F372F",
"S-	c #49241E",
"T-	c #782E11",
"U-	c #D6763C",
"V-	c #F88A31",
"W-	c #EF7E14",
"X-	c #F68C1F",
"Y-	c #FFA93C",
"Z-	c #943600",
"`-	c #AA470C",
" ;	c #C55F37",
".;	c #9D381A",
"+;	c #902D0E",
"@;	c #993E1F",
"#;	c #D0805D",
"$;	c #D07E4C",
"%;	c #F69149",
"&;	c #F68B3D",
"*;	c #EE8647",
"=;	c #CC6333",
"-;	c #A23717",
";;	c #A73B1F",
">;	c #B04324",
",;	c #A23A15",
"';	c #90340B",
");	c #802800",
"!;	c #A14212",
"~;	c #B5501C",
"{;	c #B64910",
"];	c #BD4C10",
"^;	c #CE5B1C",
"/;	c #C65415",
"(;	c #C6581B",
"_;	c #CB6229",
":;	c #B85420",
"<;	c #A04010",
"[;	c #9A390E",
"};	c #9E3B12",
"|;	c #A84118",
"1;	c #A84319",
"2;	c #AD5223",
"3;	c #C16534",
"4;	c #AD4918",
"5;	c #B74C18",
"6;	c #D66320",
"7;	c #DB6623",
"8;	c #D05F25",
"9;	c #97360C",
"0;	c #B65D3B",
"a;	c #A6522E",
"b;	c #8D3F1B",
"c;	c #7B3418",
"d;	c #8D4A30",
"e;	c #834129",
"f;	c #752607",
"g;	c #B24C1C",
"h;	c #EE7D41",
"i;	c #E47732",
"j;	c #E27429",
"k;	c #DF6B22",
"l;	c #D56F31",
"m;	c #934E27",
"n;	c #421905",
"o;	c #3D2928",
"p;	c #402722",
"q;	c #531700",
"r;	c #C96F3A",
"s;	c #FF8A3A",
"t;	c #F07110",
"u;	c #F1801A",
"v;	c #FF962E",
"w;	c #9A4002",
"x;	c #943700",
"y;	c #BC5729",
"z;	c #A43E18",
"A;	c #9D3A1A",
"B;	c #A0492D",
"C;	c #A36348",
"D;	c #BF805D",
"E;	c #F6A468",
"F;	c #EF9050",
"G;	c #C26031",
"H;	c #A8401B",
"I;	c #AC3A1F",
"J;	c #B03E23",
"K;	c #AA3D1C",
"L;	c #9D3B16",
"M;	c #7C2702",
"N;	c #88350D",
"O;	c #AD5428",
"P;	c #AB4B1B",
"Q;	c #B54D1A",
"R;	c #C75924",
"S;	c #C1561E",
"T;	c #C45C25",
"U;	c #BA5622",
"V;	c #A34414",
"W;	c #A5491A",
"X;	c #A4441A",
"Y;	c #9F3E14",
"Z;	c #AD471F",
"`;	c #A23F16",
" >	c #9B4013",
".>	c #BA602E",
"+>	c #BF5E29",
"@>	c #B9511A",
"#>	c #BC5218",
"$>	c #CD5D1E",
"%>	c #DC631E",
"&>	c #D15A16",
"*>	c #BE4F17",
"=>	c #DC7646",
"->	c #DE7E54",
";>	c #9F4B27",
">>	c #712A0E",
",>	c #803E26",
"'>	c #863F29",
")>	c #A05133",
"!>	c #B04F22",
"~>	c #AD420A",
"{>	c #C55918",
"]>	c #AB4000",
"^>	c #AC4000",
"/>	c #AA5725",
"(>	c #5E341C",
"_>	c #402F28",
":>	c #4D4145",
"<>	c #412420",
"[>	c #753416",
"}>	c #DE7D46",
"|>	c #F87B2B",
"1>	c #E8650A",
"2>	c #F58021",
"3>	c #FD9631",
"4>	c #943D07",
"5>	c #953F06",
"6>	c #C56431",
"7>	c #BA5326",
"8>	c #A03916",
"9>	c #923C21",
"0>	c #7B4636",
"a>	c #A67861",
"b>	c #D3926A",
"c>	c #BE6B3F",
"d>	c #A44320",
"e>	c #AB3E1F",
"f>	c #BB4320",
"g>	c #C24A25",
"h>	c #AB431E",
"i>	c #8C2F0D",
"j>	c #671800",
"k>	c #913E1C",
"l>	c #9B411C",
"m>	c #A5441A",
"n>	c #B25023",
"o>	c #BD5B2E",
"p>	c #AC4D1F",
"q>	c #AA4F22",
"r>	c #AC5327",
"s>	c #A44D22",
"t>	c #A34C21",
"u>	c #A54C22",
"v>	c #A64920",
"w>	c #AF4D26",
"x>	c #AD4B24",
"y>	c #973B12",
"z>	c #BC602F",
"A>	c #E17D3F",
"B>	c #EA8341",
"C>	c #E57B41",
"D>	c #D26024",
"E>	c #E66720",
"F>	c #E56317",
"G>	c #F4782E",
"H>	c #F98748",
"I>	c #C26033",
"J>	c #863719",
"K>	c #72382A",
"L>	c #65352B",
"M>	c #6D3528",
"N>	c #874634",
"O>	c #782C14",
"P>	c #8A320E",
"Q>	c #B85221",
"R>	c #A7440D",
"S>	c #9E4D1E",
"T>	c #7D4723",
"U>	c #453223",
"V>	c #423A38",
"W>	c #52414B",
"X>	c #623530",
"Y>	c #B85F35",
"Z>	c #EF7A35",
"`>	c #F57220",
" ,	c #FF9435",
".,	c #F99933",
"+,	c #963B06",
"@,	c #A1460F",
"#,	c #CD6832",
"$,	c #CA6030",
"%,	c #A43C17",
"&,	c #8D361B",
"*,	c #723928",
"=,	c #693A28",
"-,	c #874A2D",
";,	c #984C2C",
">,	c #A24526",
",,	c #AF4221",
"',	c #B94418",
"),	c #BE4B1E",
"!,	c #97340B",
"~,	c #822C09",
"{,	c #74270B",
"],	c #6C2006",
"^,	c #813012",
"/,	c #9D4724",
"(,	c #B95D38",
"_,	c #C0623C",
":,	c #BD613A",
"<,	c #AC542C",
"[,	c #B05B36",
"},	c #BC6843",
"|,	c #C57049",
"1,	c #C76F47",
"2,	c #BF663C",
"3,	c #C0633A",
"4,	c #C36339",
"5,	c #B35329",
"6,	c #9D4017",
"7,	c #A44517",
"8,	c #CB692C",
"9,	c #FF9C5E",
"0,	c #D2703F",
"a,	c #BD5522",
"b,	c #E26C2C",
"c,	c #EE7026",
"d,	c #F57627",
"e,	c #F37D37",
"f,	c #C25E2D",
"g,	c #7A2D0F",
"h,	c #6A382D",
"i,	c #673E38",
"j,	c #613022",
"k,	c #5F2613",
"l,	c #672413",
"m,	c #702009",
"n,	c #B95732",
"o,	c #B65832",
"p,	c #824123",
"q,	c #633825",
"r,	c #614841",
"s,	c #4D3533",
"t,	c #5C3536",
"u,	c #925040",
"v,	c #D16831",
"w,	c #ED7020",
"x,	c #F47117",
"y,	c #FF9E3C",
"z,	c #F0942D",
"A,	c #A23D07",
"B,	c #C35C22",
"C,	c #D7662E",
"D,	c #D25F30",
"E,	c #B44824",
"F,	c #95361A",
"G,	c #8B3F27",
"H,	c #7E3C24",
"I,	c #8A462F",
"J,	c #85381E",
"K,	c #963918",
"L,	c #A03B11",
"M,	c #C65C28",
"N,	c #7E2200",
"O,	c #822F0F",
"P,	c #823315",
"Q,	c #964729",
"R,	c #B35F3D",
"S,	c #B85E3B",
"T,	c #B55932",
"U,	c #AB4F28",
"V,	c #A84E29",
"W,	c #A14C27",
"X,	c #A65230",
"Y,	c #A24E2A",
"Z,	c #AC542E",
"`,	c #CE7146",
" '	c #DD7E52",
".'	c #DE7D50",
"+'	c #C6653A",
"@'	c #AA4A20",
"#'	c #98380E",
"$'	c #C86B3F",
"%'	c #CE7E5B",
"&'	c #94411F",
"*'	c #B25222",
"='	c #C05318",
"-'	c #E46F29",
";'	c #E6752F",
">'	c #D06D36",
",'	c #883A14",
"''	c #673421",
")'	c #5A3022",
"!'	c #5F2B15",
"~'	c #682A11",
"{'	c #944B38",
"]'	c #7D2B15",
"^'	c #B5553C",
"/'	c #963E26",
"('	c #6E3428",
"_'	c #7E4F49",
":'	c #89524D",
"<'	c #824239",
"['	c #69200D",
"}'	c #B86038",
"|'	c #DE6F28",
"1'	c #EF7417",
"2'	c #F87A13",
"3'	c #FC8318",
"4'	c #FFA33B",
"5'	c #FA9B31",
"6'	c #AA3E0D",
"7'	c #C85922",
"8'	c #C8541B",
"9'	c #CF5B28",
"0'	c #B94D27",
"a'	c #922F10",
"b'	c #91381A",
"c'	c #8F3B1F",
"d'	c #81331C",
"e'	c #83331A",
"f'	c #A84B2A",
"g'	c #BA592F",
"h'	c #A0420F",
"i'	c #8A3000",
"j'	c #7E2900",
"k'	c #903E19",
"l'	c #B25E3C",
"m'	c #B25C39",
"n'	c #B85C35",
"o'	c #B6562C",
"p'	c #B25126",
"q'	c #9A3E17",
"r'	c #9F4522",
"s'	c #9B4220",
"t'	c #8F3614",
"u'	c #963A13",
"v'	c #AE4E24",
"w'	c #C05E31",
"x'	c #DD7B4C",
"y'	c #E48454",
"z'	c #D17246",
"A'	c #B5562A",
"B'	c #A34416",
"C'	c #90390E",
"D'	c #9D5336",
"E'	c #91472A",
"F'	c #9C451A",
"G'	c #CE6B32",
"H'	c #DE6B28",
"I'	c #E7722C",
"J'	c #D3692D",
"K'	c #994111",
"L'	c #753819",
"M'	c #79462B",
"N'	c #8B4E31",
"O'	c #8B4426",
"P'	c #702103",
"Q'	c #862D0F",
"R'	c #902D0D",
"S'	c #9A3D1E",
"T'	c #89422E",
"U'	c #854232",
"V'	c #AA5447",
"W'	c #9B3B25",
"X'	c #A4411A",
"Y'	c #D76D33",
"Z'	c #E26B1B",
"`'	c #EE7315",
" )	c #F57B18",
".)	c #F07B14",
"+)	c #FF942E",
"@)	c #FF9E35",
"#)	c #C3562F",
"$)	c #BD481C",
"%)	c #BC4711",
"&)	c #D15F29",
"*)	c #BC552A",
"=)	c #9F3D18",
"-)	c #A33F1B",
";)	c #953413",
">)	c #893216",
",)	c #974225",
"')	c #AA502E",
"))	c #993F1C",
"!)	c #913D19",
"~)	c #722300",
"{)	c #8C3B0E",
"])	c #B25E30",
"^)	c #B75C30",
"/)	c #BA592E",
"()	c #B95524",
"_)	c #B44C19",
":)	c #B34B16",
"<)	c #A6410D",
"[)	c #A44215",
"})	c #AC4A23",
"|)	c #A1411B",
"1)	c #9E3C17",
"2)	c #A23C14",
"3)	c #AD461B",
"4)	c #B54C1F",
"5)	c #C2602F",
"6)	c #E38552",
"7)	c #D87A47",
"8)	c #BC5E2A",
"9)	c #AC4E18",
"0)	c #A34B19",
"a)	c #893D19",
"b)	c #7C300C",
"c)	c #A34C17",
"d)	c #CD6725",
"e)	c #E9732B",
"f)	c #F97D35",
"g)	c #E46A29",
"h)	c #D3692F",
"i)	c #A04E1E",
"j)	c #985028",
"k)	c #843818",
"l)	c #641000",
"m)	c #A0441B",
"n)	c #C66433",
"o)	c #C0561C",
"p)	c #E2753A",
"q)	c #C5612D",
"r)	c #B0491C",
"s)	c #D3613D",
"t)	c #B03911",
"u)	c #DF662F",
"v)	c #EA6E28",
"w)	c #E96616",
"x)	c #F47320",
"y)	c #F58232",
"z)	c #EF7F2D",
"A)	c #F88324",
"B)	c #FD8924",
"C)	c #BD512B",
"D)	c #B13D14",
"E)	c #AF3907",
"F)	c #C3511D",
"G)	c #BC5326",
"H)	c #AC471D",
"I)	c #AE441C",
"J)	c #9F3710",
"K)	c #8F2F09",
"L)	c #8F310B",
"M)	c #842100",
"N)	c #872700",
"O)	c #872F0B",
"P)	c #923D16",
"Q)	c #A54D1D",
"R)	c #BC612C",
"S)	c #B75524",
"T)	c #BB5622",
"U)	c #BB5219",
"V)	c #B54B0F",
"W)	c #C5581D",
"X)	c #C35A21",
"Y)	c #A74216",
"Z)	c #A9431D",
"`)	c #AD4520",
" !	c #B0441D",
".!	c #B0451B",
"+!	c #B2491C",
"@!	c #A74214",
"#!	c #BB612F",
"$!	c #CE723F",
"%!	c #C46630",
"&!	c #C66328",
"*!	c #BA5B23",
"=!	c #A65224",
"-!	c #984617",
";!	c #9A3F06",
">!	c #AC4604",
",!	c #D6641E",
"'!	c #EE732D",
")!	c #F87D39",
"!!	c #BB490A",
"~!	c #913400",
"{!	c #751F00",
"]!	c #AA5127",
"^!	c #A04115",
"/!	c #EC874F",
"(!	c #D76B2A",
"_!	c #E36F26",
":!	c #EF762D",
"<!	c #D55B18",
"[!	c #C54A0E",
"}!	c #BB3C07",
"|!	c #CF4E15",
"1!	c #EA6723",
"2!	c #EE691E",
"3!	c #F86F1F",
"4!	c #F87525",
"5!	c #F5803A",
"6!	c #F28037",
"7!	c #F4761F",
"8!	c #F17211",
"9!	c #A74015",
"0!	c #AA3D12",
"a!	c #B53E13",
"b!	c #CB5225",
"c!	c #C55527",
"d!	c #B24618",
"e!	c #AA4016",
"f!	c #9F380D",
"g!	c #9F3607",
"h!	c #C05521",
"i!	c #CC5B1F",
"j!	c #BB4A0E",
"k!	c #C15622",
"l!	c #C75D2B",
"m!	c #C45923",
"n!	c #C45B22",
"o!	c #C15924",
"p!	c #B74F18",
"q!	c #B64C0E",
"r!	c #BD5111",
"s!	c #CA5C1D",
"t!	c #BF5724",
"u!	c #C15A2D",
"v!	c #B44C25",
"w!	c #BB502C",
"x!	c #C1532E",
"y!	c #B74B24",
"z!	c #AA431A",
"A!	c #9C3B11",
"B!	c #933C11",
"C!	c #A34F23",
"D!	c #CB7041",
"E!	c #E5844F",
"F!	c #DC7238",
"G!	c #D16429",
"H!	c #C4652B",
"I!	c #BE5D26",
"J!	c #B35017",
"K!	c #A94104",
"L!	c #D06119",
"M!	c #CE631D",
"N!	c #BD5A23",
"O!	c #D77744",
"P!	c #F28F54",
"Q!	c #DD7634",
"R!	c #CC6017",
"S!	c #E06B1C",
"T!	c #F17422",
"U!	c #E46216",
"V!	c #DC5B1A",
"W!	c #DC5C1F",
"X!	c #D65917",
"Y!	c #E46820",
"Z!	c #EB691E",
"`!	c #F46F22",
" ~	c #FF7727",
".~	c #F06B1C",
"+~	c #E3681B",
"@~	c #EE6715",
"#~	c #F36911",
"$~	c #9A2F05",
"%~	c #CE572C",
"&~	c #BC491A",
"*~	c #AC3E0D",
"=~	c #B24818",
"-~	c #9E3404",
";~	c #AA3C09",
">~	c #AC3B03",
",~	c #BD4A0B",
"'~	c #C35011",
")~	c #BB4A10",
"!~	c #CE5F27",
"~~	c #D05F27",
"{~	c #D1622A",
"]~	c #B94E18",
"^~	c #B74E15",
"/~	c #BB5113",
"(~	c #BB4F0F",
"_~	c #BE5212",
":~	c #B95114",
"<~	c #C35D2D",
"[~	c #C15A31",
"}~	c #B94F27",
"|~	c #BA4F25",
"1~	c #B1461C",
"2~	c #A33E12",
"3~	c #9C3C12",
"4~	c #994119",
"5~	c #A95227",
"6~	c #BD5E30",
"7~	c #D4652D",
"8~	c #E07031",
"9~	c #CB5F1F",
"0~	c #BD5516",
"a~	c #C96027",
"b~	c #B54D16",
"c~	c #C86127",
"d~	c #B14A08",
"e~	c #C45911",
"f~	c #E17630",
"g~	c #DC753B",
"h~	c #C76026",
"i~	c #C9621F",
"j~	c #C85C11",
"k~	c #E97927",
"l~	c #ED751F",
"m~	c #F87527",
"n~	c #F97632",
"o~	c #D55412",
"p~	c #E66B1E",
"q~	c #F67B2B",
"r~	c #E86618",
"s~	c #FC7524",
"t~	c #EC6D1E",
"u~	c #DB590B",
"v~	c #E65D0C",
"w~	c #F26611",
"x~	c #A33713",
"y~	c #A63813",
"z~	c #BC4D22",
"A~	c #C25325",
"B~	c #AE400B",
"C~	c #A93C04",
"D~	c #B3440F",
"E~	c #B34311",
"F~	c #BB4B1B",
"G~	c #AF410E",
"H~	c #A13703",
"I~	c #AE460F",
"J~	c #9D3802",
"K~	c #B9541C",
"L~	c #D46B34",
"M~	c #BE531D",
"N~	c #B14612",
"O~	c #C05622",
"P~	c #B24A0D",
"Q~	c #BB5517",
"R~	c #C35F23",
"S~	c #C15E27",
"T~	c #C15D29",
"U~	c #BF5B29",
"V~	c #C45E2D",
"W~	c #C65E29",
"X~	c #B34E18",
"Y~	c #A74311",
"Z~	c #A84617",
"`~	c #AF4F27",
" {	c #C15D2B",
".{	c #B14811",
"+{	c #BD5017",
"@{	c #D5672C",
"#{	c #D16328",
"${	c #C35518",
"%{	c #D6652B",
"&{	c #CB5A20",
"*{	c #CA591D",
"={	c #E07030",
"-{	c #CD5E19",
";{	c #D26220",
">{	c #DD7131",
",{	c #D36A29",
"'{	c #DE732F",
"){	c #E2762D",
"!{	c #E1711F",
"~{	c #E6721D",
"{{	c #EE7620",
"]{	c #F17724",
"^{	c #E26417",
"/{	c #EB6C1F",
"({	c #F17223",
"_{	c #EE6B1B",
":{	c #F4701E",
"<{	c #F36F1C",
"[{	c #F16D1A",
"}{	c #F16E1C",
"|{	c #F2701C",
"1{	c #F26C17",
"2{	c #F26A14",
"3{	c #A33210",
"4{	c #B74722",
"5{	c #C85B30",
"6{	c #C25625",
"7{	c #AD420C",
"8{	c #A73A02",
"9{	c #B2430E",
"0{	c #BC4C1A",
"a{	c #C05425",
"b{	c #AD4417",
"c{	c #973707",
"d{	c #B05121",
"e{	c #B15320",
"f{	c #D1713E",
"g{	c #BC5721",
"h{	c #AC440F",
"i{	c #BB501C",
"j{	c #BD541D",
"k{	c #C05720",
"l{	c #C0591F",
"m{	c #BD591E",
"n{	c #BA571E",
"o{	c #BC5922",
"p{	c #C25E2A",
"q{	c #C6612B",
"r{	c #BF5A22",
"s{	c #BE561F",
"t{	c #C25A23",
"u{	c #B14914",
"v{	c #A64010",
"w{	c #AE471E",
"x{	c #B34C1F",
"y{	c #BF561F",
"z{	c #E57B3F",
"A{	c #DF7335",
"B{	c #E77738",
"C{	c #D05E1F",
"D{	c #CB5817",
"E{	c #D35E1B",
"F{	c #CF5A15",
"G{	c #F7853E",
"H{	c #EA7A32",
"I{	c #DB6C24",
"J{	c #E77B32",
"K{	c #D56B21",
"L{	c #E07527",
"M{	c #E47422",
"N{	c #EE7C26",
"O{	c #E8741F",
"P{	c #E9721E",
"Q{	c #ED7320",
"R{	c #F27523",
"S{	c #EB6C1B",
"T{	c #F06F1E",
"U{	c #F47121",
"V{	c #F87422",
"W{	c #F67220",
"X{	c #F6721F",
"Y{	c #FA7623",
"Z{	c #F8741F",
"`{	c #F36D18",
" ]	c #F26C15",
".]	c #AE3D13",
"+]	c #C55428",
"@]	c #C8592B",
"#]	c #B84A19",
"$]	c #AD3F0C",
"%]	c #B14717",
"&]	c #A94418",
"*]	c #9C3D11",
"=]	c #812A00",
"-]	c #9C481C",
";]	c #A64E20",
">]	c #C96D3C",
",]	c #B85422",
"']	c #AC440D",
")]	c #B84E14",
"!]	c #C1591C",
"~]	c #C65D24",
"{]	c #C45D23",
"]]	c #C15C26",
"^]	c #BE5923",
"/]	c #C05B27",
"(]	c #CA622F",
"_]	c #CE6430",
":]	c #C55A26",
"<]	c #C45623",
"[]	c #CA5C29",
"}]	c #C65A2B",
"|]	c #C25628",
"1]	c #B74B1A",
"2]	c #C75D21",
"3]	c #E57A36",
"4]	c #EB7E39",
"5]	c #EC7D38",
"6]	c #D4631D",
"7]	c #C95710",
"8]	c #D56116",
"9]	c #E87326",
"0]	c #ED7829",
"a]	c #DB6817",
"b]	c #E2721E",
"c]	c #FA8C37",
"d]	c #F88C34",
"e]	c #FA9038",
"f]	c #FFA148",
"g]	c #FF953D",
"h]	c #F68831",
"i]	c #F4812E",
"j]	c #EF7C29",
"k]	c #F6822F",
"l]	c #F7802E",
"m]	c #F67D2C",
"n]	c #F07323",
"o]	c #F87726",
"p]	c #FA7725",
"q]	c #F5711F",
"r]	c #F5711E",
"s]	c #FE7725",
"t]	c #FB7422",
"u]	c #F46B1A",
"v]	c #F56F18",
"w]	c #C45122",
"x]	c #CD5B29",
"y]	c #C25222",
"z]	c #B14312",
"A]	c #B04211",
"B]	c #B04413",
"C]	c #AD4112",
"D]	c #A84114",
"E]	c #9A3D11",
"F]	c #8A350C",
"G]	c #82330C",
"H]	c #7F310A",
"I]	c #A25126",
"J]	c #D87F53",
"K]	c #BF571A",
"L]	c #CD6526",
"M]	c #CA6329",
"N]	c #C35E28",
"O]	c #C45F2B",
"P]	c #BE5827",
"Q]	c #BA5521",
"R]	c #C75F2A",
"S]	c #C75C28",
"T]	c #C75926",
"U]	c #CD5D2B",
"V]	c #D26232",
"W]	c #E87846",
"X]	c #D1612F",
"Y]	c #BC4F16",
"Z]	c #CC6322",
"`]	c #E77F38",
" ^	c #E37832",
".^	c #C25409",
"+^	c #D66519",
"@^	c #E57124",
"#^	c #E06B1B",
"$^	c #E5711E",
"%^	c #DC6813",
"&^	c #D7630C",
"*^	c #F07E25",
"=^	c #F7882C",
"-^	c #F18226",
";^	c #FF9334",
">^	c #FF9437",
",^	c #FF9740",
"'^	c #F68632",
")^	c #DF6C19",
"!^	c #D25F0C",
"~^	c #DD6916",
"{^	c #F67F2D",
"]^	c #F87D2D",
"^^	c #E66919",
"/^	c #EE6F20",
"(^	c #F37221",
"_^	c #EF6C1C",
":^	c #F26E1C",
"<^	c #FE7726",
"[^	c #FB7221",
"}^	c #F8701C",
"|^	c #CC5A24",
"1^	c #C7551F",
"2^	c #BE4E1C",
"3^	c #B54515",
"4^	c #AE3F12",
"5^	c #AD4113",
"6^	c #AC4314",
"7^	c #9E471C",
"8^	c #90421B",
"9^	c #7B3511",
"0^	c #B26740",
"a^	c #D48157",
"b^	c #BF5F2F",
"c^	c #CF6B2D",
"d^	c #CC682A",
"e^	c #CB682F",
"f^	c #CC6836",
"g^	c #C76332",
"h^	c #BD5928",
"i^	c #BC5824",
"j^	c #C7622C",
"k^	c #C35520",
"l^	c #CF602B",
"m^	c #D05E2A",
"n^	c #DB6A32",
"o^	c #DA692D",
"p^	c #DE7B38",
"q^	c #E98843",
"r^	c #D8732F",
"s^	c #C55F17",
"t^	c #DB7028",
"u^	c #E6782D",
"v^	c #E47327",
"w^	c #E36E21",
"x^	c #EC7525",
"y^	c #E86F1E",
"z^	c #E8701A",
"A^	c #E87019",
"B^	c #F57E24",
"C^	c #FD862C",
"D^	c #F37C20",
"E^	c #EF7C21",
"F^	c #E77721",
"G^	c #F68735",
"H^	c #F1812F",
"I^	c #E16E1D",
"J^	c #DF6C1B",
"K^	c #DC6717",
"L^	c #DF6818",
"M^	c #ED7423",
"N^	c #E56818",
"O^	c #F16E20",
"P^	c #F87324",
"Q^	c #FF792B",
"R^	c #FE7525",
"S^	c #FA6E1F",
"T^	c #FC7322",
"U^	c #CC5B21",
"V^	c #BD4F14",
"W^	c #B94917",
"X^	c #B64719",
"Y^	c #AD3E13",
"Z^	c #A83D11",
"`^	c #A53E11",
" /	c #993A0C",
"./	c #903C10",
"+/	c #8B4018",
"@/	c #853F1D",
"#/	c #712C0B",
"$/	c #7D3310",
"%/	c #C2704A",
"&/	c #D07445",
"*/	c #D4753F",
"=/	c #D87A3D",
"-/	c #D37538",
";/	c #D87A44",
">/	c #D57744",
",/	c #C76737",
"'/	c #C86635",
")/	c #D16D39",
"!/	c #CD662C",
"~/	c #D1682E",
"{/	c #C4571E",
"]/	c #CC5F24",
"^/	c #C85F1D",
"//	c #F08841",
"(/	c #FD9850",
"_/	c #E68443",
":/	c #D27031",
"</	c #D3702F",
"[/	c #E37C3A",
"}/	c #F18544",
"|/	c #DD6E29",
"1/	c #D3611B",
"2/	c #D66018",
"3/	c #D96017",
"4/	c #DF6518",
"5/	c #E56A1C",
"6/	c #E66B1B",
"7/	c #E16714",
"8/	c #E46A15",
"9/	c #EC721D",
"0/	c #EA741D",
"a/	c #E87522",
"b/	c #DF6F1D",
"c/	c #DD6D1B",
"d/	c #EA7726",
"e/	c #FE8B3A",
"f/	c #FB8636",
"g/	c #EA7525",
"h/	c #E4691B",
"i/	c #E86B1B",
"j/	c #ED6B1D",
"k/	c #EF6C1E",
"l/	c #F26A1C",
"m/	c #F2691B",
"n/	c #F16818",
"o/	c #F46B1B",
"p/	c #C6581D",
"q/	c #AF4410",
"r/	c #B04517",
"s/	c #AD4218",
"t/	c #A64211",
"u/	c #9D3F0C",
"v/	c #974112",
"w/	c #803716",
"x/	c #874020",
"y/	c #7C3111",
"z/	c #8C3C17",
"A/	c #C46C3E",
"B/	c #E28853",
"C/	c #D8834A",
"D/	c #E59359",
"E/	c #E9945E",
"F/	c #D67E4C",
"G/	c #CB6F3E",
"H/	c #D37140",
"I/	c #D76F38",
"J/	c #CF652B",
"K/	c #D66A2A",
"L/	c #E47736",
"M/	c #E07934",
"N/	c #D5732A",
"O/	c #DE8133",
"P/	c #FAA14D",
"Q/	c #EC9142",
"R/	c #CC6A2D",
"S/	c #D16934",
"T/	c #D66D36",
"U/	c #D66B33",
"V/	c #D76830",
"W/	c #D05F23",
"X/	c #CA5619",
"Y/	c #CB5515",
"Z/	c #D65F1D",
"`/	c #CE5510",
" (	c #D85F18",
".(	c #DF651C",
"+(	c #DF671B",
"@(	c #E36B1D",
"#(	c #D96415",
"$(	c #D66112",
"%(	c #D25D0E",
"&(	c #D56212",
"*(	c #E26F1F",
"=(	c #DB6617",
"-(	c #D56011",
";(	c #F58031",
">(	c #F27B2B",
",(	c #E66D1E",
"'(	c #E8691A",
")(	c #E76517",
"!(	c #E25F0F",
"~(	c #E35E0F",
"{(	c #E96113",
"](	c #E7600F",
"^(	c #B3460B",
"/(	c #AB3E05",
"((	c #A43A0A",
"_(	c #A63D10",
":(	c #A63F14",
"<(	c #A63F12",
"[(	c #A94511",
"}(	c #AA4B15",
"|(	c #9B410D",
"1(	c #9A4618",
"2(	c #8C3E1A",
"3(	c #873B1B",
"4(	c #A75839",
"5(	c #964720",
"6(	c #A14B1C",
"7(	c #AE5923",
"8(	c #CE7D46",
"9(	c #EE9F67",
"0(	c #E89762",
"a(	c #D47F49",
"b(	c #D87E4A",
"c(	c #D4753D",
"d(	c #CC682D",
"e(	c #DA7233",
"f(	c #E77C38",
"g(	c #DF742C",
"h(	c #F0893E",
"i(	c #F38F41",
"j(	c #E88B3B",
"k(	c #F89F4B",
"l(	c #EF9B43",
"m(	c #C67121",
"n(	c #CA6C2E",
"o(	c #CB6733",
"p(	c #CF6A34",
"q(	c #C45B24",
"r(	c #AB3E06",
"s(	c #C15318",
"t(	c #DA682C",
"u(	c #E06829",
"v(	c #EC7231",
"w(	c #EA6F2C",
"x(	c #E86D29",
"y(	c #EA6F29",
"z(	c #EB7229",
"A(	c #E56C23",
"B(	c #E26A1E",
"C(	c #DA6214",
"D(	c #E26A1C",
"E(	c #E76F21",
"F(	c #E46C1E",
"G(	c #CA5506",
"H(	c #CD5507",
"I(	c #DB6315",
"J(	c #EE7526",
"K(	c #EE7325",
"L(	c #F5772A",
"M(	c #F67728",
"N(	c #F06E20",
"O(	c #F1701F",
"P(	c #F37020",
"Q(	c #EC6816",
"R(	c #B54B11",
"S(	c #A94009",
"T(	c #A43E0E",
"U(	c #9F3A0E",
"V(	c #A03E11",
"W(	c #9F3D0C",
"X(	c #AD4A13",
"Y(	c #9F4010",
"Z(	c #943C16",
"`(	c #8B3715",
" _	c #994624",
"._	c #A25028",
"+_	c #AA5627",
"@_	c #AF5C28",
"#_	c #AF5928",
"$_	c #BD6631",
"%_	c #DA844B",
"&_	c #E1884C",
"*_	c #D47A3B",
"=_	c #D97A38",
"-_	c #DA7934",
";_	c #DC7A2F",
">_	c #DE7A2C",
",_	c #E88834",
"'_	c #FB9C48",
")_	c #FFA651",
"!_	c #FFA753",
"~_	c #D98433",
"{_	c #C56F24",
"]_	c #B05818",
"^_	c #B85E22",
"/_	c #BB5E21",
"(_	c #AA4A0D",
"__	c #B45012",
":_	c #E2783A",
"<_	c #DF7132",
"[_	c #DB6827",
"}_	c #DE6627",
"|_	c #E86C2C",
"1_	c #EC6F2D",
"2_	c #EE6F2C",
"3_	c #F4732F",
"4_	c #F77632",
"5_	c #F6732F",
"6_	c #F3732C",
"7_	c #F3752B",
"8_	c #F17629",
"9_	c #F2782B",
"0_	c #F67C2F",
"a_	c #ED7527",
"b_	c #E06619",
"c_	c #D55B0E",
"d_	c #DD6316",
"e_	c #E2691A",
"f_	c #EB7022",
"g_	c #E56A1A",
"h_	c #E06313",
"i_	c #E86918",
"j_	c #EE6D1A",
"k_	c #B34812",
"l_	c #AA400C",
"m_	c #9D380A",
"n_	c #9F3E11",
"o_	c #A94917",
"p_	c #AD4810",
"q_	c #AF480D",
"r_	c #AD460C",
"s_	c #A43F0B",
"t_	c #9E3D13",
"u_	c #923611",
"v_	c #8E3910",
"w_	c #964414",
"x_	c #AA5423",
"y_	c #AF5427",
"z_	c #B25325",
"A_	c #9F440D",
"B_	c #BF6527",
"C_	c #EA914F",
"D_	c #D37B34",
"E_	c #C46922",
"F_	c #E5893E",
"G_	c #EC8C3F",
"H_	c #E68735",
"I_	c #F79942",
"J_	c #FFAA53",
"K_	c #FFAC59",
"L_	c #D5792C",
"M_	c #CE732C",
"N_	c #BE6523",
"O_	c #AC5414",
"P_	c #B85E1F",
"Q_	c #9F4304",
"R_	c #B55616",
"S_	c #D8712F",
"T_	c #E37633",
"U_	c #B84703",
"V_	c #C04B08",
"W_	c #EA702D",
"X_	c #E56825",
"Y_	c #E66722",
"Z_	c #F1702C",
"`_	c #EE6B27",
" :	c #F3702A",
".:	c #F07027",
"+:	c #F17327",
"@:	c #F07528",
"#:	c #F67B2E",
"$:	c #FC8134",
"%:	c #F77D30",
"&:	c #FA8132",
"*:	c #FF8637",
"=:	c #FD8433",
"-:	c #FC8332",
";:	c #F77D2A",
">:	c #F77A26",
",:	c #B04511",
"':	c #AC4411",
"):	c #A64719",
"!:	c #A44411",
"~:	c #A9450A",
"{:	c #B0470D",
"]:	c #A13A0D",
"^:	c #96350B",
"/:	c #91340B",
"(:	c #8C3907",
"_:	c #973F0D",
"::	c #A03F12",
"<:	c #BB5726",
"[:	c #B05016",
"}:	c #B65818",
"|:	c #DD803B",
"1:	c #E2873E",
"2:	c #D1752C",
"3:	c #D07429",
"4:	c #E8883B",
"5:	c #E98A3A",
"6:	c #F0903C",
"7:	c #FD9C4B",
"8:	c #F7954A",
"9:	c #CC6926",
"0:	c #C56229",
"a:	c #B35019",
"b:	c #BF5F22",
"c:	c #C36120",
"d:	c #AB4807",
"e:	c #C6601E",
"f:	c #DB7431",
"g:	c #DA6F2B",
"h:	c #E87836",
"i:	c #CF5E1A",
"j:	c #D25D18",
"k:	c #ED7731",
"l:	c #EC732E",
"m:	c #DF641E",
"n:	c #E36822",
"o:	c #E66A22",
"p:	c #E96D25",
"q:	c #EA6A21",
"r:	c #F07025",
"s:	c #EB6B20",
"t:	c #EC6C21",
"u:	c #F37529",
"v:	c #FA7C30",
"w:	c #F87D30",
"x:	c #FD8234",
"y:	c #FF8537",
"z:	c #FF8839",
"A:	c #FF8B3A",
"B:	c #FF8938",
"C:	c #FF8935",
"D:	c #FD8632",
"E:	c #FE842F",
"F:	c #B1430E",
"G:	c #AC4210",
"H:	c #AD4B1A",
"I:	c #A74818",
"J:	c #A24411",
"K:	c #993906",
"L:	c #A64109",
"M:	c #B1470D",
"N:	c #AD4008",
"O:	c #B24411",
"P:	c #AC4113",
"Q:	c #A13C10",
"R:	c #923208",
"S:	c #92370A",
"T:	c #8F3707",
"U:	c #9C4210",
"V:	c #9F3F0F",
"W:	c #A74613",
"X:	c #BE5F1F",
"Y:	c #CF702C",
"Z:	c #DB7D35",
"`:	c #DB7A33",
" <	c #D27027",
".<	c #DA762B",
"+<	c #E27C31",
"@<	c #E07B2D",
"#<	c #DA7429",
"$<	c #D8732D",
"%<	c #CD692B",
"&<	c #A6420E",
"*<	c #C56126",
"=<	c #C15E1D",
"-<	c #B75111",
";<	c #CB6422",
"><	c #D26927",
",<	c #E67936",
"'<	c #E47530",
")<	c #E7752F",
"!<	c #DE6820",
"~<	c #E26922",
"{<	c #DB6219",
"]<	c #DA6017",
"^<	c #DE6419",
"/<	c #D85E15",
"(<	c #DC6016",
"_<	c #E16116",
":<	c #E9671C",
"<<	c #ED6B20",
"[<	c #EF6D22",
"}<	c #F17126",
"|<	c #F27227",
"1<	c #ED6F22",
"2<	c #F07225",
"3<	c #F47929",
"4<	c #F97E2E",
"5<	c #FF8835",
"6<	c #FE8532",
"7<	c #FF8834",
"8<	c #F8842D",
"9<	c #FD852E",
"0<	c #B5460F",
"a<	c #AE430F",
"b<	c #AC4713",
"c<	c #A2410E",
"d<	c #A2400F",
"e<	c #9E3D0A",
"f<	c #A63E0B",
"g<	c #A33905",
"h<	c #B44915",
"i<	c #B44A18",
"j<	c #AF4919",
"k<	c #A9471A",
"l<	c #9C3D0F",
"m<	c #963A0B",
"n<	c #8B2F00",
"o<	c #903405",
"p<	c #9B4311",
"q<	c #933C07",
"r<	c #994008",
"s<	c #B4571C",
"t<	c #CA6A2D",
"u<	c #C86524",
"v<	c #C45B1A",
"w<	c #CF6322",
"x<	c #D76725",
"y<	c #DE6F2A",
"z<	c #DB6E29",
"A<	c #C45B17",
"B<	c #C86222",
"C<	c #B45418",
"D<	c #A84A14",
"E<	c #A44610",
"F<	c #AD4D11",
"G<	c #C15D1F",
"H<	c #C05A1C",
"I<	c #D46C2D",
"J<	c #D66D2C",
"K<	c #E17433",
"L<	c #E47331",
"M<	c #DE6924",
"N<	c #D7611B",
"O<	c #DA5F19",
"P<	c #DA5E18",
"Q<	c #EA6B24",
"R<	c #EC6C23",
"S<	c #E46419",
"T<	c #E8681F",
"U<	c #E36318",
"V<	c #E5651A",
"W<	c #E36417",
"X<	c #E46518",
"Y<	c #EC6A1E",
"Z<	c #F37125",
"`<	c #F67428",
" [	c #F06E22",
".[	c #E9671B",
"+[	c #E66418",
"@[	c #EA6B1C",
"#[	c #FD8330",
"$[	c #FC8330",
"%[	c #FD8730",
"&[	c #F48029",
"*[	c #F57F27",
"=[	c #B84911",
"-[	c #BA4D15",
";[	c #AF4710",
">[	c #A7420E",
",[	c #9F3B09",
"'[	c #AA4615",
")[	c #A53C0D",
"![	c #982E00",
"~[	c #A03507",
"{[	c #A13B0B",
"][	c #A74516",
"^[	c #AB4C1C",
"/[	c #A34718",
"([	c #9A390C",
"_[	c #A8491B",
":[	c #8E3807",
"<[	c #94410F",
"[[	c #994310",
"}[	c #9C420E",
"|[	c #AC4E1A",
"1[	c #B7571D",
"2[	c #BB5419",
"3[	c #C55B1D",
"4[	c #CD6120",
"5[	c #D56827",
"6[	c #C95C1B",
"7[	c #C05716",
"8[	c #BC5618",
"9[	c #AF4D10",
"0[	c #AD4E14",
"a[	c #B05117",
"b[	c #B65417",
"c[	c #C86224",
"d[	c #CC6427",
"e[	c #C95F21",
"f[	c #D56728",
"g[	c #DA6A28",
"h[	c #E87532",
"i[	c #DD6721",
"j[	c #D55C15",
"k[	c #F07228",
"l[	c #F57327",
"m[	c #EE6C1E",
"n[	c #EC6E21",
"o[	c #E96B1E",
"p[	c #E96A1D",
"q[	c #EC681D",
"r[	c #EB671C",
"s[	c #EB681A",
"t[	c #E96618",
"u[	c #E86716",
"v[	c #E96A19",
"w[	c #F37622",
"x[	c #F87E29",
"y[	c #FB832D",
"z[	c #F8822B",
"A[	c #F88228",
"B[	c #B5470C",
"C[	c #BC4E13",
"D[	c #B74D13",
"E[	c #B24912",
"F[	c #A83F0F",
"G[	c #AE471A",
"H[	c #A73D13",
"I[	c #9B3107",
"J[	c #9B360C",
"K[	c #943809",
"L[	c #973C0D",
"M[	c #A24615",
"N[	c #A13C12",
"O[	c #95380D",
"P[	c #923B10",
"Q[	c #963E16",
"R[	c #8E370C",
"S[	c #893205",
"T[	c #97410E",
"U[	c #B66025",
"V[	c #DE8445",
"W[	c #C96C29",
"X[	c #B65713",
"Y[	c #AE4B0A",
"Z[	c #B85212",
"`[	c #B44E10",
" }	c #C45E1E",
".}	c #C35B1C",
"+}	c #CD6123",
"@}	c #B94B0C",
"#}	c #D05F1D",
"$}	c #E06D2A",
"%}	c #E06720",
"&}	c #E76C1E",
"*}	c #FA7D2D",
"=}	c #EC6F1D",
"-}	c #ED6F1B",
";}	c #F1731E",
">}	c #DF610C",
",}	c #EA6C18",
"'}	c #F57B28",
")}	c #F57828",
"!}	c #EF7021",
"~}	c #F06D1F",
"{}	c #F57023",
"]}	c #F77225",
"^}	c #F67522",
"/}	c #F97C28",
"(}	c #F87E28",
"_}	c #FF8A30",
":}	c #AD4309",
"<}	c #AB4105",
"[}	c #B2490F",
"}}	c #B24A13",
"|}	c #AE4818",
"1}	c #AC451A",
"2}	c #A33C11",
"3}	c #933006",
"4}	c #9E4213",
"5}	c #903604",
"6}	c #983C0B",
"7}	c #A14013",
"8}	c #A23D13",
"9}	c #A04016",
"0}	c #953912",
"a}	c #933914",
"b}	c #8F3711",
"c}	c #842F06",
"d}	c #7E2A00",
"e}	c #A04D17",
"f}	c #E89458",
"g}	c #D78242",
"h}	c #973D00",
"i}	c #A7490B",
"j}	c #AB470B",
"k}	c #BB5316",
"l}	c #C75B1D",
"m}	c #D16423",
"n}	c #D36321",
"o}	c #D16121",
"p}	c #D66626",
"q}	c #D86826",
"r}	c #CE5D19",
"s}	c #D7621D",
"t}	c #DF6923",
"u}	c #EA712A",
"v}	c #E66C23",
"w}	c #E76C1F",
"x}	c #F47725",
"y}	c #FC7F2B",
"z}	c #FD7F2B",
"A}	c #FF832E",
"B}	c #FF822D",
"C}	c #F47723",
"D}	c #FB8231",
"E}	c #F88131",
"F}	c #F37A2B",
"G}	c #F17326",
"H}	c #F77529",
"I}	c #FD792E",
"J}	c #FA7528",
"K}	c #F36B1F",
"L}	c #F87024",
"M}	c #FC7426",
"N}	c #FF7E2F",
"O}	c #FE7D2C",
"P}	c #FA7C28",
"Q}	c #EE741F",
"R}	c #F57D27",
"S}	c #FB852D",
"T}	c #983700",
"U}	c #9D3D03",
"V}	c #A14009",
"W}	c #A03F08",
"X}	c #A33F0B",
"Y}	c #A94513",
"Z}	c #A4400F",
"`}	c #A54312",
" |	c #A64413",
".|	c #9E3E0C",
"+|	c #963508",
"@|	c #98350B",
"#|	c #A03A12",
"$|	c #9F3C13",
"%|	c #A24317",
"&|	c #9D4014",
"*|	c #9F3F15",
"=|	c #973A0F",
"-|	c #963910",
";|	c #93380C",
">|	c #B8602E",
",|	c #AB541E",
"'|	c #963D05",
")|	c #A2450C",
"!|	c #BC5216",
"~|	c #E56F31",
"{|	c #E16C29",
"]|	c #D8681E",
"^|	c #D5671A",
"/|	c #EC782D",
"(|	c #F37930",
"_|	c #EE722A",
":|	c #E4681E",
"<|	c #F27428",
"[|	c #EE7023",
"}|	c #F97C2C",
"||	c #EE7121",
"1|	c #E26719",
"2|	c #DF6B1E",
"3|	c #DE6D21",
"4|	c #E26C22",
"5|	c #EE7429",
"6|	c #F4762C",
"7|	c #F57328",
"8|	c #F97429",
"9|	c #FB7329",
"0|	c #FD732A",
"a|	c #FF7B2F",
"b|	c #FF7F32",
"c|	c #F57325",
"d|	c #E3681A",
"e|	c #EA7122",
"f|	c #EF7826",
"g|	c #A04113",
"h|	c #973808",
"i|	c #953505",
"j|	c #9A3809",
"k|	c #A33F0E",
"l|	c #A53F0E",
"m|	c #9E3807",
"n|	c #A33D0C",
"o|	c #A74111",
"p|	c #99330B",
"q|	c #9D3A11",
"r|	c #993A0E",
"s|	c #A14418",
"t|	c #9B3B11",
"u|	c #9A3D14",
"v|	c #92350A",
"w|	c #A24519",
"x|	c #AE5223",
"y|	c #A64A17",
"z|	c #B0521C",
"A|	c #BC5C20",
"B|	c #B85416",
"C|	c #CA5E1E",
"D|	c #CB5B1B",
"E|	c #CD5717",
"F|	c #E3702D",
"G|	c #D66A1F",
"H|	c #CF6416",
"I|	c #D16115",
"J|	c #F37B2F",
"K|	c #F77B31",
"L|	c #F17225",
"M|	c #F47629",
"N|	c #F67929",
"O|	c #EA6F21",
"P|	c #E06518",
"Q|	c #E86E23",
"R|	c #D9631B",
"S|	c #D76119",
"T|	c #E3671F",
"U|	c #EB6B22",
"V|	c #F06E23",
"W|	c #F26E24",
"X|	c #F67126",
"Y|	c #F87328",
"Z|	c #F87429",
"`|	c #FA782C",
" 1	c #F1772A",
".1	c #D35E0E",
"+1	c #9D3D17",
"@1	c #A03E1B",
"#1	c #A03E19",
"$1	c #9F3B17",
"%1	c #A13A17",
"&1	c #A73D15",
"*1	c #A63C12",
"=1	c #A53A0C",
"-1	c #A73D0D",
";1	c #A63C0C",
">1	c #A83E0E",
",1	c #B24719",
"'1	c #AB4117",
")1	c #923307",
"!1	c #993E12",
"~1	c #9D441A",
"{1	c #973E16",
"]1	c #903611",
"^1	c #8B2F08",
"/1	c #903307",
"(1	c #A54714",
"_1	c #B15117",
":1	c #CD6824",
"<1	c #CE661F",
"[1	c #CC641B",
"}1	c #DC7129",
"|1	c #C65D19",
"11	c #C4611D",
"21	c #BF5A14",
"31	c #C75C16",
"41	c #E6742D",
"51	c #F77C36",
"61	c #F6782E",
"71	c #F47226",
"81	c #F57423",
"91	c #F57723",
"01	c #E46A17",
"a1	c #EC7324",
"b1	c #F57C2D",
"c1	c #E46A1D",
"d1	c #EB6F25",
"e1	c #EF6F28",
"f1	c #E96620",
"g1	c #EC6722",
"h1	c #EC6820",
"i1	c #F06C24",
"j1	c #F67429",
"k1	c #F47227",
"l1	c #F8782D",
"m1	c #F17829",
"n1	c #F98232",
"o1	c #FA8736",
"p1	c #FF9141",
"q1	c #FF9847",
"r1	c #FC8F3D",
"s1	c #8F2D0A",
"t1	c #892606",
"u1	c #862202",
"v1	c #8D2907",
"w1	c #9F3817",
"x1	c #AE4623",
"y1	c #B14720",
"z1	c #AC4218",
"A1	c #A23709",
"B1	c #AA4010",
"C1	c #A53B0B",
"D1	c #9F3505",
"E1	c #A53C0C",
"F1	c #AF4617",
"G1	c #A14214",
"H1	c #953A0D",
"I1	c #933B17",
"J1	c #953C1A",
"K1	c #943C18",
"L1	c #8D310A",
"M1	c #9A3B0D",
"N1	c #A5410D",
"O1	c #AE480A",
"P1	c #C8611C",
"Q1	c #D36B22",
"R1	c #D46C23",
"S1	c #D46E24",
"T1	c #CC671F",
"U1	c #C15E1A",
"V1	c #B14F12",
"W1	c #C1591A",
"X1	c #DE712E",
"Y1	c #F17C36",
"Z1	c #F1772C",
"`1	c #F67726",
" 2	c #F97825",
".2	c #F87A26",
"+2	c #E56816",
"@2	c #F77E2D",
"#2	c #FF8B3B",
"$2	c #F47129",
"%2	c #ED6720",
"&2	c #F16D25",
"*2	c #EE6A20",
"=2	c #F07226",
"-2	c #E66C1F",
";2	c #F07929",
">2	c #EE7929",
",2	c #F48130",
"'2	c #F58533",
")2	c #FA8B3A",
"!2	c #FF9443",
"~2	c #FF903F",
"{2	c #EE7B2A",
"]2	c #A43C15",
"^2	c #97370F",
"/2	c #902E07",
"(2	c #912E05",
"_2	c #98350C",
":2	c #9B3505",
"<2	c #A03A09",
"[2	c #AE4915",
"}2	c #A94410",
"|2	c #A23E0C",
"12	c #A13D0C",
"22	c #A44211",
"32	c #A64616",
"42	c #A24617",
"52	c #91350E",
"62	c #8F381A",
"72	c #8A3317",
"82	c #8E3517",
"92	c #862C09",
"02	c #A44310",
"a2	c #B14D12",
"b2	c #B54F0F",
"c2	c #C55E19",
"d2	c #BD5812",
"e2	c #BA5414",
"f2	c #AB4514",
"g2	c #B7521A",
"h2	c #CE6828",
"i2	c #DC742D",
"j2	c #E3772C",
"k2	c #EE7D2F",
"l2	c #F17A2A",
"m2	c #FD7E2F",
"n2	c #FA782A",
"o2	c #FF8132",
"p2	c #FF8939",
"q2	c #FF8D38",
"r2	c #FB8B35",
"s2	c #ED7B25",
"t2	c #E9691E",
"u2	c #EF7427",
"v2	c #EE7427",
"w2	c #EB7627",
"x2	c #D96616",
"y2	c #D86515",
"z2	c #F18030",
"A2	c #E87727",
"B2	c #E87525",
"C2	c #E97626",
"D2	c #E87323",
"E2	c #EB7020",
"F2	c #AA3F11",
"G2	c #AA4517",
"H2	c #A13A0F",
"I2	c #9F380B",
"J2	c #A23C0C",
"K2	c #A6400F",
"L2	c #C96430",
"M2	c #DB7640",
"N2	c #C5602A",
"O2	c #A33E08",
"P2	c #A23E0A",
"Q2	c #A03F0C",
"R2	c #993706",
"S2	c #A03E0D",
"T2	c #9D3D0B",
"U2	c #A44515",
"V2	c #9E4118",
"W2	c #923513",
"X2	c #8A3111",
"Y2	c #8F381C",
"Z2	c #963C21",
"`2	c #8E310F",
" 3	c #AA4A1A",
".3	c #A74611",
"+3	c #A64207",
"@3	c #B44E0E",
"#3	c #B44D12",
"$3	c #AF4918",
"%3	c #B34F1B",
"&3	c #BF5F25",
"*3	c #C36422",
"=3	c #D2712A",
"-3	c #E37D33",
";3	c #E5772C",
">3	c #EC772A",
",3	c #F57A2D",
"'3	c #FF8639",
")3	c #F77829",
"!3	c #FF903D",
"~3	c #FD8932",
"{3	c #F08229",
"]3	c #F08128",
"^3	c #F47D2B",
"/3	c #F27729",
"(3	c #F67D2E",
"_3	c #F37C2C",
":3	c #F17E2E",
"<3	c #F07F2F",
"[3	c #E67726",
"}3	c #E57625",
"|3	c #EC7D2C",
"13	c #E77827",
"23	c #E77626",
"33	c #E46D1D",
"43	c #E76E1D",
"53	c #F07525",
"63	c #BA4F1B",
"73	c #B54B19",
"83	c #AF4513",
"93	c #AC4212",
"03	c #AE4213",
"a3	c #AF4312",
"b3	c #C95E2A",
"c3	c #DE733D",
"d3	c #D97039",
"e3	c #BF5521",
"f3	c #AD4512",
"g3	c #973101",
"h3	c #963201",
"i3	c #953302",
"j3	c #8E2E00",
"k3	c #953407",
"l3	c #8C2C02",
"m3	c #A14422",
"n3	c #9B4021",
"o3	c #994022",
"p3	c #7E2807",
"q3	c #862E0A",
"r3	c #9F431A",
"s3	c #A94815",
"t3	c #B04B15",
"u3	c #AB430C",
"v3	c #AB4B18",
"w3	c #B05520",
"x3	c #A44A15",
"y3	c #B85F25",
"z3	c #D6783A",
"A3	c #E07D3A",
"B3	c #E67A32",
"C3	c #E9782A",
"D3	c #F8812F",
"E3	c #EE7522",
"F3	c #FF8832",
"G3	c #EE7E28",
"H3	c #EF7F29",
"I3	c #F7802C",
"J3	c #F57E2C",
"K3	c #F37C2A",
"L3	c #F07C29",
"M3	c #ED7D2B",
"N3	c #EC7D2B",
"O3	c #EA7B2A",
"P3	c #E77A28",
"Q3	c #E27523",
"R3	c #E87826",
"S3	c #EC7928",
"T3	c #E46B1A",
"U3	c #E96E1E",
"V3	c #F87B29",
"W3	c #C25D27",
"X3	c #C55D2A",
"Y3	c #C75F2C",
"Z3	c #C65D2D",
"`3	c #C35929",
" 4	c #BC5222",
".4	c #B84C1D",
"+4	c #B64A19",
"@4	c #A53A06",
"#4	c #C45A26",
"$4	c #BE5422",
"%4	c #B64D1D",
"&4	c #B95023",
"*4	c #B14C1E",
"=4	c #A94716",
"-4	c #A54513",
";4	c #A13F0E",
">4	c #A84820",
",4	c #A54922",
"'4	c #9D4521",
")4	c #8C3613",
"!4	c #7D2905",
"~4	c #8E350D",
"{4	c #983B10",
"]4	c #A64518",
"^4	c #983A07",
"/4	c #842C00",
"(4	c #9E4712",
"_4	c #C86D34",
":4	c #DE8042",
"<4	c #E5823E",
"[4	c #E67F34",
"}4	c #E7792A",
"|4	c #F28230",
"14	c #EB7825",
"24	c #F88431",
"34	c #EF7B28",
"44	c #F4802B",
"54	c #F7832E",
"64	c #F68330",
"74	c #F88532",
"84	c #F48432",
"94	c #E07120",
"04	c #E17221",
"a4	c #EB7724",
"b4	c #EC7823",
"c4	c #EA731F",
"d4	c #F17825",
"e4	c #A14917",
"f4	c #A44A18",
"g4	c #A34917",
"h4	c #A74B1C",
"i4	c #B35426",
"j4	c #BB5B2B",
"k4	c #BC5A2B",
"l4	c #BE5A29",
"m4	c #CB6232",
"n4	c #C05825",
"o4	c #BE5623",
"p4	c #C45A28",
"q4	c #C65C2C",
"r4	c #C45A2A",
"s4	c #C1562A",
"t4	c #BB5427",
"u4	c #AD4F1C",
"v4	c #A94813",
"w4	c #B55116",
"x4	c #BA561B",
"y4	c #BB581F",
"z4	c #B85722",
"A4	c #A84C19",
"B4	c #A24A1C",
"C4	c #913A0F",
"D4	c #853009",
"E4	c #822D06",
"F4	c #86310A",
"G4	c #953C12",
"H4	c #943E0F",
"I4	c #872F00",
"J4	c #9D4311",
"K4	c #B45825",
"L4	c #B0521F",
"M4	c #B85B22",
"N4	c #D07336",
"O4	c #EA8D4A",
"P4	c #F39650",
"Q4	c #EB8B41",
"R4	c #EA863A",
"S4	c #EB8032",
"T4	c #F38232",
"U4	c #FD8634",
"V4	c #F7852F",
"W4	c #F88A33",
"X4	c #F2822E",
"Y4	c #F88834",
"Z4	c #ED7A29",
"`4	c #EB7828",
" 5	c #E47121",
".5	c #EA7727",
"+5	c #EB7827",
"@5	c #F3802F",
"#5	c #EE7E2A",
"$5	c #F4842E",
"%5	c #F3832D",
"&5	c #EF8027",
"*5	c #9E4614",
"=5	c #A14715",
"-5	c #A24816",
";5	c #A44819",
">5	c #AE4D20",
",5	c #B35122",
"'5	c #B65221",
")5	c #BB5524",
"!5	c #C15C28",
"~5	c #BE5925",
"{5	c #C15B2A",
"]5	c #B95322",
"^5	c #B54E21",
"/5	c #B65123",
"(5	c #B55324",
"_5	c #B0501E",
":5	c #B75621",
"<5	c #B65216",
"[5	c #B95313",
"}5	c #BD591B",
"|5	c #B9571A",
"15	c #B15218",
"25	c #B0551E",
"35	c #A94E1F",
"45	c #A24B1E",
"55	c #95421A",
"65	c #8C3813",
"75	c #8E3C17",
"85	c #8D3B15",
"95	c #97491B",
"05	c #974716",
"a5	c #9F4918",
"b5	c #AA4E1B",
"c5	c #CC6930",
"d5	c #CE6B30",
"e5	c #D17134",
"f5	c #D07433",
"g5	c #E18542",
"h5	c #DF843E",
"i5	c #F1934B",
"j5	c #F89248",
"k5	c #F88A3D",
"l5	c #FD8839",
"m5	c #FF963F",
"n5	c #F0842C",
"o5	c #EC7F2A",
"p5	c #EE802B",
"q5	c #EB7B29",
"r5	c #E67122",
"s5	c #E87324",
"t5	c #F58030",
"u5	c #FF9140",
"v5	c #FA8A36",
"w5	c #F48830",
"x5	c #F99236",
"y5	c #F0892D",
"z5	c #C6622E",
"A5	c #C55D28",
"B5	c #C35B28",
"C5	c #BF5626",
"D5	c #B74E1E",
"E5	c #BA5020",
"F5	c #B95420",
"G5	c #B5501A",
"H5	c #B14E17",
"I5	c #A84712",
"J5	c #B25323",
"K5	c #B14C20",
"L5	c #B44D20",
"M5	c #B85423",
"N5	c #B4541A",
"O5	c #B8581B",
"P5	c #B65619",
"Q5	c #BB5B1F",
"R5	c #BA5B21",
"S5	c #B75923",
"T5	c #B45A28",
"U5	c #A75023",
"V5	c #954218",
"W5	c #92401A",
"X5	c #8A3F15",
"Y5	c #8B3D0F",
"Z5	c #9A4715",
"`5	c #AE531E",
" 6	c #BE5B20",
".6	c #C45E20",
"+6	c #BF5917",
"@6	c #C05A18",
"#6	c #C66521",
"$6	c #CE6F2B",
"%6	c #CA6B29",
"&6	c #EA8945",
"*6	c #F9944E",
"=6	c #F0883F",
"-6	c #F28439",
";6	c #E67829",
">6	c #E07622",
",6	c #DA721B",
"'6	c #E47A24",
")6	c #E37623",
"!6	c #EC7C2A",
"~6	c #F88534",
"{6	c #F17C2C",
"]6	c #F07B2B",
"^6	c #F98937",
"/6	c #F38631",
"(6	c #F58D34",
"_6	c #F49136",
":6	c #F89739",
"<6	c #F99A3C",
"[6	c #E08043",
"}6	c #DA7839",
"|6	c #D9763B",
"16	c #DA763B",
"26	c #D46F37",
"36	c #D76F3A",
"46	c #B8531B",
"56	c #B55219",
"66	c #C6632A",
"76	c #C96831",
"86	c #C66731",
"96	c #BA5C28",
"06	c #BB5D2A",
"a6	c #BA5124",
"b6	c #AF4D1C",
"c6	c #B65623",
"d6	c #B65920",
"e6	c #B3541A",
"f6	c #B4551B",
"g6	c #B7581E",
"h6	c #B8581E",
"i6	c #BC5B24",
"j6	c #C0622E",
"k6	c #BB5F2E",
"l6	c #AA5326",
"m6	c #9E4920",
"n6	c #98471C",
"o6	c #893809",
"p6	c #943E0B",
"q6	c #A24712",
"r6	c #AF4C13",
"s6	c #CC6628",
"t6	c #D97230",
"u6	c #D16826",
"v6	c #C45D18",
"w6	c #BE5911",
"x6	c #CD6820",
"y6	c #D67129",
"z6	c #D67026",
"A6	c #E0782F",
"B6	c #E17A2D",
"C6	c #E77E2B",
"D6	c #E67C28",
"E6	c #E87B28",
"F6	c #ED7E2C",
"G6	c #EE7E2C",
"H6	c #E3701F",
"I6	c #E67322",
"J6	c #EA7C27",
"K6	c #EC822C",
"L6	c #E58129",
"M6	c #E98A2E",
"N6	c #EC9134",
"O6	c #F19A39",
"P6	c #EB9433",
"Q6	c #EEA151",
"R6	c #E69A4C",
"S6	c #E89A50",
"T6	c #EA9A53",
"U6	c #E6914E",
"V6	c #E78F4F",
"W6	c #E88C4D",
"X6	c #E08244",
"Y6	c #D7793B",
"Z6	c #D67338",
"`6	c #DA773C",
" 7	c #DC7940",
".7	c #D26F38",
"+7	c #D36F3B",
"@7	c #D6703F",
"#7	c #D66B3D",
"$7	c #CF6438",
"%7	c #C65F32",
"&7	c #C05E2F",
"*7	c #B65A27",
"=7	c #B55723",
"-7	c #B1531F",
";7	c #B2521F",
">7	c #B5541F",
",7	c #BA5926",
"'7	c #C05F2C",
")7	c #C66634",
"!7	c #C86939",
"~7	c #C26836",
"{7	c #BD632E",
"]7	c #A24813",
"^7	c #A74B18",
"/7	c #A84714",
"(7	c #AE4913",
"_7	c #C96026",
":7	c #E47837",
"<7	c #EF833A",
"[7	c #E57728",
"}7	c #D86B19",
"|7	c #C65B09",
"17	c #BB5405",
"27	c #BD570C",
"37	c #C26019",
"47	c #D56A1C",
"57	c #D86717",
"67	c #DA6919",
"77	c #E16E1E",
"87	c #E26F1E",
"97	c #D76413",
"07	c #E67622",
"a7	c #F89339",
"b7	c #EC8D31",
"c7	c #F49B3D",
"d7	c #F8A545",
"e7	c #FCAE4C",
"f7	c #FFB754",
"g7	c #F9AF4C",
"h7	c #FFBD6D",
"i7	c #FFB86A",
"j7	c #FDB569",
"k7	c #F9AC64",
"l7	c #EB9C57",
"m7	c #E3904E",
"n7	c #E08848",
"o7	c #DB8142",
"p7	c #DB7F40",
"q7	c #E18345",
"r7	c #DB7B3E",
"s7	c #DB793C",
"t7	c #DF7C41",
"u7	c #D57237",
"v7	c #C9662D",
"w7	c #D16D3B",
"x7	c #C86433",
"y7	c #D06F3C",
"z7	c #D57441",
"A7	c #C2632D",
"B7	c #C76832",
"C7	c #C0612B",
"D7	c #B95825",
"E7	c #B85724",
"F7	c #BB5725",
"G7	c #B75321",
"H7	c #C66530",
"I7	c #CC6B34",
"J7	c #D06F38",
"K7	c #CB6B31",
"L7	c #CC6C32",
"M7	c #C86732",
"N7	c #BE5A26",
"O7	c #BB5620",
"P7	c #B1480E",
"Q7	c #B24605",
"R7	c #D86921",
"S7	c #E57627",
"T7	c #FF913F",
"U7	c #F98A38",
"V7	c #E87D2B",
"W7	c #D87122",
"X7	c #C66518",
"Y7	c #C35F13",
"Z7	c #CC6015",
"`7	c #CD5E0F",
" 8	c #D8691A",
".8	c #D56615",
"+8	c #DA6B19",
"@8	c #E57825",
"#8	c #F0882F",
"$8	c #F28D33",
"%8	c #FFA348",
"&8	c #FFA94C",
"*8	c #FFBD5D",
"=8	c #FFB453",
"-8	c #F7AB49",
";8	c #FEB652",
">8	c #FFC15F",
",8	c #E1904F",
"'8	c #DF8E4F",
")8	c #DB894D",
"!8	c #D88448",
"~8	c #D07A41",
"{8	c #CA7139",
"]8	c #C96E35",
"^8	c #CB6E33",
"/8	c #D77A3D",
"(8	c #E98D4E",
"_8	c #EF9153",
":8	c #EE9050",
"<8	c #E38545",
"[8	c #E38746",
"}8	c #D17536",
"|8	c #BE6426",
"18	c #D27C43",
"28	c #CE783F",
"38	c #D87E42",
"48	c #E6884A",
"58	c #E98746",
"68	c #E27C3A",
"78	c #DA7432",
"88	c #D77131",
"98	c #D26B31",
"08	c #CC6731",
"a8	c #CB6632",
"b8	c #BB561E",
"c8	c #AF4B0F",
"d8	c #AA460A",
"e8	c #C55D26",
"f8	c #D46C35",
"g8	c #DB743A",
"h8	c #DA7338",
"i8	c #DB7537",
"j8	c #D1692A",
"k8	c #C35A19",
"l8	c #CB5F1E",
"m8	c #C55815",
"n8	c #C5560F",
"o8	c #D6671F",
"p8	c #E7792C",
"q8	c #FF9240",
"r8	c #FF9E48",
"s8	c #FF983F",
"t8	c #EB862E",
"u8	c #DE7927",
"v8	c #CE6919",
"w8	c #D16C1C",
"x8	c #D97422",
"y8	c #DB7722",
"z8	c #E37F29",
"A8	c #EA862E",
"B8	c #FE9C41",
"C8	c #FE9F43",
"D8	c #FFA344",
"E8	c #F09636",
"F8	c #DF8827",
"G8	c #E49030",
"H8	c #F5A242",
"I8	c #F5A546",
"J8	c #EFA043",
"K8	c #9A3F08",
"L8	c #983E09",
"M8	c #943D08",
"N8	c #97400B",
"O8	c #A84D14",
"P8	c #AF5215",
"Q8	c #B95B1D",
"R8	c #C86C2D",
"S8	c #E18544",
"T8	c #E18846",
"U8	c #FFA763",
"V8	c #E28A43",
"W8	c #9A4300",
"X8	c #994806",
"Y8	c #A35210",
"Z8	c #A7530D",
"`8	c #C86D26",
" 9	c #FB9B51",
".9	c #FE9A4F",
"+9	c #EC863E",
"@9	c #F68F4C",
"#9	c #F28A4D",
"$9	c #E78046",
"%9	c #E27A43",
"&9	c #D16A30",
"*9	c #C96325",
"=9	c #B34D0B",
"-9	c #A84001",
";9	c #D06A2A",
">9	c #D26C2A",
",9	c #D7712F",
"'9	c #D16B2B",
")9	c #CD6528",
"!9	c #CB6125",
"~9	c #CF6325",
"{9	c #D96929",
"]9	c #D86721",
"^9	c #D96A1B",
"/9	c #DC6F1A",
"(9	c #F38931",
"_9	c #F78F36",
":9	c #F99540",
"<9	c #FA9744",
"[9	c #F59740",
"}9	c #E68D33",
"|9	c #E0882E",
"19	c #E08D31",
"29	c #DE8E2F",
"39	c #D68627",
"49	c #DF8F30",
"59	c #F0A041",
"69	c #E89537",
"79	c #F49F42",
"89	c #F29B3E",
"99	c #F7A247",
"09	c #A4400C",
"a9	c #9E3F09",
"b9	c #A64C1A",
"c9	c #96400D",
"d9	c #9B4812",
"e9	c #A75317",
"f9	c #C06627",
"g9	c #C86B28",
"h9	c #C2631F",
"i9	c #C96A28",
"j9	c #C46628",
"k9	c #B75B1C",
"l9	c #D87C39",
"m9	c #FFA45A",
"n9	c #FFA85A",
"o9	c #E89545",
"p9	c #DF913F",
"q9	c #E99847",
"r9	c #F29D4C",
"s9	c #FFAD5D",
"t9	c #FBA051",
"u9	c #F6994C",
"v9	c #EA8942",
"w9	c #E58241",
"x9	c #EC8648",
"y9	c #E67F44",
"z9	c #E98046",
"A9	c #E98142",
"B9	c #DD7631",
"C9	c #D46D2B",
"D9	c #BE5525",
"E9	c #C35C21",
"F9	c #C56624",
"G9	c #C66828",
"H9	c #C6672F",
"I9	c #C4632E",
"J9	c #CB5A1E",
"K9	c #DA6724",
"L9	c #DE6C23",
"M9	c #E07024",
"N9	c #D96B20",
"O9	c #D66B1B",
"P9	c #DC721C",
"Q9	c #E17C22",
"R9	c #E6872B",
"S9	c #FAA346",
"T9	c #FFC466",
"U9	c #FFCD6E",
"V9	c #FFC969",
"W9	c #FFCA6B",
"X9	c #FFCE6E",
"Y9	c #F4BC5F",
"Z9	c #E0A348",
"`9	c #E29F44",
" 0	c #FFB55A",
".0	c #FFBF63",
"+0	c #F39B41",
"@0	c #EB9037",
"#0	c #BC551A",
"$0	c #BC581D",
"%0	c #AB5321",
"&0	c #A95320",
"*0	c #B66027",
"=0	c #C86C2B",
"-0	c #DD7E3A",
";0	c #CC6B27",
">0	c #C0611F",
",0	c #C66B34",
"'0	c #AB5019",
")0	c #A14709",
"!0	c #C56822",
"~0	c #F19749",
"{0	c #FFB05F",
"]0	c #FAA757",
"^0	c #D98434",
"/0	c #C46A1C",
"(0	c #D97D32",
"_0	c #E18339",
":0	c #DC7B34",
"<0	c #E27D39",
"[0	c #D56F2D",
"}0	c #B34D0D",
"|0	c #EA8444",
"10	c #F48E4E",
"20	c #C96625",
"30	c #EC8948",
"40	c #E88448",
"50	c #DD7542",
"60	c #D56D3A",
"70	c #C66227",
"80	c #C26021",
"90	c #C46626",
"00	c #C06225",
"a0	c #B0511B",
"b0	c #B54A14",
"c0	c #BC4E11",
"d0	c #CA5917",
"e0	c #D8661F",
"f0	c #DF6D26",
"g0	c #E06E28",
"h0	c #ED7B32",
"i0	c #E3751C",
"j0	c #E98226",
"k0	c #EB8E31",
"l0	c #E49435",
"m0	c #E9A445",
"n0	c #F7BB5B",
"o0	c #FCC568",
"p0	c #FFCA6E",
"q0	c #FFD276",
"r0	c #FFD97F",
"s0	c #FFD67F",
"t0	c #FFC66E",
"u0	c #FCA84E",
"v0	c #DE852B",
"w0	c #E3832C",
"x0	c #DB732A",
"y0	c #C75E1A",
"z0	c #B45424",
"A0	c #BA5B2B",
"B0	c #B6531A",
"C0	c #CB6729",
"D0	c #D06D2C",
"E0	c #CA682B",
"F0	c #BD5E2E",
"G0	c #B3582C",
"H0	c #B15A2F",
"I0	c #A04C1D",
"J0	c #974209",
"K0	c #C77432",
"L0	c #DA8542",
"M0	c #CF7833",
"N0	c #D47B39",
"O0	c #DF8141",
"P0	c #BF5D1E",
"Q0	c #D26C2C",
"R0	c #F08947",
"S0	c #DF7634",
"T0	c #EA813D",
"U0	c #EC8540",
"V0	c #ED8844",
"W0	c #EE8C4B",
"X0	c #DC7E41",
"Y0	c #983D06",
"Z0	c #8D3503",
"`0	c #C26633",
" a	c #E37B46",
".a	c #D97037",
"+a	c #C86429",
"@a	c #CC6C30",
"#a	c #C6662A",
"$a	c #BF5C23",
"%a	c #BC541D",
"&a	c #CE6126",
"*a	c #CD6121",
"=a	c #C25711",
"-a	c #C95A13",
";a	c #D36118",
">a	c #DC631C",
",a	c #F97B2E",
"'a	c #F27E2B",
")a	c #F28530",
"!a	c #F6923A",
"~a	c #F0973D",
"{a	c #E49338",
"]a	c #DF9439",
"^a	c #D2882F",
"/a	c #D58B34",
"(a	c #DA8E38",
"_a	c #D88833",
":a	c #D37D28",
"<a	c #CC721C",
"[a	c #D97B24",
"}a	c #F28E38",
"|a	c #EE8534",
"1a	c #D2681E",
"2a	c #C45B21",
"3a	c #BF5928",
"4a	c #B44F23",
"5a	c #A03803",
"6a	c #A94006",
"7a	c #C0571D",
"8a	c #CE6931",
"9a	c #CB6C3E",
"0a	c #B0572F",
"aa	c #994520",
"ba	c #98461E",
"ca	c #8E3D0E",
"da	c #9C4B16",
"ea	c #A64F19",
"fa	c #C1662D",
"ga	c #E4874E",
"ha	c #E5854B",
"ia	c #E27E43",
"ja	c #E57D40",
"ka	c #D9702F",
"la	c #DF772E",
"ma	c #D7752E",
"na	c #CD6E2A",
"oa	c #D97C3F",
"pa	c #D27B45",
"qa	c #A95322",
"ra	c #883000",
"sa	c #E27D45",
"ta	c #DB783D",
"ua	c #C9662B",
"va	c #CB672B",
"wa	c #CA6328",
"xa	c #C75D23",
"ya	c #CD5F24",
"za	c #DE7234",
"Aa	c #E07735",
"Ba	c #D2661E",
"Ca	c #DC6A21",
"Da	c #ED6F25",
"Ea	c #F07029",
"Fa	c #FA7A31",
"Ga	c #E1691B",
"Ha	c #DE6E1C",
"Ia	c #DE7420",
"Ja	c #E7832E",
"Ka	c #FC9C46",
"La	c #F49843",
"Ma	c #F39742",
"Na	c #F09441",
"Oa	c #EA8B37",
"Pa	c #EE8E38",
"Qa	c #F18F38",
"Ra	c #FC9842",
"Sa	c #FC943D",
"Ta	c #E3792B",
"Ua	c #D3671E",
"Va	c #DB7239",
"Wa	c #CF6732",
"Xa	c #C05624",
"Ya	c #B44913",
"Za	c #A43601",
"`a	c #A74E22",
" b	c #903D15",
".b	c #84340F",
"+b	c #7F2D05",
"@b	c #BE5F2F",
"#b	c #BE5E2B",
"$b	c #BA5922",
"%b	c #C26023",
"&b	c #C76421",
"*b	c #D57028",
"=b	c #D9752A",
"-b	c #E78136",
";b	c #E68236",
">b	c #E28037",
",b	c #E68540",
"'b	c #DB7C3A",
")b	c #D87B3E",
"!b	c #CF7539",
"~b	c #B55A25",
"{b	c #9E4314",
"]b	c #B85C2B",
"^b	c #E4834C",
"/b	c #E07C3E",
"(b	c #D9702E",
"_b	c #DB702C",
":b	c #D7692C",
"<b	c #D26628",
"[b	c #D56929",
"}b	c #DC712D",
"|b	c #DD6E27",
"1b	c #E67028",
"2b	c #E76E27",
"3b	c #ED7131",
"4b	c #EC712B",
"5b	c #E66D24",
"6b	c #E26D20",
"7b	c #DD6A1A",
"8b	c #D36212",
"9b	c #E37222",
"0b	c #ED7E2D",
"ab	c #FB8C3A",
"bb	c #FF903E",
"cb	c #FF913A",
"db	c #EA7B22",
"eb	c #DC7228",
"fb	c #C55911",
"gb	c #C9601E",
"hb	c #D26A2B",
"ib	c #CF662C",
"jb	c #C85F25",
"kb	c #C75A1F",
"lb	c #BE5116",
"mb	c #AA4006",
"nb	c #B04813",
"ob	c #8F360C",
"pb	c #842F08",
"qb	c #89360E",
"rb	c #9A4318",
"sb	c #A84818",
"tb	c #B45118",
"ub	c #C15F22",
"vb	c #B85514",
"wb	c #CC6925",
"xb	c #DA7733",
"yb	c #D3702C",
"zb	c #D16E2D",
"Ab	c #E07E3D",
"Bb	c #DC7D3D",
"Cb	c #DB7C3C",
"Db	c #D77939",
"Eb	c #DF8249",
"Fb	c #B25A2C",
"Gb	c #7C2100",
"Hb	c #FF9A5A",
"Ib	c #F38842",
"Jb	c #F78841",
"Kb	c #DA6D2C",
"Lb	c #D96D2F",
"Mb	c #D06328",
"Nb	c #D16324",
"Ob	c #DB6B29",
"Pb	c #DA6923",
"Qb	c #DD6B22",
"Rb	c #E8742B",
"Sb	c #DD6729",
"Tb	c #D8611F",
"Ub	c #DA601D",
"Vb	c #DE641B",
"Wb	c #E86D20",
"Xb	c #DF6417",
"Yb	c #E06718",
"Zb	c #E76E1F",
"`b	c #E7701E",
" c	c #EA761F",
".c	c #EC7A21",
"+c	c #EA771E",
"  . + @ # $ % & * = - ; > , ' ) ! ~ { ] ^ / ( _ : < [ } | 1 2 3 4 5 6 7 8 9 0 a b c d e f g h i j k l m n o p q r s t u v w x y ",
"z A B C D E F G H I J K L M N O P Q R S T U V W X Y Z `  ...+.@.#.$.%.&.*.=.-.;.>.,.'.).!.~.{.].^./.(._.:.<.[.}.|.1.2.3.4.5.6.7.",
"8.9.0.a.b.c.d.e.f.g.h.i.j.k.l.m.n.o.p.q.r.s.t.u.v.w.x.y.z.A.B.C.D.E.F.G.H.I.J.K.L.M.N.O.P.Q.R.S.T.U.V.W.X.Y.Z.`. +.+++@+#+$+%+&+",
"*+=+-+;+>+,+'+)+!+~+{+]+^+/+(+_+:+<+[+}+|+1+2+3+4+5+6+7+8+9+0+a+b+c+d+e+f+g+h+i+j+k+l+m+n+o+p+q+r+s+t+u+v+w+x+y+z+A+B+C+D+E+F+G+",
"H+I+J+K+L+M+N+O+P+Q+R+S+T+U+V+W+X+Y+Z+`+ @.@+@@@#@$@%@&@*@=@-@;@>@,@'@)@!@~@{@]@^@/@(@_@:@<@[@}@|@1@2@3@4@5@6@7@8@9@0@a@b@c@d@e@",
"f@g@h@i@j@k@l@m@n@o@p@q@r@s@t@u@v@w@x@y@z@A@B@C@D@E@F@G@H@I@J@]@K@L@M@N@O@P@Q@R@S@T@U@V@W@X@Y@Z@`@ #.#+#@###$#%#&#*#=#-#;#a@>#,#",
"'#)#!#~#{#]#^#/#(#_#:#<#[#}#|#1#2#3#4#5#6#7#8#9#0#a#b#c#d#e#f#g#h#i#j#k#l#m#n#o#p#q#r#s#t#u#v#w#x#y#z#A#B#C#D#E#F#G#H#I#J#K#L#M#",
"N#O#P#Q#R#S#T#U#V#W#X#Y#Z#`# $.$+$@$#$$$%$&$*$=$-$;$>$,$'$)$!$~${$]$^$/$($_$:$<$[$}$|$1$2$3$4$i@5$6$7$8$9$0$a$b$c$d$e$f$g$h$i$j$",
"k$l$m$n$o$p$q$r$s$t$u$v$w$x$y$z$A$B$C$D$E$F$G$H$I$J$K$L$M$& N$O$P$Q$R$S$T$U$V$W$X$Y$Z$`$ %.%+%@%#%$%%%&%*%=%-%;%>%,%'%)%!%~%{%]%",
"^%/%(%_%:%<%[%}%|%1%=@2%3%4%5%6%7%8%9%0%a%b%c%d%e%f%g%h%i%j%k%l%m%n%o%p%q%r%s%t%u%v%w%x%y%z%A%B%C%D%E%F%G%H%I%J%K%L%M%N%O%P%Q%R%",
"S%T%U%V%W%X%Y%Z%`% &.&<#+&@&#& $$&%&&&*&=&-&;&>&,&'&)&!&~&{&]&^&/&(&v#_&:&<&[&}&|&1&2&3&4&5&6&7&8&9&0&a&b&c&d&e&f&g&h&i&j&k&l&m&",
"n&o&p&q&r&s&t&u&v&w&x&y&z&A&B&C&D&E&F&G&H&I&J&K&L&M&N&O&P&Q&R&S&T&U&V&W&X&Y&Z&`& *.*+*@*#*$*%*&***=*-*;*>*>*,*'*)*!*~*{*]*^*/*(*",
"_*:*<*[*}*|*1*2*3*4*5*6*7*8*9*0*a*b*c*G&d*e*f*g*h*i*j*k*l*m*n*o*p*q*r*s*t*u*v*w*x*y*z*A*B*C*D*E*F*G*H*I*J*K*L*M*N*O*P*Q*R*S*T*U*",
"V*W*X*Y*r&Z*`* =.=+=@=#=$=%=&=*===-=;=>=,='=)=!=~={=]=^=/=(=_=:=<=[=}=|=1=2=3=4=5=6=7=8=U%9=0=a=b=c=d=e=f=g=h=i=j=k=l=m=n=o=p=q=",
"r=s=t=u=v=w=x=y=z=A=B=C=D=E=F=G=H=I=J=K=L=M=N=O=P=Q=R=S=T=U=V=W=X=Y=Z=`= -.-+-@-#-$-%-&-*-=---;->-,-'-)-!-~-{-]-^-/-(-_-:-<-[-}-",
"|-1-2-3-4-5-6-7-8-9-0-a-7&b-c-d-e-f-g-h-i-j-k-l-m-n-o-p-q-r-s-t-u-v-w-m#x-y-z-A-B-C-D-E-F-G-H-I-J-K-L-M-N-O-P-Q-R-S-T-U-V-W-X-Y-",
"Z-`- ;.;+;@;#;$;%;&;*;=;-;;;>;,;';);!;~;{;];^;/;(;_;:;<;[;};|;1;2;3;4;5;$&6;7;8;9;0;a;b;c;d;e;f;g;h;i;j;k;l;m;n;o;p;q;r;s;t;u;v;",
"w;x;y;z;A;B;C;D;E;F;G;H;I;J;K;L;M;N;O;P;Q;R;7*S;T;U;V;W;X;Y;Z;`; >.>+>@>#>$>%>&>*>=>->;>>>,>'>)>!>~>{>]>^>/>(>_>:><>[>}>|>1>2>3>",
"4>5>6>7>8>9>0>a>b>c>d>e>f>g>h>i>j>;+k>l>m>n>o>p>q>r>s>t>u>v>w>x>y>z>A>B>C>D>E>F>G>H>I>J>K>L>M>N>O>P>Q>R>S>T>U>V>W>X>Y>Z>`>x+ ,.,",
"+,@,#,$,%,&,*,=,-,;,>,,,',),!,~,{,],^,/,(,_,:,<,[,},|,1,2,3,4,5,6,7,8,9,0,a,b,c,d,e,f,g,h,i,j,k,l,m,n,o,p,q,r,s,t,u,v,w,x,H#y,z,",
"A,B,C,D,E,F,G,H,I,J,K,L,M,y#N,O,P,Q,R,S,T,U,V,W,X,Y,Z,2,`, '.'+'@'#'W#$'%'&'*'='-';'>',''')'!'~'{']'^'/'('_':'<'['}'|'1'2'3'4'5'",
"6'7'8'9'0'a'b'c'd'e'f'g'h'i'j'k'l'm'n'o'p'p@q'r's't'u'v'w'4 x'y'z'A'B'C'D'E'F'G'H'I'J'K'L'M'N'O'P'Q'R'S'T'U'V'W'X'Y'Z'`' ).)+)@)",
"#)$)%)&)*)=)-);)>),)')))!)~){)])^)/)()_):)<)[)})|)1)2)3)4)g;5)6)7)8)9)0)a)b)c)d)e)f)g)h)i)j)k)l)m)n)o)p)q)r)s)t)u)v)w)x)y)z)A)B)",
"C)D)E)F)G)H)I)J)K)L)M)N)O)P)Q)R)S)T)U)V)W)X)R=Y)Z)`) !.!+!@!7,#!$!%!&!*!=!-!;!>!,!'!)!!!~!{!]!^!/!(!_!:!<![!}!|!1!2!3!4!5!6!7!8!",
"9!0!a!b!c!d!e!f!g!h!i!j!k!l!m!n!o!p!q!r!s!!=t!u!v!w!x!y!z!A!B!C!D!E!F!G!z@H!I!J!K!{>L!M!N!O!P!Q!R!S!T!U!V!W!X!Y!Z!`! ~.~3&+~@~#~",
"f!$~D)%~&~*~=~-~;~>~,~'~)~!~~~{~]~^~/~(~_~:~)&<~[~}~|~1~2~3~4~5~6~>*7~8~9~0~a~b~c~d~e~f~g~h~i~j~k~l~c$m~n~o~p~q~r~t+s~L%t~u~v~w~",
"x~y~z~A~B~C~D~E~F~G~H~I~J~K~L~M~N~O~U)P~Q~R~S~T~U~V~W~X~Y~Z~`~g' {.{+{@{#{${%{&{*{={-{;{>{,{'{){!{~{{{]{^{/{({$#_{:{<{[{}{|{1{2{",
"3{4{5{6{7{8{9{0{a{b{c{d{e{f{g{h{i{j{k{l{m{n{o{p{q{r{s{t{u{v{w{x{y{z{A{)*B{C{D{.-E{F{G{H{I{J{K{L{M{N{O{P{Q{R{S{T{U{V{W{X{Y{Z{`{ ]",
".]+]@]#]$];~*~%]&]*]=]-];]>],]'])]!]~]{]]]^]/](]_]:]<][]`*}]|]1]2]3]4]5]6]7]8]9]0]a]b]c]d]e]f]g]h]i]j]k]l]m]n]$#o]p]q]r]s]t]u]v]",
"w]x]y]z]A]B]C]D]E]F]G]H]I]J]S)p!K]L]M]N]O]P]Q]R]S]T]U]V]V]W]X]Y]Z]`] ^R!.^+^@^#^$^%^&^*^=^-^;^>^,^'^)^!^~^{^]^^^/^(^_^:^<^[^u]}^",
"|^1^2^3^4^5^6^e-7^8^^+9^0^a^b^^]c^d^e^f^g^h^i^j^a~Q=k^l^m^n^o^f=p^q^r^s^t^u^v^w^x^y^z^A^B^C^D^E^F^G^H^I^J^K^L^M^N^t~O^P^Q^R^S^T^",
"U^V^W^X^Y^Z^`^ /./+/@/#/$/%/&/*/=/-/;/>/,/'/)/!/~/'*{/]/L-^///(/_/:/</[/}/|/1/2/3/4/5/6/7/8/9/0/a/b/c/d/e/f/g/L^h/i/j/k/l/m/n/o/",
"p/E$q/r/s/e!t/u/v/K w/x/y/z/A/B/C/D/E/F/G/H/I/J/K/L/O-M/N/O/P/Q/R/S/T/U/V/W/X/Y/Z/`/ (.(+(@(#($(%(&(*(=(-(S!;(>(,(5/'()(!(~({(](",
"^(/(((_(:(<([(}(|(1(2(3(4(5(6(7(8(9(0(a(b(c(d(e(f(g(h(i(j(k(l(m(n(o(p(q(r(s(t(x@u(v(w(x(y(y(z(A(B(C(D(E(F(G(H(I(J(K(L(M(N(O(P(Q(",
"R(S(T(U(V(W(X(J!J&Y(Z(`( _._+_@_#_#_$_%_&_*_=_-_;_>_,_'_)_!_~_{_]_^_/_(___:_<_[_}_|_1_2_3_4_5_6_7_8_9_0_0_a_b_c_d_e_f_g_^^h_i_j_",
"k_l_m_n_n_o_p_q_r_s_t_u_/#v_w_x_y_z_A_B_C_D_E_F_G_H_I_J_K_L_M_N_O_P_Q_R_</S_T_U_V_W_X_Y_Z_`_5_ :.:+:+:@:#:$:$:%:%:&:*:=:-:;:;:>:",
",:':k*):Y(!:~:{:+{,:]:^:/:C'(:_:::<:[:}:|:1:2:3:4:5:6:7:8:9:0:a:b:c:d:e:f:g:h:i:j:k:l:m:n:o:Y!p:q:r:r:s:t:u:v:w:x:y:z:A:B:C:D:E:",
"F:G:H:I:J:K:L:M:N:O:P:Q:R:S:T:U:V:W:[:X:Y:Z:`: <.<+<@<#<$<%<:;&<*<=<-<;<><,<'<)<-'!<~<{<]<^</<(<_<:<<<<<[<}<|<1<2<3<4<5<6<7<8<9<",
"0<a<b<c<d<e<f<g<h<i<j<k<l<m<n<o<p<q<r<s<t<u<v<w<x<y<z<A<B<C<D<E<F<G<H<I<J<K<L<M<N<O<P<Q<R<S<T<U<V<W<X<Y<Z<`< [.[+[@[n]#[$[%[&[*[",
"=[-[;[>[,['[)[![~[{[][^[/[l<([_[:[<[[[}[|[1[2[3[4[5[6[7[8[9[0[a[b[c[d[e[f[g[h[i[j[o:k[r:l[m[)(m[2<n[o[p[Y<q[r[s[t[u[v[w[x[y[z[A[",
"B[C[D[E[F[G[H[I[J[q-K[L[M[V;Q:N[O[P[Q[R[S[T[U[V[W[X[Y[Z[`[H< }.}J']/+}@}#}$}!*%}^<&}*}=}-};}>},}'}q~)}!}m[~}{}]}{}t+U{^}/}(}9<_}",
":}<}[}}}b*|}1}2}3}([4}5}6}7}9!8}9}0}a}b}c}d}e}f}g}h}i}j}k}l}m}n}o}p}q}r}s}t}u}v}w}&}x}y}z}A}B}C}D}E}F}G}H}I}J}K}L}M}N}O}P}Q}R}S}",
"T}U}V}W}X}Y~Y}Y}Z}`} |.|+|@|#|$|%|&|*|=|-|;|K'>|,|'|)|K=!|m-~|{|]|^|+^/|z((|_|:|<|G}[|}|||||n]1|2|3|4|5|6|7|8|9|0|a|b|c|n[d|e|f|",
"g|u/h|i|j|k|t/l|m|n|l|o|@!U(p|q|r|s|#'t|u|v|w|x|y|z|A|B|C|D|E|F|G|H|I|/|J|K|<|s:L|M|N|n[O|D#P|Q|R|S|C#T|U|V|W|X|Y|Z|`|2< 1a_w^.1",
"+1@1#1$1%1%,&1*1=1-1;1>1r/,1'1e%)1!1~1{1]1^1/1(1_1G<:1<1[1}1M!|111213141516171O^8191=}01a1b1c1d1e1f1g1h1i1j1k1l1G}m1n1o1p1q1r1M{",
"s1t1u1v1w1x1y1z1A1;1B1C1D1E1F1t-G1H1{1I1J1K1L1M1N1O1P1Q1R1S1T1U1V1V1W1X1Y1Z1L(`1 2.2+2]{@2#2n1e|$2%2&2*2[<=2+~-2;2>2,2'2)2!2~2{2",
"]2^2/2(2_2L,U(:2<2b<[2}2N1|21222324252t'627282923~02a2b2i~c2d2e2>[f2g2h2i2j2k2l2)}m2n2o2p2q2r2s2f_t2<|u2v2w2x2y2z2A2B2C2D2l2>(E2",
"F2][G2s-H2I2J2K2L2M2N2O2P2Q2R2S2T2U2V2W2X2Y2Z2b'`26, 3.3+3O1@3#3$3j<%3&3*3=3-3;3>3,3'3)3!3~3{3]3^3/3(3_3:3<3[3}3|31323d/334353|>",
"63738393C]03a3q/b3c3d3e3f3<2g3h3i3j3k3l3($m3n3o362p3q3r3B's3t3u3Q;$3v3w3x3y3z3A3B3C3D3E3F38<G3H3I3J3K3L3M3N3O3P3Q3[3R3S333T3U3V3",
"W3X3Y3Z3`3 4.4+4i{@4q/#4$4%4&4*4=4-4;4=4Z~e->4,4'4)4!4M;~4{4]4 |e<K:^4U:/4(4_4:4<4[4}4|414j]24344454647484N3139404}3M{S3a4b4c4d4",
"e4f4g4h4i4j4k4l4m4n4o4p4q4r4s4t4J$u4v4X(w4x4y4z4A4B4C4D4E4F4Z(G4H4I4J4K4L4D<M4N4O4P4Q4R4S4T4n1U4V4W4X4Y4z)Z4`4 5`4.5+5@5#5$5%5&5",
"*5=5-5;5_[>5,5'5)5/]!5~5{5]5^5/5(5_5:5y4<5[5}5|515253545556575859505a5b5l*c5d5e5f5g5h5i5j5k5l5f/m5n5o5p5q5S3r50]s5t5u5v5w5e]x5y5",
"z5A5B5C5D5D5E5%4F5G5H5I5(=(=J5*'K5L5M5U;N5C<O5P5Q5R5S5T5U5V5W58^X5Y5Z5`5 6.6+6@6#6$6%6&6*6=6-6;6>6,6'6)6!6~6t5{6]6Z4^6/6(6_6:6<6",
"[6}6|616263636#,46566676869606*'a6B*x{b6c6d6e6f6g6h6i6j6k6l6m6n695o6p6q6r6s6t6u6v6c2w6x6y6z6A6B6C6D6E6F6G6H6Z4Z4I6J6K6L6M6N6O6P6",
"Q6R6S6T6U6V6W6X6Y6e5Z6`6 7.7+7@7#7$7%7&706*7=7-7;7>7,7'7)7!7l%~7{7]7^7e{/7(7_7:7<7[7}7|7172737T147576777879707J6/6a7b7c7d7e7f7g7",
"h7i7j7k7l7m7n7o7p7q7r7s7t7u7v7>'w7x7y7z786A7B7C7D7E7F7G7i^H7I7J7K7L7M7l*N7O7P7Q7R7S7T7U7V7W7X7Y7Z7`7 8.8+8@8o5#8$8%8&8*8=8-8;8>8",
",8'8)8!8~8{8]8^8/8(8_8:8<8[8}8|818283848586878889808a8!5g{b8c8d8e8f8g8h8i8j8k8l8m8n8o8p8q8r8s8t8u8v8w8x8y8z8A8B8C8D8E8F8G8H8I8J8",
"K8L8M8N8(4x3O8P8Q8Q8R8S8T8U8V8W8X8Y8Z8`8 9.9+9@9#9$9%9I/&9*9=9-9X@#4~/;9>9,9'9)9!9~9{9]9^9/9(9_9:9<96:[9}9|919293949594969798999",
"09a9b9c9d9e9f9g9h9i9j9P8k9l9m9n9o9p9q9r9s9t9u9v9w9x9y9z9A9B>B9C9;*D9E9u%F9G9H9I9!5]~J9K9L9M9N9O9P9Q9R9S9T9U9V9W9X9Y9Z9`9 0.0+0@0",
"#0$0j6%0&0*0=0-0;0>0g=,0'0)0!0~0s9{0]0^0/0(0_0:0<0[0}0|010203040506070809000a0D7)5b0c0d0e0f0g0h0a/i0j0k0l0m0n0o0p0q0r0s0t0u0v0w0",
"x0y0o{z0A'A0B0C0D0E0F0G0H0I0J0K0L0M0N0O0P0Q0R0S0T0U0V0W0X0Y0Z0`0 a.a+a@a#a$a%aq(S;&a*a=a-a;a>ad1,a]^'a)a!a~a{a]a^a/a(a_a:a<a[a}a",
"|a1a2a3a4aG25a6a7a8a9a0aaabacadaeafagahaiajakag:laz6manaoapaqara>7satauavawaxayayazaAa1#BaCav}DaEaFau2GaHaIaJaKaLaMaNaOaPaQaRaSa",
"TaUaJ<VaWaXaYaZak_a,J$`a b85.b+b!1@b#b$b%b&b*b=b-b;b>b,b'b)b!b~b{b]b^b/b(b_bm}$&:b<b[b}b|bf01b2b3b|_w(4b5b6b7b8b9b0babbb} m5cbdb",
"ebfbgbhbibjbkblbmbnbd<E]obpbqbrbsb09tbubvb&bwbmaxbybzbAbBbCbDbEbFbGb76HbIbJbi;KbLbMbNbObPbQbRb-'b,SbTbUbC#Vbe&WbXbYbZb`bc4 c.c+c"};
