/* XPM */
static char * wall_south_xpm[] = {
"64 64 1353 2",
"  	c #5E4657",
". 	c #5E4C5A",
"+ 	c #6A5363",
"@ 	c #827384",
"# 	c #7B6F80",
"$ 	c #705F6F",
"% 	c #65535F",
"& 	c #594351",
"* 	c #573D4E",
"= 	c #4F3648",
"- 	c #4F3344",
"; 	c #43293A",
"> 	c #4D2D41",
", 	c #40293A",
"' 	c #462941",
") 	c #3F253A",
"! 	c #402937",
"~ 	c #462C41",
"{ 	c #4D2C3E",
"] 	c #462D41",
"^ 	c #46293A",
"/ 	c #4C2F44",
"( 	c #4F3647",
"_ 	c #594657",
": 	c #523D4E",
"< 	c #4F3345",
"[ 	c #4D3348",
"} 	c #513648",
"| 	c #6E5866",
"1 	c #806F7D",
"2 	c #9E95A0",
"3 	c #5E4C5C",
"4 	c #614C5A",
"5 	c #635363",
"6 	c #6E6478",
"7 	c #706176",
"8 	c #705F71",
"9 	c #6C5D6C",
"0 	c #675666",
"a 	c #6C5D6A",
"b 	c #675868",
"c 	c #635161",
"d 	c #59495A",
"e 	c #574754",
"f 	c #4D3645",
"g 	c #463041",
"h 	c #493344",
"i 	c #544350",
"j 	c #594757",
"k 	c #5E4E5E",
"l 	c #594957",
"m 	c #655361",
"n 	c #6E626F",
"o 	c #615161",
"p 	c #5E4E5C",
"q 	c #604E5F",
"r 	c #5E4C5D",
"s 	c #5C495C",
"t 	c #7E7180",
"u 	c #63515D",
"v 	c #6A5666",
"w 	c #6A5866",
"x 	c #675668",
"y 	c #675661",
"z 	c #634E5F",
"A 	c #614C5D",
"B 	c #5C4657",
"C 	c #573A4B",
"D 	c #4F3A4B",
"E 	c #4D3345",
"F 	c #493041",
"G 	c #432D3E",
"H 	c #43293E",
"I 	c #462D3E",
"J 	c #492D45",
"K 	c #493648",
"L 	c #4D3045",
"M 	c #4C3348",
"N 	c #544054",
"O 	c #4F3A4E",
"P 	c #523A4B",
"Q 	c #523648",
"R 	c #54434E",
"S 	c #5E4957",
"T 	c #6E5B68",
"U 	c #867783",
"V 	c #A097A4",
"W 	c #675663",
"X 	c #726677",
"Y 	c #72697A",
"Z 	c #7B7280",
"` 	c #706471",
" .	c #6A5A6A",
"..	c #65515F",
"+.	c #5C495A",
"@.	c #5C4C5A",
"#.	c #5C4957",
"$.	c #544351",
"%.	c #4F3A48",
"&.	c #493345",
"*.	c #4D3A4B",
"=.	c #52434E",
"-.	c #54404E",
";.	c #5C4954",
">.	c #6E5D6C",
",.	c #6E5F76",
"'.	c #6A5D6A",
").	c #655161",
"!.	c #63515F",
"~.	c #7E717D",
"{.	c #6C5A6A",
"].	c #7D6F7E",
"^.	c #655366",
"/.	c #5C4959",
"(.	c #634E5C",
"_.	c #675161",
":.	c #695A68",
"<.	c #574354",
"[.	c #4E364B",
"}.	c #4F3348",
"|.	c #463345",
"1.	c #463048",
"2.	c #49334B",
"3.	c #493348",
"4.	c #493645",
"5.	c #4D364B",
"6.	c #4F364B",
"7.	c #523D52",
"8.	c #4F334B",
"9.	c #6E5868",
"0.	c #867987",
"a.	c #8C7D8B",
"b.	c #918892",
"c.	c #615163",
"d.	c #635163",
"e.	c #655363",
"f.	c #655866",
"g.	c #6C5D6F",
"h.	c #6E5F71",
"i.	c #776B7E",
"j.	c #756675",
"k.	c #6C5B6A",
"l.	c #5E4E5A",
"m.	c #5C4754",
"n.	c #594754",
"o.	c #574757",
"p.	c #4D3648",
"q.	c #605161",
"r.	c #705F6C",
"s.	c #72626D",
"t.	c #736674",
"u.	c #6E6271",
"v.	c #6A5B6A",
"w.	c #6A5A68",
"x.	c #726170",
"y.	c #807680",
"z.	c #735F6F",
"A.	c #573D52",
"B.	c #594051",
"C.	c #705D6E",
"D.	c #766675",
"E.	c #5B4657",
"F.	c #513A4B",
"G.	c #4C334B",
"H.	c #4D334B",
"I.	c #4C3048",
"J.	c #493048",
"K.	c #4F3A52",
"L.	c #52364B",
"M.	c #543A4E",
"N.	c #573D51",
"O.	c #543D4E",
"P.	c #5E485A",
"Q.	c #6A5566",
"R.	c #827583",
"S.	c #807382",
"T.	c #796674",
"U.	c #8F8290",
"V.	c #6A5B6C",
"W.	c #756673",
"X.	c #75697C",
"Y.	c #61515D",
"Z.	c #5C475A",
"`.	c #54404B",
" +	c #493341",
".+	c #7C7081",
"++	c #8C7F8D",
"@+	c #938994",
"#+	c #918993",
"$+	c #7B6B7A",
"%+	c #6E5F6A",
"&+	c #6A5B66",
"*+	c #67586A",
"=+	c #7A6C7B",
"-+	c #756674",
";+	c #766777",
">+	c #807280",
",+	c #6C5A68",
"'+	c #5C4354",
")+	c #57404E",
"!+	c #604C5C",
"~+	c #766873",
"{+	c #786775",
"]+	c #543D4B",
"^+	c #4D3344",
"/+	c #4C364B",
"(+	c #4F3645",
"_+	c #523A48",
":+	c #52404B",
"<+	c #5C4357",
"[+	c #827482",
"}+	c #82717F",
"|+	c #705F6D",
"1+	c #8F848E",
"2+	c #63536A",
"3+	c #65566A",
"4+	c #6A5A6D",
"5+	c #655663",
"6+	c #6C5F71",
"7+	c #7B7080",
"8+	c #7B7082",
"9+	c #6E5D6D",
"0+	c #675863",
"a+	c #614E5D",
"b+	c #5C4C5E",
"c+	c #5E4E5F",
"d+	c #544352",
"e+	c #4C3A4B",
"f+	c #52404E",
"g+	c #574657",
"h+	c #827788",
"i+	c #99929F",
"j+	c #A9A0AC",
"k+	c #8F858E",
"l+	c #74646F",
"m+	c #70626F",
"n+	c #614E5C",
"o+	c #635361",
"p+	c #695A6C",
"q+	c #706171",
"r+	c #726271",
"s+	c #574752",
"t+	c #614C57",
"u+	c #7B6A79",
"v+	c #776675",
"w+	c #5E4C57",
"x+	c #544052",
"y+	c #4C3644",
"z+	c #523D4B",
"A+	c #574054",
"B+	c #6C5D6D",
"C+	c #695D6C",
"D+	c #746475",
"E+	c #705F6E",
"F+	c #675366",
"G+	c #6A5863",
"H+	c #8B828D",
"I+	c #634E61",
"J+	c #817484",
"K+	c #756875",
"L+	c #6A5B68",
"M+	c #61515E",
"N+	c #655863",
"O+	c #827681",
"P+	c #9E949F",
"Q+	c #847782",
"R+	c #63515C",
"S+	c #5E4954",
"T+	c #857B87",
"U+	c #776B75",
"V+	c #594752",
"W+	c #59434E",
"X+	c #725F6E",
"Y+	c #5E4959",
"Z+	c #574352",
"`+	c #4D3A48",
" @	c #4F3D4B",
".@	c #5E4859",
"+@	c #604E61",
"@@	c #544051",
"#@	c #5C4757",
"$@	c #63535F",
"%@	c #675561",
"&@	c #857885",
"*@	c #59475A",
"=@	c #5E4E61",
"-@	c #6A5D6F",
";@	c #6A5868",
">@	c #7B6F7E",
",@	c #7F7482",
"'@	c #776977",
")@	c #6E5D68",
"!@	c #6C5868",
"~@	c #63535D",
"{@	c #544357",
"]@	c #7A6D77",
"^@	c #7B707A",
"/@	c #5C4654",
"(@	c #5E515D",
"_@	c #5E4E5D",
":@	c #5C4C5F",
"<@	c #827B87",
"[@	c #5E4854",
"}@	c #634C5C",
"|@	c #574052",
"1@	c #543F52",
"2@	c #5E495A",
"3@	c #594354",
"4@	c #5B4853",
"5@	c #614E59",
"6@	c #5E495C",
"7@	c #594654",
"8@	c #604E5C",
"9@	c #675563",
"0@	c #6E5D6A",
"a@	c #63515E",
"b@	c #7B6D7B",
"c@	c #67586C",
"d@	c #7B6F7B",
"e@	c #847985",
"f@	c #7F7282",
"g@	c #756671",
"h@	c #6C5B68",
"i@	c #6C586A",
"j@	c #5E515F",
"k@	c #61495D",
"l@	c #594954",
"m@	c #5E495D",
"n@	c #6A5A66",
"o@	c #6C5B66",
"p@	c #5E4C59",
"q@	c #654E5E",
"r@	c #6C5863",
"s@	c #655666",
"t@	c #675363",
"u@	c #65535E",
"v@	c #675368",
"w@	c #6E5F6F",
"x@	c #573F51",
"y@	c #796A74",
"z@	c #594857",
"A@	c #61515F",
"B@	c #615166",
"C@	c #776877",
"D@	c #887B8B",
"E@	c #887D90",
"F@	c #80737F",
"G@	c #735F6C",
"H@	c #705F6A",
"I@	c #615361",
"J@	c #5E4C5F",
"K@	c #807682",
"L@	c #726673",
"M@	c #746373",
"N@	c #6C5D6B",
"O@	c #543D52",
"P@	c #594959",
"Q@	c #786B7A",
"R@	c #8A7F8B",
"S@	c #70616F",
"T@	c #7B6B77",
"U@	c #72646D",
"V@	c #6C5D68",
"W@	c #705D68",
"X@	c #6C5866",
"Y@	c #766774",
"Z@	c #5C495D",
"`@	c #726475",
" #	c #7D6F7D",
".#	c #887D8D",
"+#	c #8E818F",
"@#	c #796B78",
"##	c #73646F",
"$#	c #655661",
"%#	c #614E5F",
"&#	c #59465A",
"*#	c #594C5A",
"=#	c #5C4C5D",
"-#	c #706271",
";#	c #6C5A6E",
">#	c #5E5163",
",#	c #807685",
"'#	c #6A5663",
")#	c #4D3A45",
"!#	c #675864",
"~#	c #6A5D68",
"{#	c #705D6A",
"]#	c #7B6D75",
"^#	c #796B76",
"/#	c #7B6875",
"(#	c #827784",
"_#	c #6E626D",
":#	c #574654",
"<#	c #7B7177",
"[#	c #796A7C",
"}#	c #8A8193",
"|#	c #867B89",
"1#	c #72646F",
"2#	c #60515F",
"3#	c #605361",
"4#	c #61535F",
"5#	c #807380",
"6#	c #746675",
"7#	c #675866",
"8#	c #605364",
"9#	c #523D51",
"0#	c #7C6F7E",
"a#	c #847884",
"b#	c #7E717E",
"c#	c #746471",
"d#	c #6C5A66",
"e#	c #827682",
"f#	c #574357",
"g#	c #57475A",
"h#	c #827989",
"i#	c #887F8F",
"j#	c #7B6B7C",
"k#	c #6E5F6D",
"l#	c #7E7380",
"m#	c #524051",
"n#	c #594352",
"o#	c #635661",
"p#	c #847987",
"q#	c #786877",
"r#	c #7A6D7B",
"s#	c #60515E",
"t#	c #523A4E",
"u#	c #7B6D7C",
"v#	c #705D6D",
"w#	c #756471",
"x#	c #7B6D77",
"y#	c #887B89",
"z#	c #8C7F8F",
"A#	c #9C92A0",
"B#	c #827686",
"C#	c #72667A",
"D#	c #766A7C",
"E#	c #766A78",
"F#	c #655566",
"G#	c #827685",
"H#	c #70667A",
"I#	c #7F7487",
"J#	c #7F7687",
"K#	c #756979",
"L#	c #7E7182",
"M#	c #786C79",
"N#	c #5C4857",
"O#	c #726473",
"P#	c #746671",
"Q#	c #726675",
"R#	c #70616C",
"S#	c #594359",
"T#	c #5C4C5C",
"U#	c #524054",
"V#	c #4C3344",
"W#	c #796D78",
"X#	c #796673",
"Y#	c #786C77",
"Z#	c #72626F",
"`#	c #5E485C",
" $	c #544354",
".$	c #543D54",
"+$	c #59495D",
"@$	c #6A5D6C",
"#$	c #706175",
"$$	c #7B7086",
"%$	c #776B77",
"&$	c #614E61",
"*$	c #635663",
"=$	c #675A68",
"-$	c #7B717B",
";$	c #4F3D4E",
">$	c #4E404E",
",$	c #4D3D4E",
"'$	c #4F3D52",
")$	c #49364B",
"!$	c #463648",
"~$	c #463045",
"{$	c #726373",
"]$	c #543F54",
"^$	c #493644",
"/$	c #462F41",
"($	c #463344",
"_$	c #736371",
":$	c #605163",
"<$	c #65556A",
"[$	c #675B6A",
"}$	c #756B7C",
"|$	c #6E6171",
"1$	c #4F3D48",
"2$	c #493045",
"3$	c #493A4B",
"4$	c #4D3641",
"5$	c #57434E",
"6$	c #614E5A",
"7$	c #433041",
"8$	c #402D41",
"9$	c #75697A",
"0$	c #756B7A",
"a$	c #796B7A",
"b$	c #6C5F6C",
"c$	c #706674",
"d$	c #7B7282",
"e$	c #705D6C",
"f$	c #675B68",
"g$	c #857B89",
"h$	c #4E3A48",
"i$	c #57465A",
"j$	c #4D364E",
"k$	c #543A4B",
"l$	c #5E4C56",
"m$	c #4D3A4E",
"n$	c #574759",
"o$	c #3F213D",
"p$	c #433045",
"q$	c #3C253A",
"r$	c #40293E",
"s$	c #736471",
"t$	c #574351",
"u$	c #7D7485",
"v$	c #7B707E",
"w$	c #776978",
"x$	c #776975",
"y$	c #6E5B6A",
"z$	c #756D7E",
"A$	c #7D7484",
"B$	c #726471",
"C$	c #897F8B",
"D$	c #524052",
"E$	c #544057",
"F$	c #735F6A",
"G$	c #402D3A",
"H$	c #463044",
"I$	c #402D3E",
"J$	c #59485C",
"K$	c #5C4E61",
"L$	c #635366",
"M$	c #72667C",
"N$	c #74687C",
"O$	c #726678",
"P$	c #776B7B",
"Q$	c #6E6174",
"R$	c #796D80",
"S$	c #736476",
"T$	c #7E737F",
"U$	c #7B6E7C",
"V$	c #675361",
"W$	c #827885",
"X$	c #604E5A",
"Y$	c #65515D",
"Z$	c #5C4752",
"`$	c #46303E",
" %	c #3C2137",
".%	c #43283A",
"+%	c #432C3A",
"@%	c #70606D",
"#%	c #6C5F6E",
"$%	c #6A5D6D",
"%%	c #6A586A",
"&%	c #675A6D",
"*%	c #706174",
"=%	c #746674",
"-%	c #7D707E",
";%	c #756474",
">%	c #70647A",
",%	c #6A5F74",
"'%	c #6A5F6A",
")%	c #756676",
"!%	c #817684",
"~%	c #857882",
"{%	c #49364E",
"]%	c #4F4052",
"^%	c #594357",
"/%	c #938995",
"(%	c #573D54",
"_%	c #6C5F6F",
":%	c #65586A",
"<%	c #655668",
"[%	c #57475D",
"}%	c #5C4C59",
"|%	c #837C89",
"1%	c #7B6B78",
"2%	c #7F717E",
"3%	c #796B75",
"4%	c #897D8C",
"5%	c #5E4757",
"6%	c #604E59",
"7%	c #5E475A",
"8%	c #5C4859",
"9%	c #604B5C",
"0%	c #5C4352",
"a%	c #4C3045",
"b%	c #4C3341",
"c%	c #6C5D71",
"d%	c #706178",
"e%	c #6E6474",
"f%	c #5C465A",
"g%	c #594C5D",
"h%	c #5C485A",
"i%	c #8E8392",
"j%	c #7D747E",
"k%	c #6E5B66",
"l%	c #978C9A",
"m%	c #958B98",
"n%	c #958C97",
"o%	c #544554",
"p%	c #655163",
"q%	c #573F54",
"r%	c #432C3E",
"s%	c #5C485C",
"t%	c #72616F",
"u%	c #634E5D",
"v%	c #6C5D74",
"w%	c #615363",
"x%	c #574051",
"y%	c #7B7382",
"z%	c #827683",
"A%	c #7A707D",
"B%	c #8C7F91",
"C%	c #9A939F",
"D%	c #5E4E63",
"E%	c #5E5061",
"F%	c #43303E",
"G%	c #706475",
"H%	c #7B6D82",
"I%	c #817482",
"J%	c #7F7480",
"K%	c #57495D",
"L%	c #544751",
"M%	c #726676",
"N%	c #847C8B",
"O%	c #897D89",
"P%	c #432D3A",
"Q%	c #463341",
"R%	c #6E6178",
"S%	c #726B82",
"T%	c #7E7386",
"U%	c #867C8B",
"V%	c #807584",
"W%	c #827680",
"X%	c #827985",
"Y%	c #756978",
"Z%	c #6A5A6C",
"`%	c #605366",
" &	c #766879",
".&	c #888191",
"+&	c #807482",
"@&	c #847786",
"#&	c #7D7280",
"$&	c #7E737D",
"%&	c #46303A",
"&&	c #492D41",
"*&	c #635166",
"=&	c #675A6F",
"-&	c #6A586C",
";&	c #655166",
">&	c #847887",
",&	c #887F8D",
"'&	c #7F6F7E",
")&	c #7F707E",
"!&	c #7D6F82",
"~&	c #796B7E",
"{&	c #75687C",
"]&	c #776B7C",
"^&	c #897F8E",
"/&	c #6A5668",
"(&	c #746677",
"_&	c #8A8392",
":&	c #8E8191",
"<&	c #7B6A77",
"[&	c #796D7B",
"}&	c #4D3644",
"|&	c #4D3D4B",
"1&	c #5C4C57",
"2&	c #726377",
"3&	c #80798B",
"4&	c #8C818F",
"5&	c #7E7582",
"6&	c #73616F",
"7&	c #756476",
"8&	c #796B77",
"9&	c #6A5B63",
"0&	c #75646F",
"a&	c #807583",
"b&	c #807785",
"c&	c #70626D",
"d&	c #493A45",
"e&	c #746673",
"f&	c #5C4D61",
"g&	c #726474",
"h&	c #938895",
"i&	c #918A95",
"j&	c #766D7C",
"k&	c #867E8F",
"l&	c #827582",
"m&	c #82737E",
"n&	c #7C6D7C",
"o&	c #72616C",
"p&	c #736171",
"q&	c #847787",
"r&	c #796F7A",
"s&	c #725F6F",
"t&	c #675566",
"u&	c #7C7484",
"v&	c #796D7C",
"w&	c #756976",
"x&	c #736474",
"y&	c #5B4C59",
"z&	c #7C6F7C",
"A&	c #807481",
"B&	c #746B7A",
"C&	c #635368",
"D&	c #7E7388",
"E&	c #6E616F",
"F&	c #7D6F7F",
"G&	c #847A87",
"H&	c #8E8794",
"I&	c #A69CA8",
"J&	c #9E95A2",
"K&	c #938C9A",
"L&	c #938896",
"M&	c #8A7F8D",
"N&	c #807484",
"O&	c #7B6F7C",
"P&	c #796976",
"Q&	c #817480",
"R&	c #908592",
"S&	c #978A98",
"T&	c #796875",
"U&	c #756473",
"V&	c #6E5D6F",
"W&	c #756475",
"X&	c #807887",
"Y&	c #625061",
"Z&	c #736771",
"`&	c #786879",
" *	c #7A6F7C",
".*	c #7E727F",
"+*	c #7A6E81",
"@*	c #706476",
"#*	c #867B87",
"$*	c #9A959F",
"%*	c #918594",
"&*	c #918996",
"**	c #918A98",
"=*	c #887D89",
"-*	c #827787",
";*	c #7E7480",
">*	c #887C8B",
",*	c #938B96",
"'*	c #9C929F",
")*	c #9A8C9A",
"!*	c #9D939D",
"~*	c #9C929E",
"{*	c #958995",
"]*	c #706474",
"^*	c #705D6F",
"/*	c #796E7E",
"(*	c #614E5E",
"_*	c #6C5F74",
":*	c #6E6277",
"<*	c #6E6176",
"[*	c #6E5F6E",
"}*	c #675A6A",
"|*	c #523F54",
"1*	c #756774",
"2*	c #817886",
"3*	c #8A818B",
"4*	c #7B6F7D",
"5*	c #70646E",
"6*	c #7E6F7C",
"7*	c #8D858F",
"8*	c #A8A0AA",
"9*	c #B9B2BC",
"0*	c #A19BA5",
"a*	c #9A8E9F",
"b*	c #8E8391",
"c*	c #7E7382",
"d*	c #776974",
"e*	c #726674",
"f*	c #796B79",
"g*	c #776676",
"h*	c #614C5F",
"i*	c #6C5D6E",
"j*	c #6C6171",
"k*	c #67566A",
"l*	c #7B6D7E",
"m*	c #544654",
"n*	c #7B6D7A",
"o*	c #8A7E89",
"p*	c #817682",
"q*	c #796B7C",
"r*	c #65515C",
"s*	c #776B78",
"t*	c #958A96",
"u*	c #958B96",
"v*	c #847882",
"w*	c #7F6F7A",
"x*	c #807784",
"y*	c #7F7485",
"z*	c #827887",
"A*	c #7F7280",
"B*	c #847989",
"C*	c #8A7F8F",
"D*	c #746476",
"E*	c #766A74",
"F*	c #827882",
"G*	c #89818D",
"H*	c #7B7380",
"I*	c #8D8492",
"J*	c #99929B",
"K*	c #736774",
"L*	c #73646D",
"M*	c #887F88",
"N*	c #877D87",
"O*	c #8B828C",
"P*	c #958E97",
"Q*	c #978E99",
"R*	c #8F8692",
"S*	c #8D848D",
"T*	c #857D85",
"U*	c #80737D",
"V*	c #8D8692",
"W*	c #9A929B",
"X*	c #8D848E",
"Y*	c #877D89",
"Z*	c #898289",
"`*	c #8B8490",
" =	c #8D8490",
".=	c #938C97",
"+=	c #9C95A2",
"@=	c #958E99",
"#=	c #918894",
"$=	c #796D7A",
"%=	c #887F8C",
"&=	c #543F4E",
"*=	c #7C6F7A",
"==	c #867D87",
"-=	c #867D89",
";=	c #7B6B75",
">=	c #8F8591",
",=	c #958A98",
"'=	c #9C909B",
")=	c #887B85",
"!=	c #776671",
"~=	c #80727C",
"{=	c #8E7D8B",
"]=	c #8F818B",
"^=	c #A99CA4",
"/=	c #AC9EA7",
"(=	c #937F87",
"_=	c #7F6E78",
":=	c #837685",
"<=	c #70626E",
"[=	c #614E57",
"}=	c #5C4951",
"|=	c #63535E",
"1=	c #6E5A68",
"2=	c #705D66",
"3=	c #705F68",
"4=	c #77646F",
"5=	c #745F6A",
"6=	c #6C5663",
"7=	c #5E4952",
"8=	c #5C434E",
"9=	c #573D45",
"0=	c #573A48",
"a=	c #5E434B",
"b=	c #634C54",
"c=	c #82737B",
"d=	c #59495C",
"e=	c #776979",
"f=	c #776971",
"g=	c #7A6D7C",
"h=	c #80717B",
"i=	c #99909F",
"j=	c #A199A5",
"k=	c #90838D",
"l=	c #7D6B76",
"m=	c #7D707C",
"n=	c #7D6F7A",
"o=	c #75616C",
"p=	c #8A7682",
"q=	c #8F7D85",
"r=	c #84727E",
"s=	c #847684",
"t=	c #816F7A",
"u=	c #75616A",
"v=	c #705B68",
"w=	c #6A565F",
"x=	c #654E5A",
"y=	c #634E57",
"z=	c #604C5A",
"A=	c #634E5A",
"B=	c #725F6A",
"C=	c #72626A",
"D=	c #76616E",
"E=	c #6C5861",
"F=	c #725F68",
"G=	c #6E5863",
"H=	c #6C5661",
"I=	c #67535C",
"J=	c #614954",
"K=	c #5C434B",
"L=	c #54363E",
"M=	c #4F363E",
"N=	c #523641",
"O=	c #573A41",
"P=	c #796771",
"Q=	c #6E5F6C",
"R=	c #786B78",
"S=	c #7F717D",
"T=	c #928793",
"U=	c #867B85",
"V=	c #8C7D87",
"W=	c #8C7F8B",
"X=	c #7B6D78",
"Y=	c #776673",
"Z=	c #6E5A66",
"`=	c #79666F",
" -	c #867681",
".-	c #84747E",
"+-	c #82727E",
"@-	c #7B6971",
"#-	c #6C5B61",
"$-	c #70646D",
"%-	c #67565F",
"&-	c #63515A",
"*-	c #65515A",
"=-	c #6C5A63",
"--	c #6E5A63",
";-	c #675359",
">-	c #614C51",
",-	c #5E4752",
"'-	c #59404B",
")-	c #574048",
"!-	c #543A45",
"~-	c #523A3E",
"{-	c #796A71",
"]-	c #5E4C61",
"^-	c #605363",
"/-	c #67586F",
"(-	c #736271",
"_-	c #776976",
":-	c #776B7A",
"<-	c #7E727E",
"[-	c #726671",
"}-	c #8C818D",
"|-	c #8F8593",
"1-	c #7F747E",
"2-	c #74646A",
"3-	c #847480",
"4-	c #766876",
"5-	c #7E6F7A",
"6-	c #837682",
"7-	c #8A7A82",
"8-	c #7B646D",
"9-	c #79666C",
"0-	c #705D61",
"a-	c #67515D",
"b-	c #67515A",
"c-	c #67535D",
"d-	c #73616C",
"e-	c #604C57",
"f-	c #6A585F",
"g-	c #74636E",
"h-	c #796671",
"i-	c #634E59",
"j-	c #5C474E",
"k-	c #59474E",
"l-	c #57404B",
"m-	c #594751",
"n-	c #5C4851",
"o-	c #5E4C54",
"p-	c #4F404B",
"q-	c #5B4856",
"r-	c #61516A",
"s-	c #817884",
"t-	c #807684",
"u-	c #8C838D",
"v-	c #7F727E",
"w-	c #72616D",
"x-	c #80747E",
"y-	c #7E6D7B",
"z-	c #7D6B74",
"A-	c #806B75",
"B-	c #745D6A",
"C-	c #6E5861",
"D-	c #755D68",
"E-	c #705868",
"F-	c #675157",
"G-	c #614C54",
"H-	c #6C5361",
"I-	c #72646E",
"J-	c #77626E",
"K-	c #735F68",
"L-	c #827581",
"M-	c #827584",
"N-	c #634C57",
"O-	c #705A63",
"P-	c #5E4651",
"Q-	c #5E4654",
"R-	c #604857",
"S-	c #857682",
"T-	c #604E66",
"U-	c #7B6E79",
"V-	c #8A7D8B",
"W-	c #847B89",
"X-	c #908593",
"Y-	c #81727E",
"Z-	c #67515F",
"`-	c #79626D",
" ;	c #6C535C",
".;	c #6C535F",
"+;	c #725D68",
"@;	c #6C535E",
"#;	c #614754",
"$;	c #654E5F",
"%;	c #655159",
"&;	c #705A66",
"*;	c #654E5D",
"=;	c #745F6E",
"-;	c #5C4351",
";;	c #5E4754",
">;	c #6A5563",
",;	c #897B85",
"';	c #635566",
");	c #7D707A",
"!;	c #7B6E78",
"~;	c #776674",
"{;	c #887A85",
"];	c #867A86",
"^;	c #837885",
"/;	c #7E7381",
"(;	c #978C99",
"_;	c #807480",
":;	c #776875",
"<;	c #827380",
"[;	c #67535F",
"};	c #6A565D",
"|;	c #654E57",
"1;	c #776471",
"2;	c #5C464E",
"3;	c #5E474E",
"4;	c #67515E",
"5;	c #654E5C",
"6;	c #776873",
"7;	c #5C474B",
"8;	c #543D48",
"9;	c #5C4854",
"0;	c #897F89",
"a;	c #534354",
"b;	c #7D727C",
"c;	c #887B87",
"d;	c #958993",
"e;	c #887E8B",
"f;	c #7D7282",
"g;	c #7C6C7B",
"h;	c #9E97A4",
"i;	c #958996",
"j;	c #81727C",
"k;	c #786677",
"l;	c #6E5D66",
"m;	c #877882",
"n;	c #674E5A",
"o;	c #5C4651",
"p;	c #59434B",
"q;	c #594651",
"r;	c #523A41",
"s;	c #49333D",
"t;	c #4F3641",
"u;	c #524048",
"v;	c #877B85",
"w;	c #59485B",
"x;	c #7D6E7C",
"y;	c #7C717E",
"z;	c #938996",
"A;	c #837480",
"B;	c #726976",
"C;	c #61485A",
"D;	c #9A95A4",
"E;	c #988E9D",
"F;	c #7E7179",
"G;	c #847A89",
"H;	c #837686",
"I;	c #59404E",
"J;	c #573D4B",
"K;	c #5C4751",
"L;	c #4F3644",
"M;	c #4F3A44",
"N;	c #523F51",
"O;	c #6A5D71",
"P;	c #77697A",
"Q;	c #827684",
"R;	c #6E626C",
"S;	c #796876",
"T;	c #817885",
"U;	c #837A89",
"V;	c #786A79",
"W;	c #725D6A",
"X;	c #746974",
"Y;	c #6C5F68",
"Z;	c #63535C",
"`;	c #766976",
" >	c #6C5C6A",
".>	c #523D48",
"+>	c #574651",
"@>	c #4F3A45",
"#>	c #625361",
"$>	c #605368",
"%>	c #79707E",
"&>	c #756678",
"*>	c #70626C",
"=>	c #70626A",
"->	c #7B6975",
";>	c #8D828D",
">>	c #675060",
",>	c #766678",
"'>	c #746477",
")>	c #5C4656",
"!>	c #705B6A",
"~>	c #857B85",
"{>	c #5C4E63",
"]>	c #615666",
"^>	c #726275",
"/>	c #746676",
"(>	c #746875",
"_>	c #887E8D",
":>	c #766A79",
"<>	c #6E6274",
"[>	c #8F879B",
"}>	c #827480",
"|>	c #978C97",
"1>	c #492D3E",
"2>	c #614C59",
"3>	c #8E838D",
"4>	c #594C5F",
"5>	c #726478",
"6>	c #908796",
"7>	c #776878",
"8>	c #7D6F7C",
"9>	c #6A5F6F",
"0>	c #80778C",
"a>	c #978E9E",
"b>	c #7B6F7A",
"c>	c #735D6A",
"d>	c #8E838F",
"e>	c #958D98",
"f>	c #7C6E78",
"g>	c #776D7A",
"h>	c #786F7E",
"i>	c #847886",
"j>	c #908595",
"k>	c #67585F",
"l>	c #978E9F",
"m>	c #837680",
"n>	c #897D87",
"o>	c #543F51",
"p>	c #493040",
"q>	c #574751",
"r>	c #877D85",
"s>	c #918795",
"t>	c #9C949D",
"u>	c #867986",
"v>	c #76687A",
"w>	c #887D8B",
"x>	c #938998",
"y>	c #9E97A9",
"z>	c #847682",
"A>	c #7D6D7A",
"B>	c #735D68",
"C>	c #594653",
"D>	c #655563",
"E>	c #7C737B",
"F>	c #7C7381",
"G>	c #7E717B",
"H>	c #90838F",
"I>	c #524352",
"J>	c #8E8393",
"K>	c #756B75",
"L>	c #8D8391",
"M>	c #A097A8",
"N>	c #7B6E7A",
"O>	c #7D6B78",
"P>	c #8D828C",
"Q>	c #675861",
"R>	c #8C838F",
"S>	c #8E8593",
"T>	c #746473",
"U>	c #827B89",
"V>	c #9A92A3",
"W>	c #867885",
"X>	c #867C87",
"Y>	c #958A94",
"Z>	c #3C2132",
"`>	c #3C2537",
" ,	c #3F293E",
".,	c #432D41",
"+,	c #6A5661",
"@,	c #827580",
"#,	c #8E818D",
"$,	c #82737D",
"%,	c #7B717D",
"&,	c #847A85",
"*,	c #90858F",
"=,	c #4F404E",
"-,	c #7F7484",
";,	c #978B98",
">,	c #8E7F8F",
",,	c #91858F",
"',	c #402531",
"),	c #462D3A",
"!,	c #65565E",
"~,	c #675665",
"{,	c #6E626E",
"],	c #6F616E",
"^,	c #7F727C",
"/,	c #817680",
"(,	c #8E818B",
"_,	c #6C5B63",
":,	c #604E5D",
"<,	c #5C4856",
"[,	c #796A77",
"},	c #7F7682",
"|,	c #847781",
"1,	c #59464E",
"2,	c #766878",
"3,	c #7F7382",
"4,	c #8C7D8D",
"5,	c #8A7D87",
"6,	c #8E7F8B",
"7,	c #3F283D",
"8,	c #3F293A",
"9,	c #4D3D48",
"0,	c #7C7182",
"a,	c #7C7482",
"b,	c #827785",
"c,	c #807582",
"d,	c #938794",
"e,	c #867A82",
"f,	c #81717E",
"g,	c #75666F",
"h,	c #766A77",
"i,	c #827984",
"j,	c #796E7A",
"k,	c #7E6D79",
"l,	c #8F8596",
"m,	c #998E9B",
"n,	c #938894",
"o,	c #594659",
"p,	c #5E4E60",
"q,	c #6E5A6C",
"r,	c #70616A",
"s,	c #998E9C",
"t,	c #7E727C",
"u,	c #59485A",
"v,	c #807683",
"w,	c #604C59",
"x,	c #655868",
"y,	c #9A90A1",
"z,	c #9C939E",
"A,	c #4E3648",
"B,	c #7D6D77",
"C,	c #766871",
"D,	c #65515E",
"E,	c #918998",
"F,	c #706273",
"G,	c #7A717E",
"H,	c #736777",
"I,	c #605668",
"J,	c #6E5A6A",
"K,	c #77616C",
"L,	c #867785",
"M,	c #9A939D",
"N,	c #786D7A",
"O,	c #4C3A4E",
"P,	c #74646E",
"Q,	c #604D5C",
"R,	c #594854",
"S,	c #736678",
"T,	c #5B4957",
"U,	c #635561",
"V,	c #524354",
"W,	c #777083",
"X,	c #73697C",
"Y,	c #544754",
"Z,	c #725F6D",
"`,	c #7B6B76",
" '	c #635668",
".'	c #6C6477",
"+'	c #7D6F80",
"@'	c #776876",
"#'	c #4D3A52",
"$'	c #4F3A47",
"%'	c #5C4B5A",
"&'	c #6E6170",
"*'	c #5E5161",
"='	c #817686",
"-'	c #827A86",
";'	c #6A5D66",
">'	c #614C61",
",'	c #776271",
"''	c #43303D",
")'	c #605061",
"!'	c #6E5F73",
"~'	c #4C3648",
"{'	c #675568",
"]'	c #796F7C",
"^'	c #7B6978",
"/'	c #978A97",
"('	c #5E515E",
"_'	c #574652",
":'	c #5C4B5C",
"<'	c #978E9B",
"['	c #433341",
"}'	c #5B4B58",
"|'	c #635863",
"1'	c #544757",
"2'	c #5C495F",
"3'	c #5C4E5F",
"4'	c #887D87",
"5'	c #51404E",
"6'	c #746978",
"7'	c #4E3D4B",
"8'	c #756A77",
"9'	c #8C7F89",
"0'	c #524351",
"a'	c #69556A",
"b'	c #79697A",
"c'	c #867884",
"d'	c #958A97",
"e'	c #635563",
"f'	c #5E4E57",
"g'	c #796D7D",
"h'	c #857887",
"i'	c #8B7F89",
"j'	c #95909D",
"k'	c #938A95",
"l'	c #897F8C",
"m'	c #796D77",
"n'	c #766771",
"o'	c #8B818D",
"p'	c #8D828E",
"q'	c #918690",
"r'	c #8B828E",
"s'	c #89828C",
"t'	c #89828E",
"u'	c #877B87",
"v'	c #8D848F",
"w'	c #7E6D7A",
"x'	c #7B6A7B",
"y'	c #766A7B",
"z'	c #8D828F",
"  . + @ # $ % & * = - ; > , ' ) ! ~ { ] ^ / ( _ : < [ } & | 1 2 3 4 5 6 7 8 9 0 a b c d e f g h i _ j k l . m n b o p q r s e t ",
"u v w x y z A B C D E ] F G H I J K = L M < N s O P Q R S T U V W z 5 b X Y Z `  ...+.@.#.$.%.&.*.=.-.+.;.S c >.,.'.).!.5 . @.~.",
"{.].^.#./.(._.:.<.[.}.|.1.2.g 3.4.}.5.5.K 6.7._ O 8.: _ 9.0.a.b.c.d.e.f.g.h.i.j.k.l.m.n.^.o.: f p.f : q. .r.s.t.u.v.b 5  .w.x.y.",
"z.8 . A.B.  C.D.E.F.G.L J [ H.I.J.6.8.K.L.M.N.A.L.O.P.Q.R.S.T.U.V.v. .b  .$ W.X.v...Y.Z.f.l `.D  +3.l .+++@+#+$+%+&+*+*+=+-+;+y.",
">+,+'+O.)+!+~+{+#.]+^+}.~ 6.D D /+h = (+_+:+& m._ <+C.[+}+>.|+1+2+3+4+5+m 6+7+8+9+0+m a+b+c+d+$.e+f+g+h+i+j+k+l+m+e.n+o+p+q+r+y.",
"[+r.m.A.s+t+u+v+w+* %.%.Q D O.x+Q [ y+z+O.A+3 B+e.!.C+D+E+F+G+H+I+o+^.b 5 0 # J+K+L+W ).w+M+g+D D z+n.N+O+P+Q+%+R+S+#.. #.b B+T+",
"U+m S V+W+#.X+m Y+n.Z+: `+:  @O.%.%.]+`..@#.q +@s @@#@n+$@%@y &@*@. =@-@5 ;@>@,@'@%+)@!@~@. l Z+ @{@Z+j a ]@^@W /@(@_@4 +.:@+@<@",
"W (.[@S !.u }@m p j |@d+1@-.Z+2@n.3@4@5@6@P./@7@m.|@8@9@0@0@a@b@2@. r ^.c@v.d@e@f@g@h@q+i@j@k@*@j l@_ m@5 n@o@a p@m. .q.r . +.S.",
"q@r@w 0@r+o a+s@. +.@.-.R #.t@w m u@v@c 8@r 3@3@Z.n.2@ .w@o+x@y@z@r A@o B@g.C@D@E@F@G@a H@m I@r l 2@#.*@2@s@k.W $@Y.e.e.o $@J@K@",
"%+L@M@N@A@*@x+d+-.O@n.P@O.z Q@R@S@T@U@V@W@X@z a+p@2@. e.c m.)+Y@#.Z@J@@.+@w@`@ #.#+#@###$#A@!.%#a+&#*#+.=#b '.m !.5 x.V@-#;#>#,#",
"a@'#~@V+R z+)#f P n.o+e.l !#~#{#]#^#U@/#0.(#_#G+u w+$@#.#.#.:#<#e 7@B@r 8@+@m L+[#}#|#1#G+$@$#e.2#@.Z+<.:#A 3#0 a ##v.a ;@4#Z.5#",
"t@6#0 &#z+= [ %.d+b+7#8#9#* S y 0#S@X@)@@#a.a#b#c#d#t@t@b 9+e.e#_ f#g#B@o c+A@c -@h#i#j#k#r+C@l#w.!+l m#Z+n#o#0#p#q#%+w v.e.r l#",
"c r#s#f+%.O N 7.7.t#*.D %.: 3@w u#G@v#w#x#y#z#A#B#>@'@C#D#E#F#G#d 7@d+d J@m@o %#b H#I#J## K#d@L#M#8@e e g#N#d.O#P#%+L+Q#R#L@c 5#",
"S#T#3@O.`+m#:@U#U#3.J F V#&.B |+W#X#Y#Z#0@i@0@$ ;@=@`#_  $.$U#;++$Z@o.@.d c+o %#^.@$#$i.$$%$S@m+W o+r Z@6@&$*$m ..=$0+V@a w.!.-$",
":+x@;$>$*.K ,$'$)$!$~$K `+`.p@d@{$W q o+r l@Z+_ ]$d+*.^$3./$($_$g+Z@:$j@Z@J@=@<$B@c.5+[$B+}$>.R#|$+ a+o+s@t.B+v.7#L+v 0 G+0 ;@l#",
"1$`+f F 2$1$Z+,$3$)$5.4$D 5$l.m 6$r Z.#.s+t#z+m#f+`+ +7$~ 7$8$` N n.A@c.@.. *@=@d.a+%#J@e.i.9$0$a$S@7#L+b$c$d$@#e$&+f$w $@c 5+g$",
"h$`+h V#g M i$@@j$7.*.)$k$l$y !.;.#@V+A.6.%.m$<.n$5.&.o$p$q$r$s$t$a+s@7#&$=@r r 5 =@&$a+o Y u$8+v$w$x$6#y$E+z$A$B$w@|+V@c n+b C$",
"p.D$: &.g m$$.E${@;$K D n#$@F$%+@.B e z+*.O G$H$f 8$($7$, I$r$_$D$J$q.w@s@e.c.K$c.L$A@T#%#e.M$N$O$,@'@P$-+9 Q$R$S$q+T$U$V@V$e.W$",
"f `+t#$.h %.O.,$6.d+Z+Z+X$X@O#;@Y$R+Z$_+_+(+f  +h I `$ %.%+%H @%f#j T##%$%%%^.e.c.e.%#c.m@p o s@&%*%=%w#-%;%>%,%v.'%)%!%x$h@;@~%",
"{%K z+;$$.4.4.&.]% $^%3@m F@/%0@a+!+(%z+`.* -.V#(+G ] , , p$~$Y@U#j *@s@O#_%h.:%<%x o J@=#Z@+.[%}%*+@$6#|%1%V@e.c s@h.j.U$2%3%4%",
"E d+x+d+;$&.] g E O D R V$y#y#_#Y$5%6%7%8%9%_ 0%$.z+a%b%I `$= y@D$*@:@j@g.5 ;@c%d%e% .c+f%o.g%$.f#h%3+Q#i%j%k%c A@u t@|+l#l%m%n%",
"o%p%s@N q%&.`$r%&.*.p.D s%;@S@s$I@A . L+>.-#t%9+t@u%@.N.%.P D -$O@d +$m@J@_@5 $%0$6+v%w%n.D$N x+m#x%Z@4+y%z%R#W 0 5+m W R#A%B%C%",
"D%E%d :@=.&.F%g p.m$D$ @R .  .5+b <%s@G%H%I%J%x$q+u#'@7#:#<.p e#g+^%K%@.#@q.o {.V.7#<%:%&$@@L%f+7.d+/.a+M%N%1%%+w@%+V@0 w v ~#O%",
"-.f+]%x+D 4.P%Q%f D D$-.7@n.a+b R%S%c%G%T%U%R@V%W%X%Y%>.s@b O#C$. %#r d f#j 2@T#A 5+ .Z%*+`% $: -.<+:#r x  &.&+&@&#&q+L+0 Y.r $&",
"`+p.6. $O g %&&&f D$x+ $Z.6@&$*&=&*+-&;&B$>&,&'&)&!&~&X.{&]&M%^&/&v 2#A . a+@.Z@2#!.(&9$K#B+o N f+T#s _ c+|+_&:&(#<&=$).p l n.[&",
"p.e+}&`+$.f+z+|&Z+3@1&z =#=@:@>#q %#a+Y.2&3&4&5&6&V@w.L+7&K#q+W$8&Z#{.9&y /&$#A@c y 0&N%a&S@s@&$j d :@. r ;@b&}#'&c&m _@:#x+@@Y@",
"d&%.%.d+#.p@1&c W e&-@o `%f&^%s+: 7@q.p%V@g&h&i&q+9 f.V@j&$%5+S.k&0.0.l&m&n&v+o&,+a p&q&0.r&s&t&d.a@$@&$e.7#r.u&v&w&5 S <.;$)$x&",
"x+-.y&m V@z&A&a&>&B&b C&=@j ;$t# @f+Z.o ,+-#D&# E&9 d.<%V.5 A@~.F&G&H&I&J&K&L&M&N&O&P&Q&R&S&Q+T@T&U&0@w.V&k#a &+W&X&k.Y&-.f+*.Z&",
"l . $@`& *.*+*j.@*v.0 g.N#O.D  @]+-.R #.^.%%V@V&t@m u 4 o++@-.[&V@c##*$*%*&***=*0.-*;*>*,*'*)*!*~*{*0#s$S@L@]*^*E&/*w@(*:#*.5.` ",
"3 %#o+w 0  .]*8 _*:*<*&$d $.-.%.@@@@3@#.V$V@[*}* .B+9 d D$|*`+1*v H@P&2*3*|#>&4*)%5*0@O#6*7*8*9*0*a*b*c*d*j.e*f*'@g*w@5++.d+p.x&",
"c+b 7#h*c+7#i*j*k**+f.m l |@$.x+<.J@#.!.H@l*,@g.'.;&m*D p.&.4.s$y h@n*W%o*W$p*q*` v r*w s*#*t*u*v*w*x*y*z*A*B*C*C*J%Y%D*).l : E*",
"l#W$F*-$5#,#K@K@W$W$5#G*G#<#[&-$H*~%y.W$I*J*I*W$t -$K*K*K*L*K*M*N*O*n%P*Q*Q*R*S*O*T*U*5#N*V*W*P*X*Y*Z*I*I*`* =.=+=@=b.#=N*y.$=%=",
"D$p. +)#}&g#&=)#@@#.7#g&*===-=;=V@w B$l#>=,=J&'=)=!=o&n*1#'#u U*~={=]=^=/=(=_=-%:=<='#[=/@W+}=|=1=2=3=2=4=5=!=H@6=7=8=9=0=a=b=c=",
"_ f+O `+'$e ;$z+*.d=5 S@e=f=g=R@h=<=L+s$a#i=j=2 k=l=P&m=n=0@).U*o=G@4=p=q=r=s=t=u=v=w=x=y=z=A=B=F$C=D=E=F=G=H=I=J=K=L=M=N=O=L=P=",
"k z@%.=.O.N D *.: :@^.Q=##h.b$R=e#)=g@r.S=T=]=U=V=W=X=J+B%Y=% 5#Z=`= -.-+-@-5=W@#-)@0@$-0@%-[=&-*-=-2==---;->-,-'-)-M=)-!-N=~-{-",
"+.]- $f+P@e D 5. $^-/-V@(-_-:-S@V@o&<-@#[-}-|-1-2-l&3-#&4&4-..h=5-6-7-8-9-0-a-b-c-0@3%P#d-r@A=e-6$b-f-g-h-i-Z$j-k-l-l-n#m-n-o-x#",
"o+<. $p-q.t%q-f+;$r-:%{.d*m=s-t-c&w ,+W#w#t u-v-W@w-W%m=x-v#a+y-z-A-B-C-D-E-F-G-H-I-J-K-L-M-%-4 N-6$C-H@O-y=8=P-8@Q-8@R-Q-_.B$S-",
"!.$.N D P@@#n*e.^%T-s@$ U-G#V-W-,@B$w y Z#d*0.X-8&G@e#Y-n*1=Z-h=`-C- ;.;+;F@@;#;z $;%;x=G=&;*-*;Y$Z-v=)@=;N--;S+..0%;;m.-;>;z&,;",
"p N#`+*.%.';);!;m+~;m=W%{;W=];u#,@^;[-$@D+9 /;(;_;:;6*M&<;W@[;5#};b-|;%-&;1;6$m.2;l-j-3;t+&-E=4;6$R+5;d#6;r*7;)+'-8;7@Z$9;m !=0;",
"5 l @@`+`+a;w@b;e=);~;$=c;d;e;_;v$f;a$).Y.4#g;h;i;w#_#].j;k;l;m;b-n;G+a y [=o;p;)+q;-;l.y 1=w.(.s+;.o-w+A=S+8;r;s;t;]+u;e-0@{#v;",
"F#S <.R K : w;g&x;g&7#h@y;z;++A;I%B#B;&+C;%#%+D;E;F;h@e&G;H;R=O%1=w@6=A=Z$I;l-n#0%w+  A='#9@!+)+J;]+B.;.K;)+!-L;= 4$M;J;#.'#{#N*",
"$@r +@7#N;5. $O;P;#&L+s@0@0#Q;R;S;T;U;5#B$e.$@V;M&J%W;k.X;A*1;0;Y;k#1=w+J;Z+-.B Z;`; >2##.s+|@R x+.>+>%#5@)+:+.>D @>.>3@a@'.b$Y*",
"5+z ~+K@#>%.m#$>*+%>&>f.5 a q+x $@*>F@%*4&%+t@w.D+B*[+=>T F$->;>A 2@>><+.>8.]+7@t@,>'>. x%]+_+@@)>t$<.2@2@S n#* -. $h%c i@$ !>~>",
"b o 0@Y--#$.7.{>]>^>s$/>5+5+n (>w )@m+T%_>:>&+<>s$[>:&_;w#H@}>|>`.-._+%.1>%&F k$;.8@2#+.P f f+c q-P 5$B 1&2>n.n#w+h*e.L+a h@L+&@",
"w@w P#3>$ x+;$4>D%$ B$5>8 f.T@6>7>R#,+B$!%8>>.9>h.0>a>>&b>c>0& =k$.>P E  ++%Q%@>f+Z+^%5$ @%.z+W+ @f+.>d . 0@w 5+7#-#j.E&v.{.0@N*",
"_*:-d>e>f><.P N d t@s*g>:-h>i>j>c*Q=k>m q+# 8>e&g.F&l>|-m>S@Z=n>D x+o> +H P%%&p>.>q>& = )#f D -.z+O.z+m.. u 0 {#h@w&>.v v G+>.r>",
"4+f;s>t>u>/.x+D$f#:#W g*d*v>e#M&p#1#y u%h@:-w>0.$+,@x>y>z>A>B>n>K = O &.($`$] `$f C>:+f f *.}&)#x+$.q;@.D>9+E>F>H@L+&+=$$#$#6%G>",
"=$4*H>~*=+p I>d+e x+#.,+;@0+$=J>G&K>Q.l.9.1#,@L>c;A*x>M>}-N>O>P>, F%Q%&.f h ~$F%f g+)>z+.>p.P : 5$. _@Q>W-R>S>d>6#)@V@t.% #.V+-$",
"0 _;,&b*0@l x+N _ : )+A@7#o+-#$+,@A*V@Y.7#a T>U>%*+&e#m%V>W>X>Y>Z>`> ,I$.,g `$] E %.Z+-.O.5$n.m.@.a@+,9+@,#,/%$,)@t@{.v a+5$n.%,",
"-#&,*,U=$#=,p.*.x+;$O.l o++.@.b g&K@-#(...t@W Q#-,N&A*w>;,>,,,J*',, ; ),g g  +E &.`._@!,a@~,{,],)@U+^,Q;/,(,l&l+_,{.w :,w+<,j [,",
"v$},M&|,9@1,`+3.D$,$%.|@T#_ 3 ;@@$2,3,V@).. 2@z !@]&v-4,5,a.6,|>7,8,)$~$4.5.*.9,-._ :%0,a,b,c,-+_;}->=d,e,f,g,r.%+0+n+_@d.j D$h,",
"r.e*5,i,!@1& @%.*.O 5.`+O@e  ._*7#w@j,a 4 n#V+2@!.b >.k,^#l,m,n,7$g D 7.o,p,5 L$g.&+q,c&9+!@r,0&##}-s,l%#,t,!=c&m . J@_ g+u,f#h,",
"0+m+$=v,a w,D$D 3.p.`+P `+_ N+6+L$x,v.x A@a+9;#.a+u p%G+o=D@y,z,A,;$l q g&w@t@7#9@r l@m.;.. n@$ Z#b,B,C,|+w % . l@& 7@t$@@: *.E*",
"w L+:-P;w.9;Z+ @E &.[ &.f+N q.>%<*5 ;&e.;&e.. e.D,a+c t@o@1%E,z,q.f.F,G,w>n@(*3@Z+Z+f+]+z+#.6$V@s*s$G+% 6$n+. q.O.$.x+d+ @*.`+H,",
"5+V@x&a$ .z=o.z+D 2$4.&.*.x+d *+[$I,c.5+Q=,+;@J,0@v _.o+G+K,L,M,-,g;` Q=;@8@$.f+z+ @%.`+z+Z+|=O#N,9@S n.+.s#f.m x% @'$;$;$5.*.Y@",
"w@g.-+c$v.R+1&t#: %.*.}&D O,Z+#.d n.l.#.r e.L+Q#w#a !@V$v P,e#'*Q,*#@.o+5 R,g+: .>;$:+z+o.T#-@S,w.T,7@t$U,t&@.l@;$`+V,: D$*.p.K*",
"W,X,g&g*f*9+u N#<.]+: p.*.;$Y,N |@O.O@<.3@/.a@ .,+W y v &+Z,`,t*%.D  @f+|@ $k : p-<.s%z@8%b w@@$$@& O.;$$.%.D p.`+:  $$. $`+5.;+",
" '.'h.:-+'@'t%% . q;: z+%.#'D$P@R,5.:+ $`.f+;.p@!.A !.e.+,X@~;n,`$ +g  +f $'%'x+1$. B$&'{.. 5+ .#.R z+D [ D ;$:  $ $*'c+ $P K ` ",
"l +.5+G%='-'t%;'4 >'+.O.D$7.x+Z+O L;D -._+O -.1&..%#e.V$0 G=,'b..,''`$, &.z+: ]+O.6@-#&>o+7@)'!')>: *.O ~' @7./.`%{'3 s D e+O H,",
"Z+Z+#.s@]'R>z&d#a@w+p N#Z+ $ $N -. @t#f+O :+* n.a+a+c.v V@J,^'/'G Q%g  +F%)#f+Z+('b %+D>X$_'@.. e : 5.;$f+:'5 +@+.e e 7.%.K &.K*",
"s+z+s+4 {,i>1-o&o+/@s+n.o.A+d j <.;$ @: z+ @R #.z 2#).g&P&A>v-<'['F g M (+t#}'=$b |'6$. ;;3@l.l@d+A+1'2'3'e Z+-.`+P f+%.4.K p.Z&",
"o.-.]+n.G+p#4'_-h@/@)+x+O.7.5'o.@@7.D$7. @t#Z+#.!.x Q=6'!%I%A;|>3.`+7'f+_ w%*+j.Q=m r m.T,a+%#h*d.:@s 7@|@P D `+= f f+%.*.*.2.8'",
"+.@@z+. w ].9');0@2>Z+:+O  @-.7.<.-.D$;$D 0'q;=#a'5+q#A>b'm=c'd'@@e'e.&%s@s@W 0 W z=l@m.f'b 7#0 A@s%<.=,p.4.D p.1$-.o.f+ @N Y,g'",
"%,-$-$5#h'i'j'k'l'U*m'n'K*E*h,[&[&m'h,y@h,[,b@$&y.y.~>o'O*p'q'z,G#r's't'u'F*U*y.G>G>b@<#S.v'O%e#w'b@h,L*K*s$m'E*[,~.S.x'y'%,b@z'"};
