/* XPM */
static char * Screenshot From 2026_04_22 20_50_18_xpm[] = {
"210 146 17884 3",
"   	c #050004",
".  	c #0C0209",
"+  	c #150C13",
"@  	c #211721",
"#  	c #2B212C",
"$  	c #2A202D",
"%  	c #201521",
"&  	c #10060F",
"*  	c #040000",
"=  	c #0D0201",
"-  	c #3A2D26",
";  	c #786C60",
">  	c #55524A",
",  	c #000000",
"'  	c #2C312D",
")  	c #BEC4C0",
"!  	c #686B6B",
"~  	c #5B435B",
"{  	c #3F263F",
"]  	c #0E0012",
"^  	c #441B35",
"/  	c #18010F",
"(  	c #4A2F3C",
"_  	c #30121E",
":  	c #583C47",
"<  	c #3D2029",
"[  	c #502D38",
"}  	c #4E2B2B",
"|  	c #5B3B2E",
"1  	c #5D3B2D",
"2  	c #552D22",
"3  	c #511F1F",
"4  	c #4E121C",
"5  	c #490B1D",
"6  	c #42091E",
"7  	c #320018",
"8  	c #31031C",
"9  	c #30031A",
"0  	c #33061A",
"a  	c #310518",
"b  	c #30061A",
"c  	c #2F081B",
"d  	c #2A0715",
"e  	c #391922",
"f  	c #2F1114",
"g  	c #412628",
"h  	c #2D1616",
"i  	c #432E2D",
"j  	c #2A1716",
"k  	c #483635",
"l  	c #1E0D0D",
"m  	c #4F3E3D",
"n  	c #140404",
"o  	c #4E3D3D",
"p  	c #291818",
"q  	c #2D1516",
"r  	c #4E4541",
"s  	c #060000",
"t  	c #47292F",
"u  	c #3F2A30",
"v  	c #421C29",
"w  	c #45192B",
"x  	c #000005",
"y  	c #1B061A",
"z  	c #3D1532",
"A  	c #150613",
"B  	c #0A0007",
"C  	c #270521",
"D  	c #3B1236",
"E  	c #1E091C",
"F  	c #010000",
"G  	c #110209",
"H  	c #3F1832",
"I  	c #531E42",
"J  	c #301127",
"K  	c #000002",
"L  	c #1B0816",
"M  	c #4E243F",
"N  	c #562743",
"O  	c #4E2840",
"P  	c #210C17",
"Q  	c #000202",
"R  	c #230F1C",
"S  	c #562942",
"T  	c #5B2747",
"U  	c #582646",
"V  	c #562D49",
"W  	c #33192C",
"X  	c #080008",
"Y  	c #000001",
"Z  	c #010201",
"`  	c #000101",
" . 	c #030006",
".. 	c #251129",
"+. 	c #4C2D51",
"@. 	c #512B5B",
"#. 	c #4D275C",
"$. 	c #4B295E",
"%. 	c #4D3160",
"&. 	c #3C274E",
"*. 	c #0F081E",
"=. 	c #010102",
"-. 	c #000200",
";. 	c #040218",
">. 	c #2A2449",
",. 	c #413A68",
"'. 	c #40376E",
"). 	c #3E376F",
"!. 	c #3E3772",
"~. 	c #3D3A75",
"{. 	c #413F71",
"]. 	c #1D1E3E",
"^. 	c #000009",
"/. 	c #010200",
"(. 	c #000100",
"_. 	c #00010E",
":. 	c #202B47",
"<. 	c #37496C",
"[. 	c #2E446A",
"}. 	c #2C436D",
"|. 	c #2E4169",
"1. 	c #2D3E62",
"2. 	c #2F3F67",
"3. 	c #283752",
"4. 	c #050B15",
"5. 	c #010103",
"6. 	c #030000",
"7. 	c #000006",
"8. 	c #141723",
"9. 	c #20253A",
"0. 	c #1B1E36",
"a. 	c #1B1D34",
"b. 	c #1C1B32",
"c. 	c #1D1930",
"d. 	c #1E1A2F",
"e. 	c #151221",
"f. 	c #010007",
"g. 	c #000004",
"h. 	c #140F1B",
"i. 	c #1F1427",
"j. 	c #201228",
"k. 	c #201427",
"l. 	c #211228",
"m. 	c #221427",
"n. 	c #0F0812",
"o. 	c #030005",
"p. 	c #1C1020",
"q. 	c #24142A",
"r. 	c #231227",
"s. 	c #231727",
"t. 	c #19131C",
"u. 	c #020004",
"v. 	c #16151B",
"w. 	c #292831",
"x. 	c #282831",
"y. 	c #2C2B35",
"z. 	c #15131C",
"A. 	c #010001",
"B. 	c #10080F",
"C. 	c #231827",
"D. 	c #201425",
"E. 	c #1F1524",
"F. 	c #0B050F",
"G. 	c #010203",
"H. 	c #141124",
"I. 	c #1A152F",
"J. 	c #1A1630",
"K. 	c #0F0B22",
"L. 	c #010006",
"M. 	c #010002",
"N. 	c #010008",
"O. 	c #0D0818",
"P. 	c #191128",
"Q. 	c #1A1328",
"R. 	c #100E18",
"S. 	c #020109",
"T. 	c #030107",
"U. 	c #1F1D23",
"V. 	c #2D222B",
"W. 	c #1F131C",
"X. 	c #0D040B",
"Y. 	c #040003",
"Z. 	c #050106",
"`. 	c #120E13",
" + 	c #251D25",
".+ 	c #2E212D",
"++ 	c #221622",
"@+ 	c #0D030C",
"#+ 	c #020000",
"$+ 	c #1D1511",
"%+ 	c #6B6054",
"&+ 	c #6B665B",
"*+ 	c #030400",
"=+ 	c #262C27",
"-+ 	c #C0C6C2",
";+ 	c #4E5156",
">+ 	c #06000D",
",+ 	c #614C67",
"'+ 	c #27112A",
")+ 	c #2A0920",
"!+ 	c #34132A",
"~+ 	c #280D1B",
"{+ 	c #472A37",
"]+ 	c #382027",
"^+ 	c #533642",
"/+ 	c #442236",
"(+ 	c #4A252F",
"_+ 	c #5E3A2F",
":+ 	c #593626",
"<+ 	c #5F3A2A",
"[+ 	c #4E231E",
"}+ 	c #4D191E",
"|+ 	c #4D0F1E",
"1+ 	c #450A1E",
"2+ 	c #39051E",
"3+ 	c #31031E",
"4+ 	c #2E001C",
"5+ 	c #32051B",
"6+ 	c #310517",
"7+ 	c #31061B",
"8+ 	c #2D0619",
"9+ 	c #2D0918",
"0+ 	c #35141D",
"a+ 	c #321417",
"b+ 	c #432628",
"c+ 	c #2E1415",
"d+ 	c #493231",
"e+ 	c #251110",
"f+ 	c #473434",
"g+ 	c #1F1011",
"h+ 	c #3E2E2F",
"i+ 	c #312122",
"j+ 	c #251416",
"k+ 	c #504041",
"l+ 	c #080000",
"m+ 	c #4C3C3C",
"n+ 	c #332323",
"o+ 	c #0F0405",
"p+ 	c #544142",
"q+ 	c #200F16",
"r+ 	c #11020C",
"s+ 	c #51293A",
"t+ 	c #280F1B",
"u+ 	c #000003",
"v+ 	c #2F0D26",
"w+ 	c #3A1432",
"x+ 	c #0C0107",
"y+ 	c #080006",
"z+ 	c #2E0C2B",
"A+ 	c #3C1333",
"B+ 	c #1B0412",
"C+ 	c #441C34",
"D+ 	c #4F213B",
"E+ 	c #270F20",
"F+ 	c #210918",
"G+ 	c #4E263E",
"H+ 	c #552640",
"I+ 	c #51283E",
"J+ 	c #230E1B",
"K+ 	c #010301",
"L+ 	c #1B0C15",
"M+ 	c #4A273E",
"N+ 	c #562948",
"O+ 	c #542449",
"P+ 	c #562B4E",
"Q+ 	c #3F1F3B",
"R+ 	c #11030F",
"S+ 	c #160918",
"T+ 	c #3F2448",
"U+ 	c #4E2D5E",
"V+ 	c #492660",
"W+ 	c #492763",
"X+ 	c #4C2F64",
"Y+ 	c #402D58",
"Z+ 	c #18112E",
"`+ 	c #00000A",
" @ 	c #000102",
".@ 	c #010003",
"+@ 	c #01000D",
"@@ 	c #211E3E",
"#@ 	c #3B3A69",
"$@ 	c #38396D",
"%@ 	c #383A6E",
"&@ 	c #373B6F",
"*@ 	c #373E74",
"=@ 	c #3A4270",
"-@ 	c #1F2442",
";@ 	c #00000F",
">@ 	c #000103",
",@ 	c #00020D",
"'@ 	c #212943",
")@ 	c #324465",
"!@ 	c #284067",
"~@ 	c #293F67",
"{@ 	c #2B3C61",
"]@ 	c #243C5D",
"^@ 	c #2A3E5E",
"/@ 	c #222A45",
"(@ 	c #030312",
"_@ 	c #02040B",
":@ 	c #1A1D30",
"<@ 	c #1D1F35",
"[@ 	c #1C1B31",
"}@ 	c #1C182F",
"|@ 	c #1D1730",
"1@ 	c #1E162F",
"2@ 	c #1B1527",
"3@ 	c #07040E",
"4@ 	c #120E1A",
"5@ 	c #1E1326",
"6@ 	c #1E1125",
"7@ 	c #1E1325",
"8@ 	c #201125",
"9@ 	c #201224",
"0@ 	c #0C050E",
"a@ 	c #0A050C",
"b@ 	c #221527",
"c@ 	c #24122B",
"d@ 	c #24132A",
"e@ 	c #211826",
"f@ 	c #0E0C12",
"g@ 	c #050707",
"h@ 	c #26262D",
"i@ 	c #282832",
"j@ 	c #2B2B33",
"k@ 	c #232429",
"l@ 	c #030306",
"m@ 	c #050109",
"n@ 	c #1F1323",
"o@ 	c #221328",
"p@ 	c #201326",
"q@ 	c #120B19",
"r@ 	c #0F0C1D",
"s@ 	c #1A162E",
"t@ 	c #120F22",
"u@ 	c #010009",
"v@ 	c #010004",
"w@ 	c #0C0616",
"x@ 	c #181026",
"y@ 	c #1E132B",
"z@ 	c #140D1D",
"A@ 	c #020206",
"B@ 	c #1C1A21",
"C@ 	c #39383E",
"D@ 	c #2A222A",
"E@ 	c #382F37",
"F@ 	c #3E343D",
"G@ 	c #322A31",
"H@ 	c #1B141A",
"I@ 	c #060004",
"J@ 	c #140A11",
"K@ 	c #281C29",
"L@ 	c #2C202E",
"M@ 	c #190F1B",
"N@ 	c #050002",
"O@ 	c #110701",
"P@ 	c #60574C",
"Q@ 	c #6E6C5D",
"R@ 	c #020300",
"S@ 	c #363C3A",
"T@ 	c #BEC0C6",
"U@ 	c #252932",
"V@ 	c #201529",
"W@ 	c #613E5F",
"X@ 	c #140012",
"Y@ 	c #3B162E",
"Z@ 	c #250418",
"`@ 	c #442735",
" # 	c #2F171F",
".# 	c #533942",
"+# 	c #3E2133",
"@# 	c #4F2A38",
"## 	c #512C28",
"$# 	c #5B3729",
"%# 	c #613C29",
"&# 	c #51291F",
"*# 	c #4E2122",
"=# 	c #4D0F1C",
"-# 	c #470B1D",
";# 	c #3E0920",
"># 	c #35041F",
",# 	c #30021E",
"'# 	c #2F031B",
")# 	c #300518",
"!# 	c #2F041A",
"~# 	c #2C0418",
"{# 	c #300C1C",
"]# 	c #2D0B15",
"^# 	c #3D1D23",
"/# 	c #321719",
"(# 	c #422626",
"_# 	c #2E1D1A",
":# 	c #3E2A29",
"<# 	c #271818",
"[# 	c #423232",
"}# 	c #1B0D0C",
"|# 	c #4E3E3F",
"1# 	c #100202",
"2# 	c #463A39",
"3# 	c #241F1D",
"4# 	c #220F10",
"5# 	c #5B4647",
"6# 	c #080302",
"7# 	c #2F2221",
"8# 	c #53383F",
"9# 	c #070002",
"0# 	c #29151E",
"a# 	c #54293B",
"b# 	c #14030C",
"c# 	c #0B010C",
"d# 	c #3F1434",
"e# 	c #29121E",
"f# 	c #0F0213",
"g# 	c #3A102F",
"h# 	c #3A122C",
"i# 	c #0C020E",
"j# 	c #1D0A13",
"k# 	c #481E35",
"l# 	c #4D2140",
"m# 	c #1D1017",
"n# 	c #050001",
"o# 	c #200A17",
"p# 	c #50263B",
"q# 	c #562542",
"r# 	c #512844",
"s# 	c #27111D",
"t# 	c #130510",
"u# 	c #3F2238",
"v# 	c #532B4B",
"w# 	c #53234A",
"x# 	c #582852",
"y# 	c #482548",
"z# 	c #190A1B",
"A# 	c #000400",
"B# 	c #010501",
"C# 	c #0C0213",
"D# 	c #321C42",
"E# 	c #4B2C64",
"F# 	c #492767",
"G# 	c #472664",
"H# 	c #462C65",
"I# 	c #443263",
"J# 	c #241839",
"K# 	c #010105",
"L# 	c #020100",
"M# 	c #131534",
"N# 	c #363967",
"O# 	c #383B70",
"P# 	c #353A6F",
"Q# 	c #333C72",
"R# 	c #343E70",
"S# 	c #3A446D",
"T# 	c #202646",
"U# 	c #00010A",
"V# 	c #030002",
"W# 	c #020001",
"X# 	c #212A47",
"Y# 	c #2F3F66",
"Z# 	c #263A63",
"`# 	c #253B5E",
" $ 	c #213A58",
".$ 	c #213556",
"+$ 	c #283355",
"@$ 	c #191E35",
"#$ 	c #000007",
"$$ 	c #0C0D1B",
"%$ 	c #1D1C31",
"&$ 	c #1C1931",
"*$ 	c #1C1530",
"=$ 	c #1E152E",
"-$ 	c #1D132C",
";$ 	c #1D162A",
">$ 	c #0C0911",
",$ 	c #130C19",
"'$ 	c #1F1227",
")$ 	c #1F1126",
"!$ 	c #201226",
"~$ 	c #1E1124",
"{$ 	c #06010A",
"]$ 	c #130D16",
"^$ 	c #241529",
"/$ 	c #24112B",
"($ 	c #231429",
"_$ 	c #1D1521",
":$ 	c #030206",
"<$ 	c #18191A",
"[$ 	c #2D2D35",
"}$ 	c #2A2934",
"|$ 	c #2C2B34",
"1$ 	c #0E0F12",
"2$ 	c #140B19",
"3$ 	c #201227",
"4$ 	c #1F1129",
"5$ 	c #180D1E",
"6$ 	c #040008",
"7$ 	c #090A16",
"8$ 	c #19152D",
"9$ 	c #19152C",
"0$ 	c #131021",
"a$ 	c #030209",
"b$ 	c #030003",
"c$ 	c #0B0511",
"d$ 	c #1A1226",
"e$ 	c #1D142B",
"f$ 	c #150C20",
"g$ 	c #06010C",
"h$ 	c #1D1C21",
"i$ 	c #3E3D43",
"j$ 	c #3F3E44",
"k$ 	c #020002",
"l$ 	c #120D13",
"m$ 	c #2C242C",
"n$ 	c #3F343E",
"o$ 	c #3C303C",
"p$ 	c #1F161E",
"q$ 	c #060002",
"r$ 	c #1D111C",
"s$ 	c #312132",
"t$ 	c #241427",
"u$ 	c #070008",
"v$ 	c #090300",
"w$ 	c #655D4C",
"x$ 	c #686756",
"y$ 	c #626A66",
"z$ 	c #A5ABAC",
"A$ 	c #08010E",
"B$ 	c #4A334F",
"C$ 	c #3C233A",
"D$ 	c #200418",
"E$ 	c #36112F",
"F$ 	c #2B0B1E",
"G$ 	c #40282F",
"H$ 	c #392226",
"I$ 	c #49333D",
"J$ 	c #432432",
"K$ 	c #4A282D",
"L$ 	c #5D382B",
"M$ 	c #5E3722",
"N$ 	c #5A3425",
"O$ 	c #4C2322",
"P$ 	c #4C141E",
"Q$ 	c #490E1D",
"R$ 	c #450B22",
"S$ 	c #37031C",
"T$ 	c #32041D",
"U$ 	c #2D021A",
"V$ 	c #2F051D",
"W$ 	c #2E041A",
"X$ 	c #2D091A",
"Y$ 	c #2D0818",
"Z$ 	c #3E1D26",
"`$ 	c #2A1113",
" % 	c #472B2A",
".% 	c #1F120C",
"+% 	c #4A3736",
"@% 	c #180E0D",
"#% 	c #4A3A39",
"$% 	c #1D0E0E",
"%% 	c #3D2F30",
"&% 	c #2B1F21",
"*% 	c #1E1314",
"=% 	c #534044",
"-% 	c #0D0000",
";% 	c #453636",
">% 	c #392C2B",
",% 	c #070000",
"'% 	c #50403D",
")% 	c #321F1E",
"!% 	c #090000",
"~% 	c #4A2738",
"{% 	c #3E1E2E",
"]% 	c #1E0716",
"^% 	c #411D34",
"/% 	c #1D0919",
"(% 	c #1B0613",
"_% 	c #3F1730",
":% 	c #2F1329",
"<% 	c #080005",
"[% 	c #250F1D",
"}% 	c #4C203E",
"|% 	c #48233C",
"1% 	c #1E0C18",
"2% 	c #1F0C15",
"3% 	c #4E263F",
"4% 	c #562347",
"5% 	c #522B44",
"6% 	c #2B1523",
"7% 	c #000302",
"8% 	c #090209",
"9% 	c #341E30",
"0% 	c #4F294A",
"a% 	c #531F50",
"b% 	c #522457",
"c% 	c #482A50",
"d% 	c #241122",
"e% 	c #010306",
"f% 	c #03000B",
"g% 	c #231539",
"h% 	c #432B62",
"i% 	c #462966",
"j% 	c #452865",
"k% 	c #412A66",
"l% 	c #453266",
"m% 	c #2D2247",
"n% 	c #060315",
"o% 	c #010204",
"p% 	c #000300",
"q% 	c #0F0E2B",
"r% 	c #343363",
"s% 	c #373C75",
"t% 	c #343970",
"u% 	c #333B6F",
"v% 	c #313C6B",
"w% 	c #37456F",
"x% 	c #222C46",
"y% 	c #030315",
"z% 	c #222748",
"A% 	c #2A3A5E",
"B% 	c #1D3759",
"C% 	c #213457",
"D% 	c #1F3054",
"E% 	c #1E2E4E",
"F% 	c #222E47",
"G% 	c #0E1124",
"H% 	c #191628",
"I% 	c #1C1632",
"J% 	c #1E1433",
"K% 	c #20142C",
"L% 	c #1E122A",
"M% 	c #110C15",
"N% 	c #000104",
"O% 	c #020005",
"P% 	c #150B1A",
"Q% 	c #201027",
"R% 	c #210F27",
"S% 	c #180F20",
"T% 	c #020006",
"U% 	c #19131E",
"V% 	c #251429",
"W% 	c #231128",
"X% 	c #211828",
"Y% 	c #110A13",
"Z% 	c #090A0A",
"`% 	c #2B2A2D",
" & 	c #2D2B34",
".& 	c #1D1C23",
"+& 	c #010101",
"@& 	c #0C060F",
"#& 	c #201325",
"$& 	c #201028",
"%& 	c #1A1024",
"&& 	c #06020B",
"*& 	c #080615",
"=& 	c #18142D",
"-& 	c #181430",
";& 	c #131020",
">& 	c #040209",
",& 	c #030001",
"'& 	c #100515",
")& 	c #1E1228",
"!& 	c #1F142B",
"~& 	c #140B1E",
"{& 	c #05010B",
"]& 	c #030309",
"^& 	c #25242A",
"/& 	c #46454A",
"(& 	c #424245",
"_& 	c #111013",
":& 	c #413A3E",
"<& 	c #2C2328",
"[& 	c #0E060B",
"}& 	c #0A040B",
"|& 	c #28222A",
"1& 	c #433942",
"2& 	c #382A32",
"3& 	c #12080F",
"4& 	c #130915",
"5& 	c #2D2332",
"6& 	c #211729",
"7& 	c #100A04",
"8& 	c #716E5D",
"9& 	c #4B4C3D",
"0& 	c #99A3A0",
"a& 	c #62606A",
"b& 	c #0E0316",
"c& 	c #5A465C",
"d& 	c #190416",
"e& 	c #37132F",
"f& 	c #220417",
"g& 	c #412631",
"h& 	c #30191F",
"i& 	c #533944",
"j& 	c #3E2230",
"k& 	c #4A2A31",
"l& 	c #573329",
"m& 	c #5C3622",
"n& 	c #61392B",
"o& 	c #4D2420",
"p& 	c #4E1A20",
"q& 	c #460B21",
"r& 	c #3B051D",
"s& 	c #33041B",
"t& 	c #2F021A",
"u& 	c #2F041D",
"v& 	c #2C0318",
"w& 	c #2E061A",
"x& 	c #290515",
"y& 	c #2F0D1C",
"z& 	c #31131C",
"A& 	c #37191E",
"B& 	c #372220",
"C& 	c #341B1A",
"D& 	c #372726",
"E& 	c #332022",
"F& 	c #2F2023",
"G& 	c #3A2A2F",
"H& 	c #1A0C11",
"I& 	c #493C43",
"J& 	c #0D0107",
"K& 	c #47373D",
"L& 	c #2C1D21",
"M& 	c #150909",
"N& 	c #574A4B",
"O& 	c #130A0A",
"P& 	c #271515",
"Q& 	c #594446",
"R& 	c #120809",
"S& 	c #1D0912",
"T& 	c #523442",
"U& 	c #27101A",
"V& 	c #2D1323",
"W& 	c #401E31",
"X& 	c #15020F",
"Y& 	c #040004",
"Z& 	c #260B21",
"`& 	c #411937",
" * 	c #261120",
".* 	c #080004",
"+* 	c #2B1525",
"@* 	c #4D233F",
"#* 	c #46233A",
"$* 	c #190913",
"%* 	c #1B0B13",
"&* 	c #4B273D",
"** 	c #502544",
"=* 	c #532749",
"-* 	c #32182D",
";* 	c #060006",
">* 	c #070005",
",* 	c #2A1429",
"'* 	c #4D294E",
")* 	c #4E2351",
"!* 	c #4F2455",
"~* 	c #4C2955",
"{* 	c #301939",
"]* 	c #08010F",
"^* 	c #160A23",
"/* 	c #3C2957",
"(* 	c #412C68",
"_* 	c #3F2B6C",
":* 	c #3D2D69",
"<* 	c #413569",
"[* 	c #332D52",
"}* 	c #0B0920",
"|* 	c #010202",
"1* 	c #090A20",
"2* 	c #2A3357",
"3* 	c #363D70",
"4* 	c #2F3974",
"5* 	c #303C71",
"6* 	c #2D3D69",
"7* 	c #344266",
"8* 	c #202A45",
"9* 	c #000210",
"0* 	c #020205",
"a* 	c #020613",
"b* 	c #1F2D46",
"c* 	c #22365B",
"d* 	c #1C2F55",
"e* 	c #1B2E52",
"f* 	c #192C4E",
"g* 	c #1C2A47",
"h* 	c #1E253D",
"i* 	c #050614",
"j* 	c #010100",
"k* 	c #0E0C1B",
"l* 	c #1D172F",
"m* 	c #1C132E",
"n* 	c #1D122A",
"o* 	c #1D1129",
"p* 	c #1D1229",
"q* 	c #150F1B",
"r* 	c #170D1B",
"s* 	c #201126",
"t* 	c #200F26",
"u* 	c #200F27",
"v* 	c #130A19",
"w* 	c #0B080F",
"x* 	c #1F1725",
"y* 	c #211226",
"z* 	c #1D1623",
"A* 	c #050107",
"B* 	c #202025",
"C* 	c #2E2D34",
"D* 	c #2B2A32",
"E* 	c #24232A",
"F* 	c #060509",
"G* 	c #05020A",
"H* 	c #170F20",
"I* 	c #1B1027",
"J* 	c #1D102A",
"K* 	c #09050F",
"L* 	c #07040F",
"M* 	c #181129",
"N* 	c #19122A",
"O* 	c #13111E",
"P* 	c #06030F",
"Q* 	c #020007",
"R* 	c #0F0815",
"S* 	c #1E1529",
"T* 	c #20172B",
"U* 	c #110A1B",
"V* 	c #05010A",
"W* 	c #090908",
"X* 	c #303132",
"Y* 	c #4F5051",
"Z* 	c #3F403F",
"`* 	c #0C0D0B",
" = 	c #292224",
".= 	c #473B40",
"+= 	c #4E4249",
"@= 	c #31282E",
"#= 	c #0B070C",
"$= 	c #140D13",
"%= 	c #3B2D36",
"&= 	c #43363F",
"*= 	c #1A1119",
"== 	c #0C0811",
"-= 	c #2B2234",
";= 	c #221624",
">= 	c #231B14",
",= 	c #82826B",
"'= 	c #191D10",
")= 	c #28312C",
"!= 	c #AEB4B5",
"~= 	c #12111C",
"{= 	c #3D3043",
"]= 	c #342136",
"^= 	c #24041E",
"/= 	c #2D0F24",
"(= 	c #341625",
"_= 	c #3B222C",
":= 	c #4B2F3B",
"<= 	c #422936",
"[= 	c #482A34",
"}= 	c #502E29",
"|= 	c #5F3828",
"1= 	c #613A2A",
"2= 	c #542C23",
"3= 	c #512122",
"4= 	c #4A111D",
"5= 	c #480B1F",
"6= 	c #41081F",
"7= 	c #35061A",
"8= 	c #2F0419",
"9= 	c #2D041B",
"0= 	c #2D0519",
"a= 	c #290415",
"b= 	c #30101E",
"c= 	c #290B16",
"d= 	c #43242A",
"e= 	c #261313",
"f= 	c #4D2D30",
"g= 	c #1F1110",
"h= 	c #4E353C",
"i= 	c #17070E",
"j= 	c #4A3A42",
"k= 	c #13040D",
"l= 	c #3D303A",
"m= 	c #271A24",
"n= 	c #1C1018",
"o= 	c #4B3D44",
"p= 	c #090002",
"q= 	c #3C3034",
"r= 	c #413638",
"s= 	c #4B363B",
"t= 	c #3E3234",
"u= 	c #39212A",
"v= 	c #522F3E",
"w= 	c #09040A",
"x= 	c #0E0108",
"y= 	c #421D30",
"z= 	c #39172A",
"A= 	c #070009",
"B= 	c #0A000C",
"C= 	c #36102B",
"D= 	c #3E1F37",
"E= 	c #210B1C",
"F= 	c #040002",
"G= 	c #040104",
"H= 	c #39152D",
"I= 	c #4D243E",
"J= 	c #432538",
"K= 	c #170912",
"L= 	c #1B0911",
"M= 	c #4B2542",
"N= 	c #54224B",
"O= 	c #52284B",
"P= 	c #381C33",
"Q= 	c #070205",
"R= 	c #030104",
"S= 	c #030004",
"T= 	c #1E0E20",
"U= 	c #452648",
"V= 	c #4F2255",
"W= 	c #4A1F5C",
"X= 	c #4C2762",
"Y= 	c #372147",
"Z= 	c #0C0513",
"`= 	c #030300",
" - 	c #0B051C",
".- 	c #2F2251",
"+- 	c #3F2F6B",
"@- 	c #3A2C6A",
"#- 	c #362B69",
"$- 	c #3B3368",
"%- 	c #36325C",
"&- 	c #111029",
"*- 	c #030100",
"=- 	c #030817",
"-- 	c #282F54",
";- 	c #353D73",
">- 	c #2C3970",
",- 	c #2A3C6A",
"'- 	c #283968",
")- 	c #304169",
"!- 	c #1D2945",
"~- 	c #00030F",
"{- 	c #030A18",
"]- 	c #1D2A4B",
"^- 	c #1D2D51",
"/- 	c #1A2B4E",
"(- 	c #172A4C",
"_- 	c #182746",
":- 	c #1C2440",
"<- 	c #16182D",
"[- 	c #04040E",
"}- 	c #191527",
"|- 	c #1B132A",
"1- 	c #1E112A",
"2- 	c #191220",
"3- 	c #180E1D",
"4- 	c #211227",
"5- 	c #1F1026",
"6- 	c #1F1426",
"7- 	c #0D0610",
"8- 	c #17101D",
"9- 	c #201728",
"0- 	c #211527",
"a- 	c #231928",
"b- 	c #0E0B13",
"c- 	c #101114",
"d- 	c #2F2E37",
"e- 	c #2A2932",
"f- 	c #28272E",
"g- 	c #0F0D13",
"h- 	c #100C1C",
"i- 	c #181128",
"j- 	c #1A1129",
"k- 	c #0E061B",
"l- 	c #05040E",
"m- 	c #171124",
"n- 	c #1D122E",
"o- 	c #150E22",
"p- 	c #030205",
"q- 	c #03000A",
"r- 	c #130B1D",
"s- 	c #22192D",
"t- 	c #20182B",
"u- 	c #161712",
"v- 	c #42443E",
"w- 	c #565853",
"x- 	c #343732",
"y- 	c #010300",
"z- 	c #363932",
"A- 	c #060001",
"B- 	c #251D1F",
"C- 	c #494045",
"D- 	c #453E44",
"E- 	c #1F181E",
"F- 	c #090207",
"G- 	c #30262E",
"H- 	c #40373F",
"I- 	c #191218",
"J- 	c #120B15",
"K- 	c #302434",
"L- 	c #1A0C1A",
"M- 	c #504C3A",
"N- 	c #696B56",
"O- 	c #89948D",
"P- 	c #5D6267",
"Q- 	c #130A1B",
"R- 	c #523B56",
"S- 	c #190017",
"T- 	c #35172E",
"U- 	c #280A1C",
"V- 	c #432635",
"W- 	c #3C202C",
"X- 	c #4C3442",
"Y- 	c #412633",
"Z- 	c #4C2A2A",
"`- 	c #5E3726",
" ; 	c #593123",
".; 	c #522522",
"+; 	c #4B141C",
"@; 	c #4D0D1F",
"#; 	c #45091E",
"$; 	c #360819",
"%; 	c #31061A",
"&; 	c #2B0517",
"*; 	c #2C0618",
"=; 	c #2F0E1C",
"-; 	c #2E0D19",
";; 	c #422229",
">; 	c #2B1315",
",; 	c #4A3031",
"'; 	c #231112",
"); 	c #453136",
"!; 	c #221217",
"~; 	c #35252C",
"{; 	c #2F2029",
"]; 	c #1A0E16",
"^; 	c #443740",
"/; 	c #3F343D",
"(; 	c #2A1F26",
"_; 	c #0F0509",
":; 	c #52454A",
"<; 	c #190E12",
"[; 	c #190C11",
"}; 	c #59484B",
"|; 	c #1A1212",
"1; 	c #0A0103",
"2; 	c #50303E",
"3; 	c #37242C",
"4; 	c #1E0914",
"5; 	c #452436",
"6; 	c #261021",
"7; 	c #040005",
"8; 	c #12010E",
"9; 	c #371730",
"0; 	c #3E1E37",
"a; 	c #180714",
"b; 	c #0C0009",
"c; 	c #381C30",
"d; 	c #4D263F",
"e; 	c #432337",
"f; 	c #140812",
"g; 	c #190714",
"h; 	c #46243D",
"i; 	c #4C2544",
"j; 	c #50264A",
"k; 	c #3C2239",
"l; 	c #0F040E",
"m; 	c #020104",
"n; 	c #120715",
"o; 	c #3B2144",
"p; 	c #49265B",
"q; 	c #461F5D",
"r; 	c #46265C",
"s; 	c #3D264F",
"t; 	c #160D27",
"u; 	c #020103",
"v; 	c #030112",
"w; 	c #231C40",
"x; 	c #3A3264",
"y; 	c #372D6B",
"z; 	c #342D69",
"A; 	c #373368",
"B; 	c #363663",
"C; 	c #17183A",
"D; 	c #00000D",
"E; 	c #010005",
"F; 	c #030417",
"G; 	c #22294D",
"H; 	c #323C6A",
"I; 	c #2B3869",
"J; 	c #283A6C",
"K; 	c #263A68",
"L; 	c #2C3E66",
"M; 	c #1A2742",
"N; 	c #080E21",
"O; 	c #1D2A47",
"P; 	c #1B2848",
"Q; 	c #182648",
"R; 	c #182343",
"S; 	c #1A203D",
"T; 	c #1E1E37",
"U; 	c #0D0A1B",
"V; 	c #010106",
"W; 	c #14101D",
"X; 	c #1B1427",
"Y; 	c #1D1029",
"Z; 	c #1D1027",
"`; 	c #1C1224",
" > 	c #08030D",
".> 	c #040006",
"+> 	c #190F1E",
"@> 	c #1F1028",
"#> 	c #1D1026",
"$> 	c #1D1321",
"%> 	c #000201",
"&> 	c #07030B",
"*> 	c #1E1226",
"=> 	c #201627",
"-> 	c #1B1721",
";> 	c #040605",
">> 	c #292B2F",
",> 	c #2C2B33",
"'> 	c #292830",
")> 	c #17161B",
"!> 	c #0D0A19",
"~> 	c #161227",
"{> 	c #19132A",
"]> 	c #0D0919",
"^> 	c #04030B",
"/> 	c #151124",
"(> 	c #1B162B",
"_> 	c #130E21",
":> 	c #05010C",
"<> 	c #04000A",
"[> 	c #170F1F",
"}> 	c #251C2D",
"|> 	c #201727",
"1> 	c #0B0612",
"2> 	c #020302",
"3> 	c #252721",
"4> 	c #535850",
"5> 	c #525750",
"6> 	c #222621",
"7> 	c #070906",
"8> 	c #50554D",
"9> 	c #91968D",
"0> 	c #43393A",
"a> 	c #161212",
"b> 	c #0D080A",
"c> 	c #392F34",
"d> 	c #4E434B",
"e> 	c #292129",
"f> 	c #020003",
"g> 	c #040105",
"h> 	c #2F272D",
"i> 	c #41373D",
"j> 	c #130A0E",
"k> 	c #1E1420",
"l> 	c #2E1F33",
"m> 	c #0B020B",
"n> 	c #140D06",
"o> 	c #7F7C69",
"p> 	c #1E2117",
"q> 	c #343F36",
"r> 	c #9AA1A2",
"s> 	c #0D0415",
"t> 	c #533655",
"u> 	c #230D24",
"v> 	c #2F1229",
"w> 	c #26071C",
"x> 	c #442234",
"y> 	c #341B25",
"z> 	c #513847",
"A> 	c #3D2333",
"B> 	c #492A2C",
"C> 	c #5A352B",
"D> 	c #5D3524",
"E> 	c #512822",
"F> 	c #4C171C",
"G> 	c #4D0E1E",
"H> 	c #490D20",
"I> 	c #390919",
"J> 	c #31081A",
"K> 	c #2D031B",
"L> 	c #2E041B",
"M> 	c #2B0417",
"N> 	c #2E091A",
"O> 	c #2C0818",
"P> 	c #371220",
"Q> 	c #35171E",
"R> 	c #3F1D23",
"S> 	c #312020",
"T> 	c #3B2227",
"U> 	c #27191B",
"V> 	c #3E2E30",
"W> 	c #190A0E",
"X> 	c #45363B",
"Y> 	c #0D0106",
"Z> 	c #3C2F37",
"`> 	c #1D151D",
" , 	c #191119",
"., 	c #463B43",
"+, 	c #36272E",
"@, 	c #423A41",
"#, 	c #3E2A2D",
"$, 	c #493F3E",
"%, 	c #231118",
"&, 	c #5C3743",
"*, 	c #1D1116",
"=, 	c #301826",
"-, 	c #4A243B",
";, 	c #190915",
">, 	c #1E051A",
",, 	c #421B39",
"', 	c #3B1D33",
"), 	c #0F050B",
"!, 	c #0F040D",
"~, 	c #431A34",
"{, 	c #532340",
"], 	c #422239",
"^, 	c #120612",
"/, 	c #12080B",
"(, 	c #412238",
"_, 	c #51204B",
":, 	c #52234C",
"<, 	c #42243F",
"[, 	c #120813",
"}, 	c #080512",
"|, 	c #311D3F",
"1, 	c #47255A",
"2, 	c #47205F",
"3, 	c #462463",
"4, 	c #3C2A5B",
"5, 	c #201439",
"6, 	c #020010",
"7, 	c #191537",
"8, 	c #362F66",
"9, 	c #352F6B",
"0, 	c #342F69",
"a, 	c #31336E",
"b, 	c #34386A",
"c, 	c #1B1E3F",
"d, 	c #000110",
"e, 	c #010412",
"f, 	c #20274A",
"g, 	c #313B6E",
"h, 	c #263767",
"i, 	c #233867",
"j, 	c #213665",
"k, 	c #283B5F",
"l, 	c #152239",
"m, 	c #000105",
"n, 	c #0C1329",
"o, 	c #1D2643",
"p, 	c #192342",
"q, 	c #191F3E",
"r, 	c #191D3A",
"s, 	c #1C1B36",
"t, 	c #19162A",
"u, 	c #03020B",
"v, 	c #010104",
"w, 	c #0D0A13",
"x, 	c #1B1324",
"y, 	c #1C1028",
"z, 	c #1C0F29",
"A, 	c #1C0E26",
"B, 	c #1C1025",
"C, 	c #090310",
"D, 	c #050108",
"E, 	c #1F1025",
"F, 	c #1F1228",
"G, 	c #170E19",
"H, 	c #110C16",
"I, 	c #21152A",
"J, 	c #201329",
"K, 	c #221A28",
"L, 	c #0C0B11",
"M, 	c #1B1D1D",
"N, 	c #2D2E33",
"O, 	c #26252B",
"P, 	c #1D1C20",
"Q, 	c #020303",
"R, 	c #090615",
"S, 	c #151025",
"T, 	c #19142B",
"U, 	c #110D21",
"V, 	c #06010B",
"W, 	c #160E23",
"X, 	c #1A142D",
"Y, 	c #110E22",
"Z, 	c #07030D",
"`, 	c #1C1424",
" ' 	c #281F31",
".' 	c #201625",
"+' 	c #0B030B",
"@' 	c #0C0D0C",
"#' 	c #3E4139",
"$' 	c #61665C",
"%' 	c #434942",
"&' 	c #0A0D0A",
"*' 	c #212622",
"=' 	c #737872",
"-' 	c #929690",
";' 	c #50564F",
">' 	c #483F43",
",' 	c #554B4E",
"'' 	c #2D2427",
")' 	c #050104",
"!' 	c #302930",
"~' 	c #4B434A",
"{' 	c #2A2028",
"]' 	c #07060A",
"^' 	c #373137",
"/' 	c #392631",
"(' 	c #070004",
"_' 	c #060206",
":' 	c #2C2030",
"<' 	c #221124",
"[' 	c #565745",
"}' 	c #5E5E46",
"|' 	c #020704",
"1' 	c #99A5A3",
"2' 	c #2D2E2A",
"3' 	c #3D1F41",
"4' 	c #3E1E3E",
"5' 	c #210A20",
"6' 	c #2B0C23",
"7' 	c #391B2B",
"8' 	c #391925",
"9' 	c #4E383F",
"0' 	c #3D2331",
"a' 	c #4B2835",
"b' 	c #55322E",
"c' 	c #5D3424",
"d' 	c #512921",
"e' 	c #4A1C1D",
"f' 	c #491019",
"g' 	c #480D1D",
"h' 	c #3F091B",
"i' 	c #33071C",
"j' 	c #2E041D",
"k' 	c #2A051E",
"l' 	c #2D041C",
"m' 	c #2C0B1C",
"n' 	c #2A0312",
"o' 	c #3D1923",
"p' 	c #2A0D12",
"q' 	c #4A292F",
"r' 	c #1C1110",
"s' 	c #4F3136",
"t' 	c #4A3942",
"u' 	c #16060E",
"v' 	c #3B2C35",
"w' 	c #20141C",
"x' 	c #1D111A",
"y' 	c #3A2F3C",
"z' 	c #3B3039",
"A' 	c #261B24",
"B' 	c #0C0207",
"C' 	c #4D414A",
"D' 	c #1C131B",
"E' 	c #080605",
"F' 	c #534847",
"G' 	c #2E1F21",
"H' 	c #412831",
"I' 	c #4D333B",
"J' 	c #0C0304",
"K' 	c #090308",
"L' 	c #432137",
"M' 	c #421F35",
"N' 	c #0C040B",
"O' 	c #240E1E",
"P' 	c #45233A",
"Q' 	c #3D1531",
"R' 	c #12040E",
"S' 	c #3E2035",
"T' 	c #4F2342",
"U' 	c #471E3C",
"V' 	c #160512",
"W' 	c #0F040C",
"X' 	c #3E1F3C",
"Y' 	c #501F4F",
"Z' 	c #4D224C",
"`' 	c #432844",
" ) 	c #180C1A",
".) 	c #020201",
"+) 	c #02000A",
"@) 	c #231538",
"#) 	c #42275E",
"$) 	c #432165",
"%) 	c #3E2166",
"&) 	c #412964",
"*) 	c #2A1A41",
"=) 	c #080213",
"-) 	c #020102",
";) 	c #000008",
">) 	c #100E2B",
",) 	c #312D5E",
"') 	c #35306E",
")) 	c #2F3169",
"!) 	c #2D3269",
"~) 	c #32376D",
"{) 	c #1D2248",
"]) 	c #000211",
"^) 	c #000213",
"/) 	c #1F264B",
"() 	c #28396A",
"_) 	c #1F3566",
":) 	c #1E3661",
"<) 	c #1F365E",
"[) 	c #24375E",
"}) 	c #101938",
"|) 	c #00000B",
"1) 	c #151829",
"2) 	c #1B203D",
"3) 	c #171B3F",
"4) 	c #181B3B",
"5) 	c #181935",
"6) 	c #1B1A31",
"7) 	c #0B0B18",
"8) 	c #08050E",
"9) 	c #191223",
"0) 	c #1A0E27",
"a) 	c #1C0E2A",
"b) 	c #1D0E28",
"c) 	c #1D1025",
"d) 	c #0B0510",
"e) 	c #08020B",
"f) 	c #1C1022",
"g) 	c #200F24",
"h) 	c #200E26",
"i) 	c #221126",
"j) 	c #120912",
"k) 	c #1A1120",
"l) 	c #1D142A",
"m) 	c #1F172A",
"n) 	c #1B1720",
"o) 	c #0B0D11",
"p) 	c #2C2C32",
"q) 	c #272229",
"r) 	c #211E25",
"s) 	c #09070A",
"t) 	c #070411",
"u) 	c #150D27",
"v) 	c #1C1231",
"w) 	c #110E20",
"x) 	c #040108",
"y) 	c #140D27",
"z) 	c #1B142D",
"A) 	c #120E1B",
"B) 	c #030108",
"C) 	c #1E162D",
"D) 	c #2A2336",
"E) 	c #181421",
"F) 	c #1D2016",
"G) 	c #575C50",
"H) 	c #63645F",
"I) 	c #2E2E2D",
"J) 	c #060404",
"K) 	c #4F4B46",
"L) 	c #8E988B",
"M) 	c #7C8279",
"N) 	c #2D2B2C",
"O) 	c #090608",
"P) 	c #3B3135",
"Q) 	c #574D50",
"R) 	c #31282C",
"S) 	c #040206",
"T) 	c #373036",
"U) 	c #4B3E47",
"V) 	c #1C1219",
"W) 	c #171319",
"X) 	c #47333F",
"Y) 	c #1E121A",
"Z) 	c #1D1420",
"`) 	c #301E33",
" ! 	c #2A2A1C",
".! 	c #817D5F",
"+! 	c #758281",
"@! 	c #5B6459",
"#! 	c #230C29",
"$! 	c #4F2D4F",
"%! 	c #1A051B",
"&! 	c #2F1422",
"*! 	c #401B2A",
"=! 	c #483439",
"-! 	c #4C2837",
";! 	c #522F2D",
">! 	c #623D2B",
",! 	c #522B23",
"'! 	c #4B201E",
")! 	c #4A121A",
"!! 	c #490F1D",
"~! 	c #40091D",
"{! 	c #37081E",
"]! 	c #2E041C",
"^! 	c #2B051E",
"/! 	c #2F051F",
"(! 	c #2A091C",
"_! 	c #2D0615",
":! 	c #39171F",
"<! 	c #270D0F",
"[! 	c #472A2F",
"}! 	c #1F1112",
"|! 	c #4C3035",
"1! 	c #221215",
"2! 	c #3B2B35",
"3! 	c #2C1C25",
"4! 	c #21111C",
"5! 	c #392B37",
"6! 	c #0B0009",
"7! 	c #3A2E3C",
"8! 	c #170E18",
"9! 	c #080106",
"0! 	c #2B1D28",
"a! 	c #433843",
"b! 	c #2A1F21",
"c! 	c #554348",
"d! 	c #0A0709",
"e! 	c #11080C",
"f! 	c #553C43",
"g! 	c #362229",
"h! 	c #1E0A19",
"i! 	c #4C2940",
"j! 	c #331A28",
"k! 	c #2C1427",
"l! 	c #4C2140",
"m! 	c #2F162A",
"n! 	c #160914",
"o! 	c #442039",
"p! 	c #512343",
"q! 	c #43203B",
"r! 	c #160711",
"s! 	c #391C39",
"t! 	c #4A264C",
"u! 	c #48224D",
"v! 	c #45264A",
"w! 	c #211128",
"x! 	c #01000A",
"y! 	c #1B0E2D",
"z! 	c #3E2559",
"A! 	c #3F2464",
"B! 	c #3A2162",
"C! 	c #3F2B64",
"D! 	c #2F224C",
"E! 	c #0A051A",
"F! 	c #0B0A25",
"G! 	c #2C2A56",
"H! 	c #303365",
"I! 	c #2C316A",
"J! 	c #2A306E",
"K! 	c #2F386A",
"L! 	c #202746",
"M! 	c #010310",
"N! 	c #020416",
"O! 	c #1A2747",
"P! 	c #26385F",
"Q! 	c #1E3360",
"R! 	c #1C3360",
"S! 	c #1B335D",
"T! 	c #203153",
"U! 	c #0C1227",
"V! 	c #03040F",
"W! 	c #171B33",
"X! 	c #161B3B",
"Y! 	c #171839",
"Z! 	c #171634",
"`! 	c #171730",
" ~ 	c #141223",
".~ 	c #05020B",
"+~ 	c #181021",
"@~ 	c #1D0F29",
"#~ 	c #1D0D28",
"$~ 	c #1D1024",
"%~ 	c #0C0511",
"&~ 	c #0A030E",
"*~ 	c #1D1124",
"=~ 	c #210E26",
"-~ 	c #221023",
";~ 	c #0E0813",
">~ 	c #1F1627",
",~ 	c #1D1629",
"'~ 	c #211C2C",
")~ 	c #0C0910",
"!~ 	c #22242B",
"~~ 	c #27252D",
"{~ 	c #231D25",
"]~ 	c #110E10",
"^~ 	c #03010B",
"/~ 	c #130E23",
"(~ 	c #18122C",
"_~ 	c #171227",
":~ 	c #02010A",
"<~ 	c #030109",
"[~ 	c #150D1E",
"}~ 	c #1C162C",
"|~ 	c #120F1F",
"1~ 	c #0A0613",
"2~ 	c #221C30",
"3~ 	c #2D253A",
"4~ 	c #171120",
"5~ 	c #020200",
"6~ 	c #33342F",
"7~ 	c #66695C",
"8~ 	c #54574C",
"9~ 	c #131412",
"0~ 	c #23241F",
"a~ 	c #737D72",
"b~ 	c #8F9B8F",
"c~ 	c #5D5554",
"d~ 	c #09090B",
"e~ 	c #5A3C58",
"f~ 	c #070303",
"g~ 	c #3B3235",
"h~ 	c #564C51",
"i~ 	c #281E24",
"j~ 	c #110C12",
"k~ 	c #463942",
"l~ 	c #3F2F39",
"m~ 	c #070308",
"n~ 	c #020105",
"o~ 	c #382A34",
"p~ 	c #352830",
"q~ 	c #0D060F",
"r~ 	c #342236",
"s~ 	c #100510",
"t~ 	c #0F0A04",
"u~ 	c #837C5F",
"v~ 	c #17170A",
"w~ 	c #4A5756",
"x~ 	c #7D8980",
"y~ 	c #13071B",
"z~ 	c #543354",
"A~ 	c #1A031A",
"B~ 	c #311228",
"C~ 	c #2A0F1D",
"D~ 	c #431F2E",
"E~ 	c #432F32",
"F~ 	c #452C33",
"G~ 	c #4B2837",
"H~ 	c #502E2B",
"I~ 	c #5E3527",
"J~ 	c #633E2A",
"K~ 	c #532D22",
"L~ 	c #4D231F",
"M~ 	c #4A141A",
"N~ 	c #48101D",
"O~ 	c #420C1E",
"P~ 	c #3B0A1E",
"Q~ 	c #2B051B",
"R~ 	c #2D071E",
"S~ 	c #290719",
"T~ 	c #310A1A",
"U~ 	c #321319",
"V~ 	c #311519",
"W~ 	c #3C2124",
"X~ 	c #321E20",
"Y~ 	c #392124",
"Z~ 	c #39262B",
"`~ 	c #211119",
" { 	c #42313B",
".{ 	c #0E000A",
"+{ 	c #3D2E3C",
"@{ 	c #150916",
"#{ 	c #211623",
"${ 	c #322734",
"%{ 	c #040007",
"&{ 	c #362B38",
"*{ 	c #251B26",
"={ 	c #080108",
"-{ 	c #453A44",
";{ 	c #231B22",
">{ 	c #4B3E45",
",{ 	c #373035",
"'{ 	c #291C22",
"){ 	c #553F47",
"!{ 	c #2E1426",
"~{ 	c #502B3D",
"{{ 	c #22141E",
"]{ 	c #0C020D",
"^{ 	c #371B30",
"/{ 	c #49233D",
"({ 	c #291325",
"_{ 	c #1A0813",
":{ 	c #451F3A",
"<{ 	c #4C2144",
"[{ 	c #3F233A",
"}{ 	c #130610",
"|{ 	c #060307",
"1{ 	c #301A33",
"2{ 	c #4A2151",
"3{ 	c #471D52",
"4{ 	c #462652",
"5{ 	c #271634",
"6{ 	c #130820",
"7{ 	c #342250",
"8{ 	c #3B2764",
"9{ 	c #352268",
"0{ 	c #382969",
"a{ 	c #302753",
"b{ 	c #0D0A1D",
"c{ 	c #070715",
"d{ 	c #24274F",
"e{ 	c #2E346B",
"f{ 	c #27306D",
"g{ 	c #26306D",
"h{ 	c #2D3769",
"i{ 	c #1F2748",
"j{ 	c #010312",
"k{ 	c #01040D",
"l{ 	c #1E2842",
"m{ 	c #233360",
"n{ 	c #1A3062",
"o{ 	c #173057",
"p{ 	c #192F4F",
"q{ 	c #04091C",
"r{ 	c #090C1C",
"s{ 	c #191B32",
"t{ 	c #181635",
"u{ 	c #191434",
"v{ 	c #18132E",
"w{ 	c #181528",
"x{ 	c #07050F",
"y{ 	c #130C1C",
"z{ 	c #1B1026",
"A{ 	c #1B0D27",
"B{ 	c #1D0C27",
"C{ 	c #1C0F24",
"D{ 	c #1F0E27",
"E{ 	c #1B0D1D",
"F{ 	c #18111F",
"G{ 	c #1F1828",
"H{ 	c #201B2B",
"I{ 	c #1A1824",
"J{ 	c #151519",
"K{ 	c #28272F",
"L{ 	c #201D25",
"M{ 	c #151218",
"N{ 	c #100D1F",
"O{ 	c #19142F",
"P{ 	c #18152A",
"Q{ 	c #050609",
"R{ 	c #03010A",
"S{ 	c #150B1D",
"T{ 	c #21132B",
"U{ 	c #020106",
"V{ 	c #0C0914",
"W{ 	c #252033",
"X{ 	c #2D283A",
"Y{ 	c #151018",
"Z{ 	c #0C0B09",
"`{ 	c #4B4C42",
" ] 	c #6E7062",
".] 	c #3F3E38",
"+] 	c #4A5045",
"@] 	c #959A8B",
"#] 	c #7B8072",
"$] 	c #212A25",
"%] 	c #331C36",
"&] 	c #7C5577",
"*] 	c #63475F",
"=] 	c #271F1D",
"-] 	c #100A0B",
";] 	c #4D4147",
">] 	c #4B3F47",
",] 	c #2F222B",
"'] 	c #4E3B46",
")] 	c #1C1119",
"!] 	c #221A21",
"~] 	c #3E2F38",
"{] 	c #090505",
"]] 	c #050005",
"^] 	c #2F1E31",
"/] 	c #1D111E",
"(] 	c #767155",
"_] 	c #33321C",
":] 	c #2E393A",
"<] 	c #8C9A93",
"[] 	c #110A16",
"}] 	c #513151",
"|] 	c #1B061C",
"1] 	c #321329",
"2] 	c #462231",
"3] 	c #3F2A2D",
"4] 	c #462E32",
"5] 	c #4B2836",
"6] 	c #4E2C2A",
"7] 	c #5E3528",
"8] 	c #613D26",
"9] 	c #563224",
"0] 	c #4D2721",
"a] 	c #4A161A",
"b] 	c #48111C",
"c] 	c #43101E",
"d] 	c #3E0C1E",
"e] 	c #310618",
"f] 	c #2C0619",
"g] 	c #2B091E",
"h] 	c #290517",
"i] 	c #350D1E",
"j] 	c #2A0B12",
"k] 	c #3E1F25",
"l] 	c #2B1215",
"m] 	c #4A2C32",
"n] 	c #220D0F",
"o] 	c #4C373C",
"p] 	c #14040C",
"q] 	c #44333D",
"r] 	c #180A15",
"s] 	c #281A2A",
"t] 	c #2D1E31",
"u] 	c #0B010E",
"v] 	c #372C3A",
"w] 	c #120917",
"x] 	c #160C1B",
"y] 	c #382D3E",
"z] 	c #06000B",
"A] 	c #211723",
"B] 	c #453644",
"C] 	c #070209",
"D] 	c #1C161D",
"E] 	c #51464E",
"F] 	c #151116",
"G] 	c #443338",
"H] 	c #4B353D",
"I] 	c #0A030A",
"J] 	c #0C0007",
"K] 	c #432331",
"L] 	c #42303D",
"M] 	c #150B16",
"N] 	c #13050F",
"O] 	c #412037",
"P] 	c #43283D",
"Q] 	c #1F1120",
"R] 	c #1D0917",
"S] 	c #45203F",
"T] 	c #462542",
"U] 	c #3E233C",
"V] 	c #120713",
"W] 	c #07000A",
"X] 	c #2E1131",
"Y] 	c #472250",
"Z] 	c #421F51",
"`] 	c #402452",
" ^ 	c #2D1B3C",
".^ 	c #09020E",
"+^ 	c #020203",
"@^ 	c #0C0519",
"#^ 	c #2D1F4C",
"$^ 	c #312468",
"%^ 	c #342A65",
"&^ 	c #312B54",
"*^ 	c #121228",
"=^ 	c #030418",
"-^ 	c #1F244A",
";^ 	c #293367",
">^ 	c #26316E",
",^ 	c #25316D",
"'^ 	c #2A3667",
")^ 	c #1E2748",
"!^ 	c #000317",
"~^ 	c #030714",
"{^ 	c #1C294C",
"]^ 	c #1C2F5C",
"^^ 	c #152E54",
"/^ 	c #142C4F",
"(^ 	c #19294F",
"_^ 	c #141E3A",
":^ 	c #00010F",
"<^ 	c #000107",
"[^ 	c #131323",
"}^ 	c #1B152F",
"|^ 	c #191030",
"1^ 	c #18102B",
"2^ 	c #191229",
"3^ 	c #0F0B1A",
"4^ 	c #100917",
"5^ 	c #1B0E27",
"6^ 	c #1D0D27",
"7^ 	c #0B0611",
"8^ 	c #100816",
"9^ 	c #1D0F26",
"0^ 	c #1E0D27",
"a^ 	c #140A17",
"b^ 	c #1C1626",
"c^ 	c #1E1929",
"d^ 	c #221F2D",
"e^ 	c #0C0B12",
"f^ 	c #09060A",
"g^ 	c #27222B",
"h^ 	c #211C27",
"i^ 	c #17141D",
"j^ 	c #040308",
"k^ 	c #0C0A1B",
"l^ 	c #17142C",
"m^ 	c #1B182F",
"n^ 	c #080713",
"o^ 	c #140C1C",
"p^ 	c #211529",
"q^ 	c #1A0D21",
"r^ 	c #050208",
"s^ 	c #0E0A16",
"t^ 	c #2A2635",
"u^ 	c #2E2A38",
"v^ 	c #0F0C14",
"w^ 	c #191714",
"x^ 	c #5E5E57",
"y^ 	c #6A6C61",
"z^ 	c #26271E",
"A^ 	c #1E1C1A",
"B^ 	c #767970",
"C^ 	c #96978E",
"D^ 	c #54524B",
"E^ 	c #0A0300",
"F^ 	c #130209",
"G^ 	c #5E435A",
"H^ 	c #7D5C79",
"I^ 	c #3F2239",
"J^ 	c #0B0002",
"K^ 	c #5A4A43",
"L^ 	c #0A0908",
"M^ 	c #35262D",
"N^ 	c #574951",
"O^ 	c #261E25",
"P^ 	c #1D1119",
"Q^ 	c #503845",
"R^ 	c #2E1F28",
"S^ 	c #110E14",
"T^ 	c #403039",
"U^ 	c #150F0F",
"V^ 	c #2B1B2C",
"W^ 	c #261627",
"X^ 	c #68684A",
"Y^ 	c #42452B",
"Z^ 	c #1B2428",
"`^ 	c #94A19C",
" / 	c #150E14",
"./ 	c #51314F",
"+/ 	c #1C071D",
"@/ 	c #301227",
"#/ 	c #260B1A",
"$/ 	c #472332",
"%/ 	c #3E2929",
"&/ 	c #493133",
"*/ 	c #4B2737",
"=/ 	c #4F2D2C",
"-/ 	c #5E3626",
";/ 	c #634027",
">/ 	c #553324",
",/ 	c #502B24",
"'/ 	c #4B181B",
")/ 	c #49131D",
"!/ 	c #431120",
"~/ 	c #400C1C",
"{/ 	c #300615",
"]/ 	c #2F0719",
"^/ 	c #2B0A1E",
"// 	c #2B0518",
"(/ 	c #391122",
"_/ 	c #25080D",
":/ 	c #46272C",
"</ 	c #230A0E",
"[/ 	c #59343C",
"}/ 	c #180809",
"|/ 	c #4F363C",
"1/ 	c #1C0D14",
"2/ 	c #32222C",
"3/ 	c #30202F",
"4/ 	c #120516",
"5/ 	c #392A40",
"6/ 	c #0A000F",
"7/ 	c #221827",
"8/ 	c #2B2031",
"9/ 	c #04000B",
"0/ 	c #32253B",
"a/ 	c #1F1928",
"b/ 	c #422D41",
"c/ 	c #261D2D",
"d/ 	c #3E2E38",
"e/ 	c #483643",
"f/ 	c #030204",
"g/ 	c #150E10",
"h/ 	c #563F48",
"i/ 	c #32212C",
"j/ 	c #150910",
"k/ 	c #452D3D",
"l/ 	c #3F2637",
"m/ 	c #11040C",
"n/ 	c #180A16",
"o/ 	c #3D2437",
"p/ 	c #44263D",
"q/ 	c #200E1D",
"r/ 	c #190A17",
"s/ 	c #42223F",
"t/ 	c #482245",
"u/ 	c #3F213E",
"v/ 	c #160817",
"w/ 	c #211123",
"x/ 	c #40234D",
"y/ 	c #411C53",
"z/ 	c #422155",
"A/ 	c #321D46",
"B/ 	c #0C061C",
"C/ 	c #050213",
"D/ 	c #251D45",
"E/ 	c #342B64",
"F/ 	c #302566",
"G/ 	c #302769",
"H/ 	c #302D63",
"I/ 	c #141332",
"J/ 	c #1C2449",
"K/ 	c #283367",
"L/ 	c #25306B",
"M/ 	c #23306B",
"N/ 	c #253667",
"O/ 	c #1B2347",
"P/ 	c #000012",
"Q/ 	c #040D21",
"R/ 	c #182B4B",
"S/ 	c #182D53",
"T/ 	c #142852",
"U/ 	c #15254D",
"V/ 	c #1B2545",
"W/ 	c #0F1227",
"X/ 	c #0A0910",
"Y/ 	c #1C132C",
"Z/ 	c #1C0E2F",
"`/ 	c #190E2B",
" ( 	c #19102A",
".( 	c #170F23",
"+( 	c #0D0714",
"@( 	c #1A0F22",
"#( 	c #1B0D25",
"$( 	c #1C0C27",
"%( 	c #1B0F23",
"&( 	c #0C0510",
"*( 	c #120B1A",
"=( 	c #1C1026",
"-( 	c #1F0C28",
";( 	c #100C18",
">( 	c #1C1729",
",( 	c #221D2E",
"'( 	c #1D1B25",
")( 	c #1C161E",
"!( 	c #261C29",
"~( 	c #1D1421",
"{( 	c #0B0710",
"]( 	c #060515",
"^( 	c #17152F",
"/( 	c #1B1932",
"(( 	c #120818",
"_( 	c #221429",
":( 	c #1D1221",
"<( 	c #0F0B18",
"[( 	c #2F2B3D",
"}( 	c #2D2938",
"|( 	c #0C0A0F",
"1( 	c #28261C",
"2( 	c #6E6E62",
"3( 	c #5F6056",
"4( 	c #131310",
"5( 	c #443E39",
"6( 	c #979188",
"7( 	c #808077",
"8( 	c #282522",
"9( 	c #3A2035",
"0( 	c #865A79",
"a( 	c #6B445A",
"b( 	c #15050C",
"c( 	c #190C0B",
"d( 	c #784C55",
"e( 	c #6A574D",
"f( 	c #24201C",
"g( 	c #20151A",
"h( 	c #564750",
"i( 	c #362C34",
"j( 	c #130810",
"k( 	c #4C3340",
"l( 	c #372732",
"m( 	c #0C090E",
"n( 	c #402C39",
"o( 	c #191313",
"p( 	c #271828",
"q( 	c #2A192B",
"r( 	c #626545",
"s( 	c #494E2F",
"t( 	c #182123",
"u( 	c #95A19E",
"v( 	c #171017",
"w( 	c #4F2F4D",
"x( 	c #1F0720",
"y( 	c #33122A",
"z( 	c #230B19",
"A( 	c #462232",
"B( 	c #402B2C",
"C( 	c #493233",
"D( 	c #4A2836",
"E( 	c #502D2E",
"F( 	c #60362A",
"G( 	c #644026",
"H( 	c #573425",
"I( 	c #512C25",
"J( 	c #4A191A",
"K( 	c #48151C",
"L( 	c #44131F",
"M( 	c #420D1C",
"N( 	c #310714",
"O( 	c #33071A",
"P( 	c #2C0C1E",
"Q( 	c #2C0516",
"R( 	c #371223",
"S( 	c #23070F",
"T( 	c #49282F",
"U( 	c #220C0F",
"V( 	c #503036",
"W( 	c #271114",
"X( 	c #362528",
"Y( 	c #35222A",
"Z( 	c #1C0B16",
"`( 	c #3F2F3E",
" _ 	c #2D1F35",
"._ 	c #211428",
"+_ 	c #0B020F",
"@_ 	c #322537",
"#_ 	c #0D0419",
"$_ 	c #150A1F",
"%_ 	c #322A3C",
"&_ 	c #200D1D",
"*_ 	c #3D3345",
"=_ 	c #080510",
"-_ 	c #14070D",
";_ 	c #533E49",
">_ 	c #241D28",
",_ 	c #302024",
"'_ 	c #523F49",
")_ 	c #17111B",
"!_ 	c #27111E",
"~_ 	c #523143",
"{_ 	c #36202D",
"]_ 	c #20101B",
"^_ 	c #472640",
"/_ 	c #41243D",
"(_ 	c #180C1B",
"__ 	c #1C091D",
":_ 	c #431E42",
"<_ 	c #472045",
"[_ 	c #41203F",
"}_ 	c #19081D",
"|_ 	c #190B24",
"1_ 	c #3E2050",
"2_ 	c #401C56",
"3_ 	c #3D1E5C",
"4_ 	c #362055",
"5_ 	c #110822",
"6_ 	c #1D173C",
"7_ 	c #332A63",
"8_ 	c #2F266D",
"9_ 	c #2D266E",
"0_ 	c #322E61",
"a_ 	c #171534",
"b_ 	c #030101",
"c_ 	c #000214",
"d_ 	c #192248",
"e_ 	c #293269",
"f_ 	c #1F2D6A",
"g_ 	c #1D3068",
"h_ 	c #253462",
"i_ 	c #161F3E",
"j_ 	c #00000E",
"k_ 	c #000204",
"l_ 	c #061125",
"m_ 	c #19294C",
"n_ 	c #15254F",
"o_ 	c #142349",
"p_ 	c #172043",
"q_ 	c #1B1F3A",
"r_ 	c #060916",
"s_ 	c #140C22",
"t_ 	c #1B102C",
"u_ 	c #190E2A",
"v_ 	c #180D2A",
"w_ 	c #180F26",
"x_ 	c #09040F",
"y_ 	c #0A0410",
"z_ 	c #1A0E22",
"A_ 	c #1A0B24",
"B_ 	c #1C0C25",
"C_ 	c #1B0E24",
"D_ 	c #0B0411",
"E_ 	c #170D1F",
"F_ 	c #1E0E28",
"G_ 	c #1F0D28",
"H_ 	c #1B0E22",
"I_ 	c #060109",
"J_ 	c #1B1424",
"K_ 	c #1D192A",
"L_ 	c #24232E",
"M_ 	c #0D0D13",
"N_ 	c #0A080A",
"O_ 	c #241B26",
"P_ 	c #1F1424",
"Q_ 	c #140A1A",
"R_ 	c #02020F",
"S_ 	c #121129",
"T_ 	c #1A1A36",
"U_ 	c #101024",
"V_ 	c #100716",
"W_ 	c #1D1223",
"X_ 	c #07020A",
"Y_ 	c #0E0E16",
"Z_ 	c #302D3E",
"`_ 	c #322C3E",
" : 	c #0C0810",
".: 	c #323524",
"+: 	c #747664",
"@: 	c #544F45",
"#: 	c #040703",
"$: 	c #65615B",
"%: 	c #9F9992",
"&: 	c #5E5D55",
"*: 	c #070503",
"=: 	c #0E0009",
"-: 	c #6B4862",
";: 	c #885F80",
">: 	c #3D2035",
",: 	c #0C0000",
"': 	c #4A322D",
"): 	c #8E6261",
"!: 	c #4F2B2D",
"~: 	c #67584B",
"{: 	c #332A23",
"]: 	c #120F13",
"^: 	c #53454E",
"/: 	c #3C2F38",
"(: 	c #0E060A",
"_: 	c #483240",
":: 	c #382835",
"<: 	c #0B070A",
"[: 	c #3F2C3A",
"}: 	c #191316",
"|: 	c #27182A",
"1: 	c #676849",
"2: 	c #46492B",
"3: 	c #1C2526",
"4: 	c #95A09D",
"5: 	c #150F1A",
"6: 	c #50304F",
"7: 	c #20051F",
"8: 	c #37112A",
"9: 	c #1F0E1A",
"0: 	c #3F2B30",
"a: 	c #473133",
"b: 	c #4A2934",
"c: 	c #4F2C2F",
"d: 	c #62342F",
"e: 	c #654026",
"f: 	c #593425",
"g: 	c #512D26",
"h: 	c #4B1D1C",
"i: 	c #47161A",
"j: 	c #45151C",
"k: 	c #45101C",
"l: 	c #310815",
"m: 	c #37061B",
"n: 	c #2D0B1D",
"o: 	c #341221",
"p: 	c #260915",
"q: 	c #48222E",
"r: 	c #2C1317",
"s: 	c #392627",
"t: 	c #401E27",
"u: 	c #1A1316",
"v: 	c #4A343D",
"w: 	c #12000A",
"x: 	c #3B2B39",
"y: 	c #170C1B",
"z: 	c #150A1D",
"A: 	c #32203E",
"B: 	c #0A000B",
"C: 	c #251728",
"D: 	c #231634",
"E: 	c #05000F",
"F: 	c #2C2034",
"G: 	c #20142B",
"H: 	c #32263A",
"I: 	c #2A1E35",
"J: 	c #2D2026",
"K: 	c #483B4F",
"L: 	c #070401",
"M: 	c #41353B",
"N: 	c #423848",
"O: 	c #09060C",
"P: 	c #080001",
"Q: 	c #351F29",
"R: 	c #4B3143",
"S: 	c #2B162A",
"T: 	c #271426",
"U: 	c #422740",
"V: 	c #3F223B",
"W: 	c #170915",
"X: 	c #19081C",
"Y: 	c #461E43",
"Z: 	c #3F2043",
"`: 	c #1D0B1F",
" < 	c #12081E",
".< 	c #361E4A",
"+< 	c #3E1D5B",
"@< 	c #3D1B60",
"#< 	c #372154",
"$< 	c #00000C",
"%< 	c #161235",
"&< 	c #312961",
"*< 	c #2C2569",
"=< 	c #292765",
"-< 	c #2D2D5F",
";< 	c #18183A",
">< 	c #010314",
",< 	c #1C224F",
"'< 	c #263067",
")< 	c #1D2E61",
"!< 	c #1B3064",
"~< 	c #213360",
"{< 	c #101934",
"]< 	c #0F1631",
"^< 	c #182548",
"/< 	c #131F44",
"(< 	c #141D42",
"_< 	c #161C3C",
":< 	c #121528",
"<< 	c #000106",
"[< 	c #0A0916",
"}< 	c #171327",
"|< 	c #170E28",
"1< 	c #180C2A",
"2< 	c #1A0D29",
"3< 	c #0D0716",
"4< 	c #1B0D22",
"5< 	c #1C0B23",
"6< 	c #1C0D25",
"7< 	c #1B0E25",
"8< 	c #090212",
"9< 	c #1E0C24",
"0< 	c #1F0B27",
"a< 	c #1D0E27",
"b< 	c #0B0813",
"c< 	c #20172A",
"d< 	c #21212D",
"e< 	c #1F2326",
"f< 	c #1B131A",
"g< 	c #211525",
"h< 	c #150D1C",
"i< 	c #06010D",
"j< 	c #100E21",
"k< 	c #1B1C31",
"l< 	c #121726",
"m< 	c #00020B",
"n< 	c #21132A",
"o< 	c #08050C",
"p< 	c #0D0E16",
"q< 	c #2E3440",
"r< 	c #31323F",
"s< 	c #0B060D",
"t< 	c #3D3C2E",
"u< 	c #797B66",
"v< 	c #44473A",
"w< 	c #181814",
"x< 	c #7E7C72",
"y< 	c #998E82",
"z< 	c #3C3A35",
"A< 	c #361C2C",
"B< 	c #8D5C77",
"C< 	c #71495E",
"D< 	c #0E050A",
"E< 	c #1A0D0D",
"F< 	c #8A5055",
"G< 	c #835350",
"H< 	c #1B0E08",
"I< 	c #351015",
"J< 	c #64594A",
"K< 	c #312A24",
"L< 	c #181217",
"M< 	c #54444E",
"N< 	c #382C33",
"O< 	c #11080D",
"P< 	c #48333F",
"Q< 	c #31232E",
"R< 	c #100B0F",
"S< 	c #3C2C38",
"T< 	c #140F12",
"U< 	c #2C1B2E",
"V< 	c #241523",
"W< 	c #727454",
"X< 	c #373A21",
"Y< 	c #2A3434",
"Z< 	c #8E9894",
"`< 	c #140A18",
" [ 	c #502F4F",
".[ 	c #1F041C",
"+[ 	c #351329",
"@[ 	c #21101B",
"#[ 	c #44212F",
"$[ 	c #432D31",
"%[ 	c #462F33",
"&[ 	c #4D2C36",
"*[ 	c #5F332C",
"=[ 	c #67432A",
"-[ 	c #583224",
";[ 	c #502C24",
">[ 	c #4A1E1D",
",[ 	c #48171C",
"'[ 	c #46161E",
")[ 	c #47121E",
"![ 	c #320915",
"~[ 	c #3A091E",
"{[ 	c #2D0A1B",
"][ 	c #34091B",
"^[ 	c #33111F",
"/[ 	c #2F0F1A",
"([ 	c #3D1C24",
"_[ 	c #3C1F24",
":[ 	c #271517",
"<[ 	c #502F3B",
"[[ 	c #11040A",
"}[ 	c #4C3841",
"|[ 	c #180712",
"1[ 	c #291928",
"2[ 	c #2D1F31",
"3[ 	c #090011",
"4[ 	c #2F1E39",
"5[ 	c #160A1A",
"6[ 	c #0E0314",
"7[ 	c #2E1F3C",
"8[ 	c #0C0317",
"9[ 	c #13081E",
"0[ 	c #2F223C",
"a[ 	c #0A0310",
"b[ 	c #14091E",
"c[ 	c #392C45",
"d[ 	c #120915",
"e[ 	c #0A0209",
"f[ 	c #403345",
"g[ 	c #322938",
"h[ 	c #190F16",
"i[ 	c #4D404F",
"j[ 	c #322630",
"k[ 	c #0B0309",
"l[ 	c #3B2938",
"m[ 	c #4A3144",
"n[ 	c #20131F",
"o[ 	c #2A1A26",
"p[ 	c #422941",
"q[ 	c #3D223C",
"r[ 	c #170916",
"s[ 	c #140816",
"t[ 	c #3B203B",
"u[ 	c #421F43",
"v[ 	c #3F2144",
"w[ 	c #200E27",
"x[ 	c #030008",
"y[ 	c #0E0317",
"z[ 	c #311A45",
"A[ 	c #3B1F5B",
"B[ 	c #351C5B",
"C[ 	c #34235B",
"D[ 	c #191136",
"E[ 	c #121030",
"F[ 	c #2A2A5E",
"G[ 	c #282867",
"H[ 	c #262769",
"I[ 	c #2C2E64",
"J[ 	c #17193E",
"K[ 	c #000010",
"L[ 	c #010316",
"M[ 	c #1C254A",
"N[ 	c #1F3062",
"O[ 	c #1A2E64",
"P[ 	c #182D5F",
"Q[ 	c #202F55",
"R[ 	c #0A1129",
"S[ 	c #010211",
"T[ 	c #141B36",
"U[ 	c #161F44",
"V[ 	c #141B41",
"W[ 	c #15183C",
"X[ 	c #171931",
"Y[ 	c #080916",
"Z[ 	c #04020E",
"`[ 	c #151022",
" } 	c #170D26",
".} 	c #180A28",
"+} 	c #190C28",
"@} 	c #120A1A",
"#} 	c #1A0C20",
"$} 	c #1D0C26",
"%} 	c #1B0B25",
"&} 	c #1A0D23",
"*} 	c #1F0F27",
"=} 	c #0E0612",
"-} 	c #14121C",
";} 	c #211D2E",
">} 	c #272833",
",} 	c #101216",
"'} 	c #0C070C",
")} 	c #190E22",
"!} 	c #0D060E",
"~} 	c #090916",
"{} 	c #171932",
"]} 	c #181B2D",
"^} 	c #03050B",
"/} 	c #1E1222",
"(} 	c #0C0611",
"_} 	c #0C0B14",
":} 	c #353440",
"<} 	c #343444",
"[} 	c #08080E",
"}} 	c #414235",
"|} 	c #797E70",
"1} 	c #3F3932",
"2} 	c #212C20",
"3} 	c #908C7E",
"4} 	c #917B7A",
"5} 	c #1F1A19",
"6} 	c #61384C",
"7} 	c #94667A",
"8} 	c #472C37",
"9} 	c #050000",
"0} 	c #552C32",
"a} 	c #A36270",
"b} 	c #4F3634",
"c} 	c #623035",
"d} 	c #924D59",
"e} 	c #645A4C",
"f} 	c #221D1A",
"g} 	c #241C24",
"h} 	c #564550",
"i} 	c #2B2126",
"j} 	c #1B0F17",
"k} 	c #4A3741",
"l} 	c #261C23",
"m} 	c #1B1219",
"n} 	c #392C35",
"o} 	c #0C080A",
"p} 	c #060007",
"q} 	c #322033",
"r} 	c #190E17",
"s} 	c #070600",
"t} 	c #828262",
"u} 	c #212512",
"v} 	c #424D4E",
"w} 	c #7B847F",
"x} 	c #18081C",
"y} 	c #4D2D4C",
"z} 	c #1F051A",
"A} 	c #341128",
"B} 	c #28141F",
"C} 	c #3F1F2A",
"D} 	c #493137",
"E} 	c #432A30",
"F} 	c #4E2B34",
"G} 	c #512F2E",
"H} 	c #5C332A",
"I} 	c #66422B",
"J} 	c #593327",
"K} 	c #502C23",
"L} 	c #4A201D",
"M} 	c #481A1E",
"N} 	c #47161D",
"O} 	c #48141F",
"P} 	c #310914",
"Q} 	c #3E0B1F",
"R} 	c #2F091A",
"S} 	c #360B1D",
"T} 	c #32101C",
"U} 	c #391520",
"V} 	c #2D1317",
"W} 	c #4D2B31",
"X} 	c #190609",
"Y} 	c #573945",
"Z} 	c #15030C",
"`} 	c #3E2D37",
" | 	c #150515",
".| 	c #37263C",
"+| 	c #0D0115",
"@| 	c #1E1025",
"#| 	c #25172E",
"$| 	c #06000F",
"%| 	c #23152E",
"&| 	c #20112B",
"*| 	c #050012",
"=| 	c #261934",
"-| 	c #20132D",
";| 	c #02000F",
">| 	c #281C34",
",| 	c #2C2036",
"'| 	c #020009",
")| 	c #19101F",
"!| 	c #443A48",
"~| 	c #1B131E",
"{| 	c #2E202B",
"]| 	c #4F3F4B",
"^| 	c #1E1822",
"/| 	c #140A14",
"(| 	c #442E3D",
"_| 	c #452E44",
":| 	c #180C17",
"<| 	c #060205",
"[| 	c #2E1A2F",
"}| 	c #462646",
"|| 	c #3D203B",
"1| 	c #100910",
"2| 	c #120814",
"3| 	c #3A1D3B",
"4| 	c #3E1D46",
"5| 	c #3C1F4C",
"6| 	c #23112F",
"7| 	c #030105",
"8| 	c #0A0113",
"9| 	c #291740",
"0| 	c #36205C",
"a| 	c #311C64",
"b| 	c #302361",
"c| 	c #1C143C",
"d| 	c #01000B",
"e| 	c #0B0D2C",
"f| 	c #28295F",
"g| 	c #25256C",
"h| 	c #222769",
"i| 	c #262E63",
"j| 	c #141A3A",
"k| 	c #030615",
"l| 	c #1B2750",
"m| 	c #1C2F5F",
"n| 	c #152B60",
"o| 	c #172C5B",
"p| 	c #192A4F",
"q| 	c #05091C",
"r| 	c #050718",
"s| 	c #171D3B",
"t| 	c #16163B",
"u| 	c #161533",
"v| 	c #131228",
"w| 	c #0E0A19",
"x| 	c #190D25",
"y| 	c #190927",
"z| 	c #1A0B28",
"A| 	c #150B1E",
"B| 	c #030007",
"C| 	c #05000A",
"D| 	c #190B1F",
"E| 	c #1C0A25",
"F| 	c #1A0B26",
"G| 	c #190D21",
"H| 	c #07020D",
"I| 	c #0F0613",
"J| 	c #1F0D26",
"K| 	c #200D28",
"L| 	c #1B0E23",
"M| 	c #07020B",
"N| 	c #05040B",
"O| 	c #191924",
"P| 	c #242432",
"Q| 	c #26272F",
"R| 	c #030406",
"S| 	c #17101A",
"T| 	c #1B1023",
"U| 	c #13091D",
"V| 	c #16152C",
"W| 	c #171933",
"X| 	c #080B18",
"Y| 	c #050101",
"Z| 	c #1C0F1E",
"`| 	c #23172A",
" 1 	c #100B14",
".1 	c #0A0811",
"+1 	c #33313C",
"@1 	c #3C3A45",
"#1 	c #0C0A15",
"$1 	c #424534",
"%1 	c #7A7E68",
"&1 	c #33362D",
"*1 	c #3D322E",
"=1 	c #9F9487",
"-1 	c #756B5F",
";1 	c #100706",
">1 	c #14040E",
",1 	c #7C526A",
"'1 	c #8D5E72",
")1 	c #240E14",
"!1 	c #0D0300",
"~1 	c #7D5450",
"{1 	c #9A5E61",
"]1 	c #2B0E11",
"^1 	c #2B080A",
"/1 	c #8E4D51",
"(1 	c #793D43",
"_1 	c #1C0304",
":1 	c #584D45",
"<1 	c #0B0707",
"[1 	c #3A2F38",
"}1 	c #54404C",
"|1 	c #181014",
"11 	c #2B1E28",
"21 	c #47353D",
"31 	c #170F11",
"41 	c #291E27",
"51 	c #30252D",
"61 	c #0E0610",
"71 	c #372437",
"81 	c #0A0307",
"91 	c #1F2012",
"01 	c #8A8967",
"a1 	c #050801",
"b1 	c #697577",
"c1 	c #5B615A",
"d1 	c #240C28",
"e1 	c #452746",
"f1 	c #20051A",
"g1 	c #2E0B20",
"h1 	c #301924",
"i1 	c #391C26",
"j1 	c #4F343C",
"k1 	c #3F242C",
"l1 	c #4F2B32",
"m1 	c #512F2C",
"n1 	c #573125",
"o1 	c #66432C",
"p1 	c #5A3228",
"q1 	c #4E2A22",
"r1 	c #49221D",
"s1 	c #461A1E",
"t1 	c #49171F",
"u1 	c #4A1521",
"v1 	c #2F0911",
"w1 	c #410E1F",
"x1 	c #300B1A",
"y1 	c #3A0F20",
"z1 	c #2D0D17",
"A1 	c #451B25",
"B1 	c #1F0D0E",
"C1 	c #59333A",
"D1 	c #150205",
"E1 	c #543845",
"F1 	c #260E1B",
"G1 	c #281822",
"H1 	c #3C2B39",
"I1 	c #322037",
"J1 	c #1E0E25",
"K1 	c #0B0210",
"L1 	c #2A1C37",
"M1 	c #10041D",
"N1 	c #110417",
"O1 	c #2A1837",
"P1 	c #0C0119",
"Q1 	c #12061D",
"R1 	c #2B1D3C",
"S1 	c #0B0315",
"T1 	c #0D0413",
"U1 	c #322541",
"V1 	c #150D24",
"W1 	c #2F2433",
"X1 	c #392E44",
"Y1 	c #080410",
"Z1 	c #080207",
"`1 	c #3C2F3B",
" 2 	c #433947",
".2 	c #100915",
"+2 	c #443143",
"@2 	c #3C2B3B",
"#2 	c #10070F",
"$2 	c #0A030C",
"%2 	c #311D31",
"&2 	c #432641",
"*2 	c #352437",
"=2 	c #110914",
"-2 	c #311B3A",
";2 	c #3A1C49",
">2 	c #3A1D4B",
",2 	c #241432",
"'2 	c #04000F",
")2 	c #070010",
"!2 	c #21133B",
"~2 	c #32215D",
"{2 	c #2A1E5F",
"]2 	c #2E235D",
"^2 	c #1E1741",
"/2 	c #020013",
"(2 	c #0A0B29",
"_2 	c #242658",
":2 	c #222764",
"<2 	c #1D2865",
"[2 	c #202C5F",
"}2 	c #10173B",
"|2 	c #060921",
"12 	c #1B294E",
"22 	c #172D5D",
"32 	c #132A5B",
"42 	c #162B57",
"52 	c #152142",
"62 	c #0D1024",
"72 	c #191937",
"82 	c #151337",
"92 	c #151232",
"02 	c #16132E",
"a2 	c #090714",
"b2 	c #090510",
"c2 	c #190B23",
"d2 	c #190926",
"e2 	c #1B0A28",
"f2 	c #170B20",
"g2 	c #180A1E",
"h2 	c #1B0925",
"i2 	c #1A0B27",
"j2 	c #180C1F",
"k2 	c #130818",
"l2 	c #1F0C26",
"m2 	c #160B1D",
"n2 	c #0E0C17",
"o2 	c #1F202C",
"p2 	c #282D38",
"q2 	c #191B20",
"r2 	c #0B050E",
"s2 	c #1C1222",
"t2 	c #180E20",
"u2 	c #0A040F",
"v2 	c #10101E",
"w2 	c #1A1A31",
"x2 	c #121323",
"y2 	c #150B12",
"z2 	c #261A29",
"A2 	c #160F1E",
"B2 	c #312F3A",
"C2 	c #403F48",
"D2 	c #101014",
"E2 	c #413E34",
"F2 	c #7E7F6D",
"G2 	c #363529",
"H2 	c #423E39",
"I2 	c #A1958E",
"J2 	c #735554",
"K2 	c #1C1418",
"L2 	c #8E6579",
"M2 	c #784F5F",
"N2 	c #070001",
"O2 	c #311817",
"P2 	c #AB6166",
"Q2 	c #804646",
"R2 	c #0E0000",
"S2 	c #462725",
"T2 	c #9C5E61",
"U2 	c #4D2426",
"V2 	c #170603",
"W2 	c #734649",
"X2 	c #362B28",
"Y2 	c #110F16",
"Z2 	c #4F434F",
"`2 	c #402C38",
" 3 	c #07050A",
".3 	c #3D2F3A",
"+3 	c #392A30",
"@3 	c #060508",
"#3 	c #372A35",
"$3 	c #4A4D37",
"%3 	c #777756",
"&3 	c #8B969A",
"*3 	c #2F342D",
"=3 	c #381B3C",
"-3 	c #371836",
";3 	c #270A20",
">3 	c #28081C",
",3 	c #39212C",
"'3 	c #361A21",
")3 	c #54383F",
"!3 	c #3F222C",
"~3 	c #4D292F",
"{3 	c #53312D",
"]3 	c #583226",
"^3 	c #624028",
"/3 	c #5C3427",
"(3 	c #4D2821",
"_3 	c #48231F",
":3 	c #451A1E",
"<3 	c #47151D",
"[3 	c #4C1722",
"}3 	c #2D0910",
"|3 	c #431121",
"13 	c #310A19",
"23 	c #3F1223",
"33 	c #2B0B14",
"43 	c #51242F",
"53 	c #150707",
"63 	c #603840",
"73 	c #140306",
"83 	c #472D3A",
"93 	c #3A1E2E",
"03 	c #140710",
"a3 	c #433241",
"b3 	c #120314",
"c3 	c #210F26",
"d3 	c #2E1B34",
"e3 	c #050008",
"f3 	c #1F132E",
"g3 	c #20112F",
"h3 	c #06000A",
"i3 	c #241130",
"j3 	c #1D0C2A",
"k3 	c #211432",
"l3 	c #1F1327",
"m3 	c #1E122D",
"n3 	c #28213D",
"o3 	c #050209",
"p3 	c #0E0511",
"q3 	c #3A2E49",
"r3 	c #262032",
"s3 	c #463747",
"t3 	c #3B2B3B",
"u3 	c #070309",
"v3 	c #251A23",
"w3 	c #463345",
"x3 	c #3A233B",
"y3 	c #100312",
"z3 	c #070407",
"A3 	c #331E32",
"B3 	c #412545",
"C3 	c #3A1E3F",
"D3 	c #170A19",
"E3 	c #0A0411",
"F3 	c #30163B",
"G3 	c #3B1A4D",
"H3 	c #361A53",
"I3 	c #251541",
"J3 	c #060312",
"K3 	c #02000C",
"L3 	c #191036",
"M3 	c #2C215A",
"N3 	c #291D60",
"O3 	c #2D2164",
"P3 	c #201949",
"Q3 	c #040211",
"R3 	c #090A23",
"S3 	c #202657",
"T3 	c #1D2969",
"U3 	c #19296B",
"V3 	c #1E2B5F",
"W3 	c #0E1332",
"X3 	c #060F2A",
"Y3 	c #172B55",
"Z3 	c #122A59",
"`3 	c #122755",
" 4 	c #162653",
".4 	c #0C1535",
"+4 	c #01020C",
"@4 	c #15142A",
"#4 	c #171332",
"$4 	c #151131",
"%4 	c #15122D",
"&4 	c #110E1E",
"*4 	c #06020A",
"=4 	c #170A20",
"-4 	c #190824",
";4 	c #190C22",
">4 	c #0B040F",
",4 	c #180B1F",
"'4 	c #1C0A26",
")4 	c #1B0A27",
"!4 	c #160A1C",
"~4 	c #170B1C",
"{4 	c #200C26",
"]4 	c #1F0D27",
"^4 	c #0F0718",
"/4 	c #1B1825",
"(4 	c #262834",
"_4 	c #28323A",
":4 	c #06090A",
"<4 	c #150D18",
"[4 	c #190D23",
"}4 	c #110717",
"|4 	c #090719",
"14 	c #1A1A2E",
"24 	c #15172A",
"34 	c #04030A",
"44 	c #120515",
"54 	c #251828",
"64 	c #1C1320",
"74 	c #010108",
"84 	c #292734",
"94 	c #464450",
"04 	c #19191D",
"a4 	c #3D392A",
"b4 	c #84806F",
"c4 	c #38352D",
"d4 	c #4D3F38",
"e4 	c #A7938C",
"f4 	c #5E504B",
"g4 	c #37202B",
"h4 	c #9A6F81",
"i4 	c #613C46",
"j4 	c #0B0000",
"k4 	c #542E2D",
"l4 	c #A87370",
"m4 	c #572D2B",
"n4 	c #140000",
"o4 	c #774343",
"p4 	c #955857",
"q4 	c #1D0F0B",
"r4 	c #331515",
"s4 	c #925259",
"t4 	c #4E2225",
"u4 	c #0C0807",
"v4 	c #4F3F4A",
"w4 	c #1D0E17",
"x4 	c #251A21",
"y4 	c #46363E",
"z4 	c #1A1116",
"A4 	c #20181F",
"B4 	c #3B2835",
"C4 	c #070100",
"D4 	c #31242E",
"E4 	c #1F1020",
"F4 	c #050200",
"G4 	c #7E7E64",
"H4 	c #3A3F2C",
"I4 	c #212B24",
"J4 	c #90999C",
"K4 	c #11091A",
"L4 	c #4A2C51",
"M4 	c #210922",
"N4 	c #2F142C",
"O4 	c #26071D",
"P4 	c #432535",
"Q4 	c #361D21",
"R4 	c #4E373F",
"S4 	c #402535",
"T4 	c #4B262C",
"U4 	c #5C332E",
"V4 	c #5B3426",
"W4 	c #5F3D28",
"X4 	c #5E3724",
"Y4 	c #4D261C",
"Z4 	c #472121",
"`4 	c #4A1A24",
" 5 	c #470F19",
".5 	c #4A1822",
"+5 	c #471121",
"@5 	c #330B17",
"#5 	c #4A1324",
"$5 	c #250B11",
"%5 	c #552B35",
"&5 	c #160202",
"*5 	c #603A3E",
"=5 	c #1E0C0C",
"-5 	c #301D25",
";5 	c #4A303E",
">5 	c #432839",
",5 	c #0B0216",
"'5 	c #341D39",
")5 	c #0F0411",
"!5 	c #0D0318",
"~5 	c #271541",
"{5 	c #0C000E",
"]5 	c #140414",
"^5 	c #2B1144",
"/5 	c #0E000E",
"(5 	c #0B070D",
"_5 	c #2B1842",
":5 	c #13021A",
"<5 	c #040107",
"[5 	c #2C1C41",
"}5 	c #1D1426",
"|5 	c #120D1E",
"15 	c #22171E",
"25 	c #4B3851",
"35 	c #2C1E36",
"45 	c #030102",
"55 	c #2A1E2F",
"65 	c #433051",
"75 	c #30203C",
"85 	c #0A0309",
"95 	c #070507",
"05 	c #331E35",
"a5 	c #432247",
"b5 	c #39203F",
"c5 	c #140B1A",
"d5 	c #07010F",
"e5 	c #231536",
"f5 	c #311B4F",
"g5 	c #301A52",
"h5 	c #261742",
"i5 	c #0C0418",
"j5 	c #120E2B",
"k5 	c #282055",
"l5 	c #261D62",
"m5 	c #292262",
"n5 	c #1D1B46",
"o5 	c #040416",
"p5 	c #080A29",
"q5 	c #1D2458",
"r5 	c #192867",
"s5 	c #172864",
"t5 	c #1B2B5D",
"u5 	c #081230",
"v5 	c #0B1631",
"w5 	c #172951",
"x5 	c #0F2655",
"y5 	c #102452",
"z5 	c #162247",
"A5 	c #06091C",
"B5 	c #0A0B1A",
"C5 	c #15152D",
"D5 	c #13102C",
"E5 	c #160E29",
"F5 	c #180E25",
"G5 	c #15091D",
"H5 	c #1A0A25",
"I5 	c #190C23",
"J5 	c #0C0512",
"K5 	c #07010B",
"L5 	c #190B1E",
"M5 	c #1E0926",
"N5 	c #1E0827",
"O5 	c #150A1C",
"P5 	c #05020C",
"Q5 	c #180E24",
"R5 	c #1D0A27",
"S5 	c #1D0C25",
"T5 	c #050A0F",
"U5 	c #1D242D",
"V5 	c #2C333B",
"W5 	c #1F232A",
"X5 	c #09030D",
"Y5 	c #140A1B",
"Z5 	c #09030A",
"`5 	c #01020E",
" 6 	c #14152C",
".6 	c #191A2E",
"+6 	c #0B0A17",
"@6 	c #0A010B",
"#6 	c #221425",
"$6 	c #251928",
"%6 	c #08050B",
"&6 	c #201F25",
"*6 	c #4A4850",
"=6 	c #262127",
"-6 	c #332E23",
";6 	c #867D66",
">6 	c #423C35",
",6 	c #473F31",
"'6 	c #AA958A",
")6 	c #5B454F",
"!6 	c #452D24",
"~6 	c #A86F7E",
"{6 	c #4F2C41",
"]6 	c #754540",
"^6 	c #AC6F65",
"/6 	c #311515",
"(6 	c #200407",
"_6 	c #955B4F",
":6 	c #784A3D",
"<6 	c #120000",
"[6 	c #592B2D",
"}6 	c #904F54",
"|6 	c #340C0F",
"16 	c #3E1517",
"26 	c #281B23",
"36 	c #50444D",
"46 	c #291F27",
"56 	c #150A11",
"66 	c #42343C",
"76 	c #2E2328",
"86 	c #10070D",
"96 	c #362A34",
"06 	c #1F131D",
"a6 	c #1E1319",
"b6 	c #342633",
"c6 	c #34311E",
"d6 	c #898C6E",
"e6 	c #020600",
"f6 	c #6E7972",
"g6 	c #62676C",
"h6 	c #15061D",
"i6 	c #4A2D4C",
"j6 	c #1D0318",
"k6 	c #33152C",
"l6 	c #2B0D22",
"m6 	c #422434",
"n6 	c #40292C",
"o6 	c #453037",
"p6 	c #452939",
"q6 	c #492529",
"r6 	c #5C322C",
"s6 	c #603A2A",
"t6 	c #5B3924",
"u6 	c #5E3824",
"v6 	c #4D261E",
"w6 	c #431E1E",
"x6 	c #4F1E28",
"y6 	c #470E17",
"z6 	c #4A1B24",
"A6 	c #350B17",
"B6 	c #471120",
"C6 	c #360E18",
"D6 	c #4E1828",
"E6 	c #20090E",
"F6 	c #5C313B",
"G6 	c #160000",
"H6 	c #59353A",
"I6 	c #2D181A",
"J6 	c #1D0D13",
"K6 	c #523946",
"L6 	c #10020A",
"M6 	c #311728",
"N6 	c #312334",
"O6 	c #291430",
"P6 	c #22122C",
"Q6 	c #060009",
"R6 	c #221138",
"S6 	c #230D37",
"T6 	c #1B0926",
"U6 	c #1F0C2F",
"V6 	c #230C35",
"W6 	c #180821",
"X6 	c #2C1B3E",
"Y6 	c #0C041A",
"Z6 	c #030009",
"`6 	c #2A1D35",
" 7 	c #322743",
".7 	c #09050E",
"+7 	c #2B2235",
"@7 	c #413650",
"#7 	c #1E1521",
"$7 	c #06030C",
"%7 	c #30233A",
"&7 	c #41314B",
"*7 	c #2D1F33",
"=7 	c #070109",
"-7 	c #0D040C",
";7 	c #2F1C33",
">7 	c #3A2342",
",7 	c #341F41",
"'7 	c #160A1D",
")7 	c #03000D",
"!7 	c #1D1231",
"~7 	c #2C194A",
"{7 	c #2D1851",
"]7 	c #281645",
"^7 	c #100523",
"/7 	c #0E0A2D",
"(7 	c #231D59",
"_7 	c #231D63",
":7 	c #262064",
"<7 	c #1D1C4E",
"[7 	c #04051C",
"}7 	c #090B29",
"|7 	c #1B2554",
"17 	c #172760",
"27 	c #152563",
"37 	c #192857",
"47 	c #060E24",
"57 	c #101C3B",
"67 	c #122650",
"77 	c #0F2150",
"87 	c #131F47",
"97 	c #111730",
"07 	c #0F1023",
"a7 	c #15102B",
"b7 	c #150A29",
"c7 	c #190D28",
"d7 	c #0C0615",
"e7 	c #110718",
"f7 	c #190A25",
"g7 	c #190C24",
"h7 	c #0E0614",
"i7 	c #08000B",
"j7 	c #1A0A1F",
"k7 	c #1E0825",
"l7 	c #1F0826",
"m7 	c #130819",
"n7 	c #090512",
"o7 	c #190E25",
"p7 	c #1D0B26",
"q7 	c #190A21",
"r7 	c #0F151B",
"s7 	c #222E34",
"t7 	c #2E363D",
"u7 	c #0E0F16",
"v7 	c #110918",
"w7 	c #170D1E",
"x7 	c #0F0814",
"y7 	c #0B0C1B",
"z7 	c #191B31",
"A7 	c #100F21",
"B7 	c #020008",
"C7 	c #190E1A",
"D7 	c #281C2B",
"E7 	c #120A16",
"F7 	c #131417",
"G7 	c #48464D",
"H7 	c #322F34",
"I7 	c #251E18",
"J7 	c #847C6C",
"K7 	c #4D493C",
"L7 	c #45342D",
"M7 	c #B38D8A",
"N7 	c #5E4745",
"O7 	c #51302F",
"P7 	c #B3707C",
"Q7 	c #3B262E",
"R7 	c #8D574B",
"S7 	c #A96561",
"T7 	c #13080A",
"U7 	c #311812",
"V7 	c #B1625B",
"W7 	c #633233",
"X7 	c #743E40",
"Y7 	c #884549",
"Z7 	c #160501",
"`7 	c #422A27",
" 8 	c #7B474B",
".8 	c #1C1316",
"+8 	c #513F4A",
"@8 	c #362A33",
"#8 	c #070509",
"$8 	c #3D2C36",
"%8 	c #372A32",
"&8 	c #080407",
"*8 	c #0C0005",
"=8 	c #35202C",
"-8 	c #2D202A",
";8 	c #0C040D",
">8 	c #352835",
",8 	c #1B0F1A",
"'8 	c #828564",
")8 	c #474D31",
"!8 	c #0F1314",
"~8 	c #9FA4A7",
"{8 	c #1F1A26",
"]8 	c #38253A",
"^8 	c #31162C",
"/8 	c #2A0A21",
"(8 	c #2B0C21",
"_8 	c #371B2D",
":8 	c #351D29",
"<8 	c #4C3A3E",
"[8 	c #4A2C39",
"}8 	c #4D292A",
"|8 	c #583127",
"18 	c #66402D",
"28 	c #593521",
"38 	c #5E3828",
"48 	c #4E2821",
"58 	c #451E1C",
"68 	c #512229",
"78 	c #460E16",
"88 	c #461B22",
"98 	c #390E19",
"08 	c #44111F",
"a8 	c #39111C",
"b8 	c #4F1D2C",
"c8 	c #1D070B",
"d8 	c #643842",
"e8 	c #130000",
"f8 	c #4D2E34",
"g8 	c #3E252C",
"h8 	c #120209",
"i8 	c #4F3644",
"j8 	c #1E0C19",
"k8 	c #1A0817",
"l8 	c #39293D",
"m8 	c #0E0315",
"n8 	c #150520",
"o8 	c #2D1841",
"p8 	c #0D000D",
"q8 	c #12051B",
"r8 	c #24133D",
"s8 	c #070013",
"t8 	c #0F0415",
"u8 	c #23103C",
"v8 	c #0B0015",
"w8 	c #0E020C",
"x8 	c #25113F",
"y8 	c #110420",
"z8 	c #23123B",
"A8 	c #20113F",
"B8 	c #342444",
"C8 	c #241732",
"D8 	c #06060E",
"E8 	c #302A3D",
"F8 	c #402F4A",
"G8 	c #120F1B",
"H8 	c #0B060C",
"I8 	c #312535",
"J8 	c #3F2E4D",
"K8 	c #2A1A37",
"L8 	c #060408",
"M8 	c #291D32",
"N8 	c #39214A",
"O8 	c #321E47",
"P8 	c #190D26",
"Q8 	c #170D2B",
"R8 	c #2B164D",
"S8 	c #2B1755",
"T8 	c #291652",
"U8 	c #13082C",
"V8 	c #080627",
"W8 	c #201B53",
"X8 	c #251E65",
"Y8 	c #231F67",
"Z8 	c #1E1E52",
"`8 	c #05061C",
" 9 	c #080C23",
".9 	c #1A2453",
"+9 	c #172467",
"@9 	c #152565",
"#9 	c #152650",
"$9 	c #010B1A",
"%9 	c #020618",
"&9 	c #13203E",
"*9 	c #11214E",
"=9 	c #101D49",
"-9 	c #151D3E",
";9 	c #0A0E21",
">9 	c #090818",
",9 	c #16102B",
"'9 	c #150A2B",
")9 	c #180B28",
"!9 	c #11091B",
"~9 	c #180A22",
"{9 	c #180724",
"]9 	c #1A0B23",
"^9 	c #110716",
"/9 	c #07010A",
"(9 	c #190B20",
"_9 	c #1D0824",
":9 	c #1D0B24",
"<9 	c #100616",
"[9 	c #1B0C23",
"}9 	c #120718",
"|9 	c #020306",
"19 	c #1B2228",
"29 	c #2B373D",
"39 	c #262E33",
"49 	c #060209",
"59 	c #140B1C",
"69 	c #07020C",
"79 	c #050310",
"89 	c #181829",
"99 	c #161728",
"09 	c #050410",
"a9 	c #0F0710",
"b9 	c #261B27",
"c9 	c #09080C",
"d9 	c #424146",
"e9 	c #413E46",
"f9 	c #050305",
"g9 	c #15110D",
"h9 	c #777064",
"i9 	c #5F564A",
"j9 	c #36291D",
"k9 	c #AC9079",
"l9 	c #694C4D",
"m9 	c #4E332C",
"n9 	c #AB777A",
"o9 	c #3A1E2B",
"p9 	c #0A0000",
"q9 	c #926258",
"r9 	c #955F51",
"s9 	c #4E2125",
"t9 	c #B16860",
"u9 	c #43241C",
"v9 	c #130102",
"w9 	c #8C494C",
"x9 	c #6D3B3D",
"y9 	c #100000",
"z9 	c #6A2E36",
"A9 	c #7B3E45",
"B9 	c #120200",
"C9 	c #4D4047",
"D9 	c #3A2933",
"E9 	c #060207",
"F9 	c #332C33",
"G9 	c #3D2D37",
"H9 	c #0F060B",
"I9 	c #2D1B26",
"J9 	c #392431",
"K9 	c #0E040D",
"L9 	c #2A202C",
"M9 	c #2C1F2B",
"N9 	c #4C493A",
"O9 	c #898E70",
"P9 	c #6E7577",
"Q9 	c #6C6A75",
"R9 	c #4C334B",
"S9 	c #1D0115",
"T9 	c #36152B",
"U9 	c #250618",
"V9 	c #422835",
"W9 	c #311C24",
"X9 	c #4E3B41",
"Y9 	c #3E252E",
"Z9 	c #492930",
"`9 	c #55322F",
" 0 	c #563023",
".0 	c #69422E",
"+0 	c #5D3621",
"@0 	c #543022",
"#0 	c #522D25",
"$0 	c #431A19",
"%0 	c #512427",
"&0 	c #491319",
"*0 	c #3D161C",
"=0 	c #42131E",
"-0 	c #3F0F19",
";0 	c #3F171F",
">0 	c #4D202B",
",0 	c #1C0608",
"'0 	c #6B3B45",
")0 	c #100101",
"!0 	c #41262E",
"~0 	c #4D303C",
"{0 	c #442D3B",
"]0 	c #2E182C",
"^0 	c #362439",
"/0 	c #1F0F24",
"(0 	c #28153E",
"_0 	c #1B0A24",
":0 	c #08000A",
"<0 	c #211137",
"[0 	c #140927",
"}0 	c #1E0D37",
"|0 	c #1A082D",
"10 	c #180B2C",
"20 	c #210E36",
"30 	c #100223",
"40 	c #281644",
"50 	c #150821",
"60 	c #1A0D25",
"70 	c #322144",
"80 	c #130E24",
"90 	c #0E0A17",
"00 	c #382A46",
"a0 	c #322B42",
"b0 	c #0A0813",
"c0 	c #0F0913",
"d0 	c #332641",
"e0 	c #3D2B4E",
"f0 	c #271930",
"g0 	c #07020F",
"h0 	c #291736",
"i0 	c #34214B",
"j0 	c #2F1F42",
"k0 	c #190E24",
"l0 	c #14072B",
"m0 	c #27154E",
"n0 	c #271557",
"o0 	c #291850",
"p0 	c #150A2F",
"q0 	c #06061C",
"r0 	c #1E1C4C",
"s0 	c #201E60",
"t0 	c #1F1F63",
"u0 	c #1C1F4C",
"v0 	c #05061B",
"w0 	c #090E2B",
"x0 	c #1A235C",
"y0 	c #132263",
"z0 	c #10265C",
"A0 	c #0D2145",
"B0 	c #000514",
"C0 	c #080D1F",
"D0 	c #152044",
"E0 	c #111B43",
"F0 	c #131A3F",
"G0 	c #121630",
"H0 	c #020310",
"I0 	c #03020D",
"J0 	c #140E24",
"K0 	c #170B28",
"L0 	c #180927",
"M0 	c #150B21",
"N0 	c #03010C",
"O0 	c #08040E",
"P0 	c #180B20",
"Q0 	c #170722",
"R0 	c #190A22",
"S0 	c #130717",
"T0 	c #08010B",
"U0 	c #1A0B1F",
"V0 	c #1C0823",
"W0 	c #1C0C23",
"X0 	c #0D0512",
"Y0 	c #15081E",
"Z0 	c #1B0D21",
"`0 	c #0B0D12",
" a 	c #252E34",
".a 	c #313D43",
"+a 	c #14191F",
"@a 	c #0C0614",
"#a 	c #160C1F",
"$a 	c #100818",
"%a 	c #110D22",
"&a 	c #1C192B",
"*a 	c #0D0C18",
"=a 	c #050206",
"-a 	c #261D26",
";a 	c #070409",
">a 	c #323135",
",a 	c #4E4C52",
"'a 	c #110E12",
")a 	c #040200",
"!a 	c #676153",
"~a 	c #72695C",
"{a 	c #080300",
"]a 	c #24181B",
"^a 	c #A88479",
"/a 	c #755B49",
"(a 	c #452D30",
"_a 	c #B77080",
":a 	c #3B202E",
"<a 	c #060200",
"[a 	c #9B625A",
"}a 	c #935C50",
"|a 	c #532F27",
"1a 	c #B46B5C",
"2a 	c #3D1416",
"3a 	c #1D0707",
"4a 	c #93584A",
"5a 	c #63302A",
"6a 	c #150000",
"7a 	c #763D43",
"8a 	c #6C383D",
"9a 	c #5D262E",
"0a 	c #35262E",
"aa 	c #0D0309",
"ba 	c #3B2833",
"ca 	c #3C2A35",
"da 	c #0E070D",
"ea 	c #261822",
"fa 	c #332932",
"ga 	c #100811",
"ha 	c #271927",
"ia 	c #342833",
"ja 	c #050003",
"ka 	c #292214",
"la 	c #9C9D79",
"ma 	c #222619",
"na 	c #283030",
"oa 	c #9BA5A4",
"pa 	c #130E1D",
"qa 	c #3D2743",
"ra 	c #311631",
"sa 	c #26091F",
"ta 	c #2D0E23",
"ua 	c #2F1523",
"va 	c #3A242C",
"wa 	c #412B31",
"xa 	c #452A36",
"ya 	c #492A35",
"za 	c #442427",
"Aa 	c #57352F",
"Ba 	c #5A3626",
"Ca 	c #613926",
"Da 	c #643B26",
"Ea 	c #4B2A1D",
"Fa 	c #4F2C24",
"Ga 	c #481E1B",
"Ha 	c #491C1E",
"Ia 	c #531A23",
"Ja 	c #351216",
"Ka 	c #4E1D28",
"La 	c #370A12",
"Ma 	c #471F26",
"Na 	c #4A222A",
"Oa 	c #1B0507",
"Pa 	c #6F3E47",
"Qa 	c #130607",
"Ra 	c #341B27",
"Sa 	c #583647",
"Ta 	c #36202E",
"Ua 	c #3F263C",
"Va 	c #07000E",
"Wa 	c #28152B",
"Xa 	c #321C34",
"Ya 	c #01000E",
"Za 	c #26153F",
"`a 	c #08000F",
" b 	c #14061D",
".b 	c #23103A",
"+b 	c #05000E",
"@b 	c #0F041A",
"#b 	c #280D3F",
"$b 	c #0B011A",
"%b 	c #250D37",
"&b 	c #150727",
"*b 	c #1C0A27",
"=b 	c #23123E",
"-b 	c #080215",
";b 	c #211634",
">b 	c #2C1E45",
",b 	c #0E0618",
"'b 	c #151121",
")b 	c #372B4A",
"!b 	c #2D233C",
"~b 	c #05040F",
"{b 	c #0D0913",
"]b 	c #31263F",
"^b 	c #372B4B",
"/b 	c #211A2D",
"(b 	c #040109",
"_b 	c #21172D",
":b 	c #2F2044",
"<b 	c #2E1C4A",
"[b 	c #1B1032",
"}b 	c #02000B",
"|b 	c #0C0523",
"1b 	c #1F1449",
"2b 	c #241856",
"3b 	c #140E37",
"4b 	c #04051D",
"5b 	c #1B1C4E",
"6b 	c #1D2062",
"7b 	c #1B2062",
"8b 	c #171E53",
"9b 	c #020520",
"0b 	c #0B1135",
"ab 	c #162359",
"bb 	c #0F225F",
"cb 	c #12265E",
"db 	c #0A193F",
"eb 	c #030202",
"fb 	c #0D132A",
"gb 	c #171C3D",
"hb 	c #12163C",
"ib 	c #161737",
"jb 	c #0D0B1D",
"kb 	c #0F0816",
"lb 	c #180826",
"mb 	c #150923",
"nb 	c #080414",
"ob 	c #050309",
"pb 	c #180722",
"qb 	c #1A0822",
"rb 	c #130617",
"sb 	c #09020C",
"tb 	c #190A1E",
"ub 	c #1A0923",
"vb 	c #1C0B24",
"wb 	c #170C1D",
"xb 	c #191B23",
"yb 	c #2F383F",
"zb 	c #03060C",
"Ab 	c #120B1D",
"Bb 	c #160921",
"Cb 	c #090213",
"Db 	c #05040A",
"Eb 	c #1D152D",
"Fb 	c #151322",
"Gb 	c #010109",
"Hb 	c #140E18",
"Ib 	c #2B1F2C",
"Jb 	c #140D14",
"Kb 	c #1C1F1D",
"Lb 	c #505253",
"Mb 	c #212022",
"Nb 	c #4A4738",
"Ob 	c #817A65",
"Pb 	c #1C140E",
"Qb 	c #10090D",
"Rb 	c #937970",
"Sb 	c #886C68",
"Tb 	c #382221",
"Ub 	c #A87E7D",
"Vb 	c #49262F",
"Wb 	c #9D6559",
"Xb 	c #975C54",
"Yb 	c #0F0000",
"Zb 	c #5A332D",
"`b 	c #B36B63",
" c 	c #30140D",
".c 	c #1E0D0A",
"+c 	c #A05553",
"@c 	c #64261E",
"#c 	c #814048",
"$c 	c #66383B",
"%c 	c #5E2E34",
"&c 	c #6F333D",
"*c 	c #0E0B0D",
"=c 	c #3B2E36",
"-c 	c #38242F",
";c 	c #100208",
">c 	c #271D26",
",c 	c #352431",
"'c 	c #0F0912",
")c 	c #241726",
"!c 	c #3B2837",
"~c 	c #130E08",
"{c 	c #979577",
"]c 	c #4E5335",
"^c 	c #030706",
"/c 	c #99A2A7",
"(c 	c #3E4246",
"_c 	c #1A0D20",
":c 	c #482C4A",
"<c 	c #190016",
"[c 	c #36182F",
"}c 	c #210516",
"|c 	c #432A37",
"1c 	c #2E1921",
"2c 	c #543D44",
"3c 	c #3D202C",
"4c 	c #4C2B35",
"5c 	c #512F26",
"6c 	c #66422F",
"7c 	c #57301D",
"8c 	c #643B28",
"9c 	c #4C281E",
"0c 	c #46261E",
"ac 	c #512523",
"bc 	c #3A1213",
"cc 	c #5C232E",
"dc 	c #28090D",
"ec 	c #5E2533",
"fc 	c #28060C",
"gc 	c #50272C",
"hc 	c #492025",
"ic 	c #73404A",
"jc 	c #18080B",
"kc 	c #27121E",
"lc 	c #603B4E",
"mc 	c #0F0209",
"nc 	c #20101D",
"oc 	c #472C47",
"pc 	c #0F0316",
"qc 	c #16071A",
"rc 	c #34203B",
"sc 	c #10051F",
"tc 	c #060210",
"uc 	c #271349",
"vc 	c #16061F",
"wc 	c #240E3D",
"xc 	c #160726",
"yc 	c #210835",
"zc 	c #1B0839",
"Ac 	c #180422",
"Bc 	c #220C40",
"Cc 	c #0B0109",
"Dc 	c #0A0009",
"Ec 	c #200F3F",
"Fc 	c #1D0D2F",
"Gc 	c #090413",
"Hc 	c #2A173F",
"Ic 	c #29143B",
"Jc 	c #1D132B",
"Kc 	c #35294A",
"Lc 	c #241E39",
"Mc 	c #050112",
"Nc 	c #0C0A13",
"Oc 	c #2E2540",
"Pc 	c #362845",
"Qc 	c #241931",
"Rc 	c #1B1231",
"Sc 	c #2D1D4F",
"Tc 	c #2A1B4B",
"Uc 	c #1D1432",
"Vc 	c #04010A",
"Wc 	c #06031B",
"Xc 	c #1C1346",
"Yc 	c #21135B",
"Zc 	c #22155F",
"`c 	c #18113F",
" d 	c #03031C",
".d 	c #161A49",
"+d 	c #1A1F67",
"@d 	c #171E6B",
"#d 	c #131C4E",
"$d 	c #000516",
"%d 	c #0C1236",
"&d 	c #14235D",
"*d 	c #0A2163",
"=d 	c #10255B",
"-d 	c #09102D",
";d 	c #020101",
">d 	c #020410",
",d 	c #14172F",
"'d 	c #15173B",
")d 	c #141336",
"!d 	c #161128",
"~d 	c #09020F",
"{d 	c #170B1D",
"]d 	c #170724",
"^d 	c #160923",
"/d 	c #0D0718",
"(d 	c #13091B",
"_d 	c #190723",
":d 	c #190822",
"<d 	c #14051A",
"[d 	c #18091F",
"}d 	c #1B0722",
"|d 	c #18091E",
"1d 	c #1D0A25",
"2d 	c #1D0C24",
"3d 	c #030507",
"4d 	c #242D31",
"5d 	c #353F45",
"6d 	c #1B242A",
"7d 	c #0E0613",
"8d 	c #150B22",
"9d 	c #10081B",
"0d 	c #110E1C",
"ad 	c #1E172E",
"bd 	c #08030C",
"cd 	c #271D2D",
"dd 	c #211823",
"ed 	c #0B0B0D",
"fd 	c #494C4C",
"gd 	c #3A3B3D",
"hd 	c #2F271D",
"id 	c #86816F",
"jd 	c #322E21",
"kd 	c #7F635D",
"ld 	c #9A7E6E",
"md 	c #100D0C",
"nd 	c #2D1219",
"od 	c #B47377",
"pd 	c #583635",
"qd 	c #96574F",
"rd 	c #A56057",
"sd 	c #592B29",
"td 	c #B37063",
"ud 	c #311312",
"vd 	c #290A07",
"wd 	c #9D5D4B",
"xd 	c #582825",
"yd 	c #110000",
"zd 	c #7E4548",
"Ad 	c #68383B",
"Bd 	c #6C2934",
"Cd 	c #723841",
"Dd 	c #20161E",
"Ed 	c #3D3136",
"Fd 	c #271D21",
"Gd 	c #0C0309",
"Hd 	c #2C202A",
"Id 	c #2E222B",
"Jd 	c #0E040B",
"Kd 	c #281A2B",
"Ld 	c #382938",
"Md 	c #0E040C",
"Nd 	c #120D03",
"Od 	c #8D8C72",
"Pd 	c #666C57",
"Qd 	c #828A87",
"Rd 	c #6E7078",
"Sd 	c #07000F",
"Td 	c #4E3550",
"Ud 	c #24071E",
"Vd 	c #2E0F26",
"Wd 	c #280B1E",
"Xd 	c #331926",
"Yd 	c #3A212E",
"Zd 	c #412C36",
"`d 	c #472F39",
" e 	c #472B38",
".e 	c #44232B",
"+e 	c #583630",
"@e 	c #512F1E",
"#e 	c #644029",
"$e 	c #5C3822",
"%e 	c #572E1F",
"&e 	c #593127",
"*e 	c #391E15",
"=e 	c #5B2C2C",
"-e 	c #330F11",
";e 	c #592734",
">e 	c #230509",
",e 	c #6C293B",
"'e 	c #170206",
")e 	c #5F3034",
"!e 	c #461B1D",
"~e 	c #1A0408",
"{e 	c #77424E",
"]e 	c #1F090E",
"^e 	c #1C0D16",
"/e 	c #623B51",
"(e 	c #1D0A15",
"_e 	c #432B45",
":e 	c #220C25",
"<e 	c #06000C",
"[e 	c #271C37",
"}e 	c #250E3D",
"|e 	c #01000F",
"1e 	c #1F093A",
"2e 	c #281134",
"3e 	c #16042C",
"4e 	c #250E3C",
"5e 	c #07000D",
"6e 	c #110218",
"7e 	c #260D4A",
"8e 	c #0D0019",
"9e 	c #070108",
"0e 	c #23093B",
"ae 	c #1B0826",
"be 	c #0E0420",
"ce 	c #281039",
"de 	c #14041B",
"ee 	c #13071C",
"fe 	c #2C1749",
"ge 	c #1D0E36",
"he 	c #1F1530",
"ie 	c #34254D",
"je 	c #221839",
"ke 	c #0E0A14",
"le 	c #2D223E",
"me 	c #36254B",
"ne 	c #221634",
"oe 	c #05020F",
"pe 	c #01000C",
"qe 	c #150E2B",
"re 	c #261A45",
"se 	c #291A4F",
"te 	c #1F113E",
"ue 	c #080314",
"ve 	c #060217",
"we 	c #1B0D43",
"xe 	c #21115E",
"ye 	c #221559",
"ze 	c #18103D",
"Ae 	c #030113",
"Be 	c #020212",
"Ce 	c #16194E",
"De 	c #191E69",
"Ee 	c #182161",
"Fe 	c #121E47",
"Ge 	c #000614",
"He 	c #00020E",
"Ie 	c #0B1842",
"Je 	c #0D2562",
"Ke 	c #09225C",
"Le 	c #131E49",
"Me 	c #07081F",
"Ne 	c #080A19",
"Oe 	c #151634",
"Pe 	c #131133",
"Qe 	c #17112E",
"Re 	c #0E081B",
"Se 	c #120919",
"Te 	c #160724",
"Ue 	c #150822",
"Ve 	c #110919",
"We 	c #180824",
"Xe 	c #0B0310",
"Ye 	c #1A0A22",
"Ze 	c #1C0725",
"`e 	c #18081F",
" f 	c #0E0516",
".f 	c #1D0927",
"+f 	c #1C0B22",
"@f 	c #0E050C",
"#f 	c #0C1416",
"$f 	c #2B3D3D",
"%f 	c #2F3C3F",
"&f 	c #0A0F15",
"*f 	c #14091A",
"=f 	c #160C24",
"-f 	c #1B1330",
";f 	c #161323",
">f 	c #010208",
",f 	c #1A121D",
"'f 	c #2D1E33",
")f 	c #39363D",
"!f 	c #524E53",
"~f 	c #0B090C",
"{f 	c #120B05",
"]f 	c #7E6F58",
"^f 	c #555047",
"/f 	c #59433A",
"(f 	c #B18A76",
"_f 	c #30211C",
":f 	c #110102",
"<f 	c #A16C69",
"[f 	c #764C50",
"}f 	c #7F4F42",
"|f 	c #B36C66",
"1f 	c #140003",
"2f 	c #45251F",
"3f 	c #BF6E67",
"4f 	c #3C1718",
"5f 	c #220505",
"6f 	c #9C5B52",
"7f 	c #592E27",
"8f 	c #7C4448",
"9f 	c #6C3D37",
"0f 	c #5C2A2E",
"af 	c #7C3A45",
"bf 	c #170000",
"cf 	c #351319",
"df 	c #3A2E35",
"ef 	c #170D13",
"ff 	c #191016",
"gf 	c #32252F",
"hf 	c #251924",
"if 	c #0A0106",
"jf 	c #2E2130",
"kf 	c #342835",
"lf 	c #141009",
"mf 	c #8E8D75",
"nf 	c #737761",
"of 	c #6F7670",
"pf 	c #8B8D94",
"qf 	c #06010E",
"rf 	c #442C46",
"sf 	c #331732",
"tf 	c #23031E",
"uf 	c #381731",
"vf 	c #200618",
"wf 	c #492E3B",
"xf 	c #2D141F",
"yf 	c #553E48",
"zf 	c #391F28",
"Af 	c #4E3038",
"Bf 	c #482729",
"Cf 	c #553128",
"Df 	c #633F2E",
"Ef 	c #57351E",
"Ff 	c #66432E",
"Gf 	c #4D2518",
"Hf 	c #573428",
"If 	c #3F2119",
"Jf 	c #502825",
"Kf 	c #41161A",
"Lf 	c #4B232A",
"Mf 	c #310C11",
"Nf 	c #6A2D3C",
"Of 	c #150002",
"Pf 	c #6D3C41",
"Qf 	c #391818",
"Rf 	c #16050A",
"Sf 	c #764351",
"Tf 	c #220F14",
"Uf 	c #10030C",
"Vf 	c #5C384D",
"Wf 	c #2A1426",
"Xf 	c #3A243C",
"Yf 	c #321A38",
"Zf 	c #190E28",
"`f 	c #311A47",
" g 	c #0A0116",
".g 	c #10021B",
"+g 	c #281343",
"@g 	c #0F0522",
"#g 	c #230D43",
"$g 	c #16092E",
"%g 	c #090009",
"&g 	c #1E0938",
"*g 	c #1C0A35",
"=g 	c #140120",
"-g 	c #220F37",
";g 	c #0D031E",
">g 	c #050009",
",g 	c #1B0827",
"'g 	c #240E38",
")g 	c #0D0116",
"!g 	c #140D24",
"~g 	c #24183B",
"{g 	c #180929",
"]g 	c #04010E",
"^g 	c #211636",
"/g 	c #2E2244",
"(g 	c #1E1431",
"_g 	c #0D0719",
":g 	c #2B1E3E",
"<g 	c #312346",
"[g 	c #241736",
"}g 	c #120A24",
"|g 	c #231647",
"1g 	c #271751",
"2g 	c #211143",
"3g 	c #0A031D",
"4g 	c #020113",
"5g 	c #160C43",
"6g 	c #20135B",
"7g 	c #21155D",
"8g 	c #181143",
"9g 	c #020111",
"0g 	c #02031C",
"ag 	c #131A48",
"bg 	c #171F5B",
"cg 	c #172161",
"dg 	c #111A47",
"eg 	c #000314",
"fg 	c #101D47",
"gg 	c #0C2258",
"hg 	c #0C2154",
"ig 	c #0B1C43",
"jg 	c #000413",
"kg 	c #000109",
"lg 	c #0E1027",
"mg 	c #151433",
"ng 	c #150E2E",
"og 	c #150D25",
"pg 	c #170923",
"qg 	c #150721",
"rg 	c #12091C",
"sg 	c #07010C",
"tg 	c #130619",
"ug 	c #180823",
"vg 	c #15071C",
"wg 	c #0A0210",
"xg 	c #1B0725",
"yg 	c #190A1F",
"zg 	c #1E272A",
"Ag 	c #334245",
"Bg 	c #222C2F",
"Cg 	c #08040D",
"Dg 	c #11091C",
"Eg 	c #120C1C",
"Fg 	c #0A0715",
"Gg 	c #0A080E",
"Hg 	c #28212C",
"Ig 	c #1E1223",
"Jg 	c #1B191E",
"Kg 	c #595459",
"Lg 	c #272122",
"Mg 	c #5C5040",
"Ng 	c #7B705F",
"Og 	c #060604",
"Pg 	c #311F17",
"Qg 	c #AB8978",
"Rg 	c #533F3F",
"Sg 	c #895449",
"Tg 	c #916662",
"Ug 	c #5F352B",
"Vg 	c #BA7E6D",
"Wg 	c #221211",
"Xg 	c #2C150C",
"Yg 	c #C06F5F",
"Zg 	c #522229",
"`g 	c #9C514C",
" h 	c #6A3738",
".h 	c #743C39",
"+h 	c #874143",
"@h 	c #4E2024",
"#h 	c #89414C",
"$h 	c #200505",
"%h 	c #250B0D",
"&h 	c #6C2F3E",
"*h 	c #0A0105",
"=h 	c #0A0108",
"-h 	c #261A23",
";h 	c #30242D",
">h 	c #170D15",
",h 	c #160C17",
"'h 	c #352839",
")h 	c #281F2A",
"!h 	c #242314",
"~h 	c #9C9D77",
"{h 	c #686D57",
"]h 	c #717570",
"^h 	c #98969D",
"/h 	c #090612",
"(h 	c #39253C",
"_h 	c #43223F",
":h 	c #1C0018",
"<h 	c #3C1836",
"[h 	c #1D0015",
"}h 	c #432B3A",
"|h 	c #321821",
"1h 	c #503741",
"2h 	c #3E2831",
"3h 	c #4A3037",
"4h 	c #412125",
"5h 	c #5B3732",
"6h 	c #4F291C",
"7h 	c #694634",
"8h 	c #56331F",
"9h 	c #5C3927",
"0h 	c #583222",
"ah 	c #47251B",
"bh 	c #523229",
"ch 	c #371511",
"dh 	c #5A292D",
"eh 	c #311214",
"fh 	c #4B1D22",
"gh 	c #57262F",
"hh 	c #180103",
"ih 	c #7B454B",
"jh 	c #2B1411",
"kh 	c #17090F",
"lh 	c #744353",
"mh 	c #241319",
"nh 	c #080007",
"oh 	c #533248",
"ph 	c #361D36",
"qh 	c #25142A",
"rh 	c #3B2244",
"sh 	c #0E011B",
"th 	c #080116",
"uh 	c #2E1A43",
"vh 	c #1D0C2E",
"wh 	c #1F0D3D",
"xh 	c #220F3E",
"yh 	c #160534",
"zh 	c #230F47",
"Ah 	c #0A0011",
"Bh 	c #0D011E",
"Ch 	c #220F41",
"Dh 	c #110422",
"Eh 	c #190733",
"Fh 	c #1C0A34",
"Gh 	c #09000A",
"Hh 	c #0A0013",
"Ih 	c #210A39",
"Jh 	c #1F072F",
"Kh 	c #05000C",
"Lh 	c #010207",
"Mh 	c #180E2B",
"Nh 	c #261044",
"Oh 	c #0E0719",
"Ph 	c #070114",
"Qh 	c #211532",
"Rh 	c #2E1D46",
"Sh 	c #1B112B",
"Th 	c #0D051B",
"Uh 	c #27193B",
"Vh 	c #2F1F46",
"Wh 	c #221938",
"Xh 	c #080413",
"Yh 	c #0D071C",
"Zh 	c #221543",
"`h 	c #241152",
" i 	c #1F1142",
".i 	c #02000E",
"+i 	c #130C3A",
"@i 	c #1F1360",
"#i 	c #1F1562",
"$i 	c #171349",
"%i 	c #030119",
"&i 	c #010517",
"*i 	c #111A49",
"=i 	c #141B66",
"-i 	c #171F63",
";i 	c #0F163E",
">i 	c #00010B",
",i 	c #030519",
"'i 	c #0F1F4B",
")i 	c #072259",
"!i 	c #052256",
"~i 	c #061430",
"{i 	c #030412",
"]i 	c #131129",
"^i 	c #150D2D",
"/i 	c #150B28",
"(i 	c #0D0617",
"_i 	c #13091F",
":i 	c #150820",
"<i 	c #0A0213",
"[i 	c #110517",
"}i 	c #170721",
"|i 	c #14061A",
"1i 	c #190921",
"2i 	c #1B0824",
"3i 	c #120719",
"4i 	c #15081D",
"5i 	c #190924",
"6i 	c #14081A",
"7i 	c #05090C",
"8i 	c #2E373D",
"9i 	c #313D41",
"0i 	c #12191C",
"ai 	c #0F0717",
"bi 	c #180D21",
"ci 	c #1D1528",
"di 	c #191125",
"ei 	c #1D1723",
"fi 	c #26202B",
"gi 	c #49464A",
"hi 	c #464043",
"ii 	c #2E261D",
"ji 	c #897C6A",
"ki 	c #2D241B",
"li 	c #060302",
"mi 	c #927463",
"ni 	c #8D6654",
"oi 	c #553337",
"pi 	c #B17D72",
"qi 	c #1B0C0F",
"ri 	c #341812",
"si 	c #C7826C",
"ti 	c #492522",
"ui 	c #140200",
"vi 	c #B86A57",
"wi 	c #753A32",
"xi 	c #8C4846",
"yi 	c #8C453E",
"zi 	c #672E39",
"Ai 	c #8F5149",
"Bi 	c #180200",
"Ci 	c #39161C",
"Di 	c #8B4A52",
"Ei 	c #370C10",
"Fi 	c #130403",
"Gi 	c #682F3D",
"Hi 	c #48111F",
"Ii 	c #1A1019",
"Ji 	c #302330",
"Ki 	c #251A25",
"Li 	c #0A0109",
"Mi 	c #090007",
"Ni 	c #271C23",
"Oi 	c #382C38",
"Pi 	c #180F1C",
"Qi 	c #474832",
"Ri 	c #A5A983",
"Si 	c #4D5336",
"Ti 	c #7D7F7C",
"Ui 	c #97949B",
"Vi 	c #0F0715",
"Wi 	c #341E37",
"Xi 	c #492A44",
"Yi 	c #190010",
"Zi 	c #3C1A35",
"`i 	c #24071C",
" j 	c #361D2A",
".j 	c #382025",
"+j 	c #533B45",
"@j 	c #3A222D",
"#j 	c #4C2F35",
"$j 	c #4D2B2A",
"%j 	c #542E23",
"&j 	c #65402C",
"*j 	c #532F1D",
"=j 	c #684532",
"-j 	c #472514",
";j 	c #5E3D2C",
">j 	c #381710",
",j 	c #5D3C32",
"'j 	c #290C08",
")j 	c #693839",
"!j 	c #1E0302",
"~j 	c #653438",
"{j 	c #391618",
"]j 	c #210B0E",
"^j 	c #854951",
"/j 	c #1D0B0A",
"(j 	c #180A12",
"_j 	c #744356",
":j 	c #26181E",
"<j 	c #48283F",
"[j 	c #422544",
"}j 	c #060010",
"|j 	c #16071B",
"1j 	c #3C2248",
"2j 	c #1F0E2F",
"3j 	c #020011",
"4j 	c #1E0E30",
"5j 	c #2F164A",
"6j 	c #080010",
"7j 	c #0D021E",
"8j 	c #2D144E",
"9j 	c #120427",
"0j 	c #070015",
"aj 	c #260F48",
"bj 	c #180837",
"cj 	c #1A0832",
"dj 	c #210C3E",
"ej 	c #050011",
"fj 	c #0B001E",
"gj 	c #210C36",
"hj 	c #150522",
"ij 	c #04000E",
"jj 	c #10021F",
"kj 	c #240C36",
"lj 	c #160625",
"mj 	c #040009",
"nj 	c #1D0E37",
"oj 	c #201237",
"pj 	c #090112",
"qj 	c #211133",
"rj 	c #2C1B41",
"sj 	c #190E29",
"tj 	c #03000F",
"uj 	c #090416",
"vj 	c #221635",
"wj 	c #2B1D4D",
"xj 	c #22173D",
"yj 	c #0C0617",
"zj 	c #080415",
"Aj 	c #1B103D",
"Bj 	c #22134A",
"Cj 	c #201248",
"Dj 	c #0C072A",
"Ej 	c #100B3A",
"Fj 	c #1D165B",
"Gj 	c #1C1564",
"Hj 	c #171150",
"Ij 	c #04021C",
"Jj 	c #01041D",
"Kj 	c #151B51",
"Lj 	c #131C61",
"Mj 	c #16205A",
"Nj 	c #0A1337",
"Oj 	c #050D27",
"Pj 	c #0D2151",
"Qj 	c #051F58",
"Rj 	c #0B1E47",
"Sj 	c #03081C",
"Tj 	c #0C0A19",
"Uj 	c #160E27",
"Vj 	c #150827",
"Wj 	c #130920",
"Xj 	c #130620",
"Yj 	c #0E0318",
"Zj 	c #0F0313",
"`j 	c #170720",
" k 	c #180820",
".k 	c #15071A",
"+k 	c #0F0615",
"@k 	c #190920",
"#k 	c #180A23",
"$k 	c #100817",
"%k 	c #0F161A",
"&k 	c #364047",
"*k 	c #272F36",
"=k 	c #04070B",
"-k 	c #160A21",
";k 	c #140B1F",
">k 	c #030106",
",k 	c #0E0A1B",
"'k 	c #20152E",
")k 	c #0F0714",
"!k 	c #0E0814",
"~k 	c #2D2434",
"{k 	c #18121D",
"]k 	c #2A2827",
"^k 	c #5B5756",
"/k 	c #171111",
"(k 	c #0D0503",
"_k 	c #77695A",
":k 	c #5B5141",
"<k 	c #5E473B",
"[k 	c #A58677",
"}k 	c #2C120D",
"|k 	c #250E0D",
"1k 	c #AC7D73",
"2k 	c #50302F",
"3k 	c #AA725E",
"4k 	c #834B39",
"5k 	c #925149",
"6k 	c #975C4C",
"7k 	c #5E312A",
"8k 	c #A55759",
"9k 	c #1E0202",
"0k 	c #3B1B1B",
"ak 	c #A65360",
"bk 	c #340E0E",
"ck 	c #130807",
"dk 	c #864952",
"ek 	c #4F2024",
"fk 	c #50272E",
"gk 	c #622232",
"hk 	c #130002",
"ik 	c #2A1D2D",
"jk 	c #110815",
"kk 	c #1A0F19",
"lk 	c #362932",
"mk 	c #2D222A",
"nk 	c #040001",
"ok 	c #110F03",
"pk 	c #7C7D55",
"qk 	c #9DA375",
"rk 	c #272B1A",
"sk 	c #0C0D14",
"tk 	c #959698",
"uk 	c #87858C",
"vk 	c #070410",
"wk 	c #352038",
"xk 	c #4F2C48",
"yk 	c #19000F",
"zk 	c #35182C",
"Ak 	c #290F22",
"Bk 	c #270F1E",
"Ck 	c #4D343D",
"Dk 	c #2A1114",
"Ek 	c #60484B",
"Fk 	c #2E1820",
"Gk 	c #543A45",
"Hk 	c #3A1B21",
"Ik 	c #603C38",
"Jk 	c #50291A",
"Kk 	c #6E4931",
"Lk 	c #55301C",
"Mk 	c #613E2C",
"Nk 	c #512F1F",
"Ok 	c #4A2D1F",
"Pk 	c #4C2922",
"Qk 	c #482720",
"Rk 	c #3B1F1A",
"Sk 	c #5F2F2F",
"Tk 	c #1E0704",
"Uk 	c #764647",
"Vk 	c #1C0604",
"Wk 	c #331D20",
"Xk 	c #854750",
"Yk 	c #120302",
"Zk 	c #1C0A15",
"`k 	c #704154",
" l 	c #2B1E24",
".l 	c #391B33",
"+l 	c #4A2C4F",
"@l 	c #10071C",
"#l 	c #09000F",
"$l 	c #341A43",
"%l 	c #301E42",
"&l 	c #050115",
"*l 	c #0D021D",
"=l 	c #34165A",
"-l 	c #150A2C",
";l 	c #260A46",
">l 	c #23104C",
",l 	c #170431",
"'l 	c #25105E",
")l 	c #090211",
"!l 	c #0A0015",
"~l 	c #230C4B",
"{l 	c #110928",
"]l 	c #180326",
"^l 	c #230B3E",
"/l 	c #0A0317",
"(l 	c #170528",
"_l 	c #250A3D",
":l 	c #16011F",
"<l 	c #1F0B40",
"[l 	c #1E0E35",
"}l 	c #09030F",
"|l 	c #090113",
"1l 	c #220F3B",
"2l 	c #2A1446",
"3l 	c #190F27",
"4l 	c #020207",
"5l 	c #1E1237",
"6l 	c #261A43",
"7l 	c #21173A",
"8l 	c #0D0920",
"9l 	c #040311",
"0l 	c #180D3E",
"al 	c #211056",
"bl 	c #1E104F",
"cl 	c #0F0933",
"dl 	c #0D0C32",
"el 	c #1B165C",
"fl 	c #1D1766",
"gl 	c #17144B",
"hl 	c #040219",
"il 	c #03051E",
"jl 	c #111B55",
"kl 	c #121E61",
"ll 	c #13205C",
"ml 	c #070F36",
"nl 	c #030200",
"ol 	c #071236",
"pl 	c #0C1E54",
"ql 	c #0C1D4F",
"rl 	c #0A183D",
"sl 	c #03030D",
"tl 	c #04020B",
"ul 	c #140C20",
"vl 	c #160825",
"wl 	c #130923",
"xl 	c #080411",
"yl 	c #0B0514",
"zl 	c #170523",
"Al 	c #12041D",
"Bl 	c #0C0210",
"Cl 	c #17081F",
"Dl 	c #140719",
"El 	c #0D0613",
"Fl 	c #190821",
"Gl 	c #180620",
"Hl 	c #0B040E",
"Il 	c #1A0922",
"Jl 	c #222B2F",
"Kl 	c #353F47",
"Ll 	c #171D25",
"Ml 	c #0C0413",
"Nl 	c #0D051A",
"Ol 	c #020204",
"Pl 	c #191329",
"Ql 	c #1C102A",
"Rl 	c #211926",
"Sl 	c #2A1F32",
"Tl 	c #09090A",
"Ul 	c #53524C",
"Vl 	c #3C3833",
"Wl 	c #483C35",
"Xl 	c #857465",
"Yl 	c #130C07",
"Zl 	c #241711",
"`l 	c #B1866C",
" m 	c #5B3F36",
".m 	c #926354",
"+m 	c #855D51",
"@m 	c #804A3C",
"#m 	c #AD7463",
"$m 	c #5F3024",
"%m 	c #BB7363",
"&m 	c #190B0A",
"*m 	c #3A1311",
"=m 	c #B66065",
"-m 	c #391616",
";m 	c #1B0406",
">m 	c #A25356",
",m 	c #562A25",
"'m 	c #7D3743",
")m 	c #783438",
"!m 	c #391418",
"~m 	c #722D3D",
"{m 	c #25050B",
"]m 	c #13091A",
"^m 	c #312335",
"/m 	c #332830",
"(m 	c #110B0B",
"_m 	c #4D482F",
":m 	c #A6A078",
"<m 	c #75765B",
"[m 	c #040900",
"}m 	c #333A38",
"|m 	c #A7AEB1",
"1m 	c #66646C",
"2m 	c #3F283F",
"3m 	c #4D2643",
"4m 	c #18000C",
"5m 	c #321629",
"6m 	c #2E1324",
"7m 	c #210915",
"8m 	c #533946",
"9m 	c #230C12",
"0m 	c #5D484C",
"am 	c #372027",
"bm 	c #54363E",
"cm 	c #3D1F28",
"dm 	c #613934",
"em 	c #45241A",
"fm 	c #724A31",
"gm 	c #4A2917",
"hm 	c #744C36",
"im 	c #422013",
"jm 	c #6A4737",
"km 	c #381209",
"lm 	c #6B463E",
"mm 	c #1C0E05",
"nm 	c #703A31",
"om 	c #311516",
"pm 	c #3E1D1E",
"qm 	c #76443E",
"rm 	c #4F3030",
"sm 	c #7D4349",
"tm 	c #1D0F16",
"um 	c #6A4051",
"vm 	c #321B2F",
"wm 	c #211420",
"xm 	c #4C2D53",
"ym 	c #250E33",
"zm 	c #1B0C2C",
"Am 	c #3A2152",
"Bm 	c #17062D",
"Cm 	c #230F40",
"Dm 	c #2A1655",
"Em 	c #06010F",
"Fm 	c #0F021F",
"Gm 	c #2E165F",
"Hm 	c #110425",
"Im 	c #220D56",
"Jm 	c #1C093E",
"Km 	c #120530",
"Lm 	c #250C55",
"Mm 	c #0E001E",
"Nm 	c #1A0A3F",
"Om 	c #1C0545",
"Pm 	c #20053A",
"Qm 	c #25053D",
"Rm 	c #0E0015",
"Sm 	c #0F031B",
"Tm 	c #210A3F",
"Um 	c #200839",
"Vm 	c #0C0010",
"Wm 	c #070313",
"Xm 	c #1F0F37",
"Ym 	c #25143E",
"Zm 	c #190C30",
"`m 	c #150E2F",
" n 	c #20154D",
".n 	c #201347",
"+n 	c #130A27",
"@n 	c #010013",
"#n 	c #120C36",
"$n 	c #1D104E",
"%n 	c #210D56",
"&n 	c #10083C",
"*n 	c #010014",
"=n 	c #0B0A32",
"-n 	c #1B1859",
";n 	c #1B1A5F",
">n 	c #171350",
",n 	c #02011C",
"'n 	c #040825",
")n 	c #121F4F",
"!n 	c #0D2062",
"~n 	c #0D1D5D",
"{n 	c #030925",
"]n 	c #00030D",
"^n 	c #0E163D",
"/n 	c #0D1A51",
"(n 	c #091D47",
"_n 	c #071121",
":n 	c #0C0717",
"<n 	c #120A22",
"[n 	c #130921",
"}n 	c #0D0817",
"|n 	c #06020D",
"1n 	c #15081F",
"2n 	c #170423",
"3n 	c #15051F",
"4n 	c #15091F",
"5n 	c #160620",
"6n 	c #16051C",
"7n 	c #180622",
"8n 	c #180721",
"9n 	c #0F0416",
"0n 	c #1A0724",
"an 	c #17091F",
"bn 	c #070208",
"cn 	c #03080B",
"dn 	c #2F3840",
"en 	c #2D333D",
"fn 	c #0B0E14",
"gn 	c #11081F",
"hn 	c #190B27",
"in 	c #06030A",
"jn 	c #0A0817",
"kn 	c #100711",
"ln 	c #2E2433",
"mn 	c #18111E",
"nn 	c #2F2E2B",
"on 	c #5A5652",
"pn 	c #0E0B08",
"qn 	c #160D08",
"rn 	c #827264",
"sn 	c #483B33",
"tn 	c #7F5F4E",
"un 	c #9E715F",
"vn 	c #090201",
"wn 	c #482D24",
"xn 	c #B57F71",
"yn 	c #270E10",
"zn 	c #2A1D14",
"An 	c #CA866B",
"Bn 	c #4D1D19",
"Cn 	c #1B0909",
"Dn 	c #BE715C",
"En 	c #5C302A",
"Fn 	c #A65148",
"Gn 	c #753A3C",
"Hn 	c #7D3939",
"In 	c #914850",
"Jn 	c #421D1C",
"Kn 	c #9C4852",
"Ln 	c #270B0A",
"Mn 	c #110203",
"Nn 	c #702836",
"On 	c #4B1923",
"Pn 	c #1F0512",
"Qn 	c #2D1F2E",
"Rn 	c #352A31",
"Sn 	c #190F1A",
"Tn 	c #2E2C23",
"Un 	c #8E8F6A",
"Vn 	c #9A9C70",
"Wn 	c #2F301D",
"Xn 	c #030703",
"Yn 	c #747779",
"Zn 	c #A8A7AE",
"`n 	c #363537",
" o 	c #4E314A",
".o 	c #471D39",
"+o 	c #33192F",
"@o 	c #341025",
"#o 	c #1C0710",
"$o 	c #573C4A",
"%o 	c #270F17",
"&o 	c #583F46",
"*o 	c #462C30",
"=o 	c #432932",
"-o 	c #4B2D38",
";o 	c #51292A",
">o 	c #56322F",
",o 	c #613821",
"'o 	c #5E3E29",
")o 	c #603724",
"!o 	c #573626",
"~o 	c #5A3423",
"{o 	c #4D2D20",
"]o 	c #4E2B22",
"^o 	c #54372F",
"/o 	c #2E140C",
"(o 	c #7B4440",
"_o 	c #6A403B",
":o 	c #5F302C",
"<o 	c #663F40",
"[o 	c #6E3C40",
"}o 	c #1C0F17",
"|o 	c #653F51",
"1o 	c #381E39",
"2o 	c #110B12",
"3o 	c #45294D",
"4o 	c #351849",
"5o 	c #04010F",
"6o 	c #351D50",
"7o 	c #2C144F",
"8o 	c #321D62",
"9o 	c #170B32",
"0o 	c #251149",
"ao 	c #271551",
"bo 	c #12042B",
"co 	c #2C1658",
"do 	c #0D0321",
"eo 	c #060013",
"fo 	c #250C48",
"go 	c #1D0941",
"ho 	c #0B021E",
"io 	c #230A4A",
"jo 	c #17042A",
"ko 	c #0E001A",
"lo 	c #200A38",
"mo 	c #1B0731",
"no 	c #110323",
"oo 	c #230B39",
"po 	c #1C092F",
"qo 	c #080111",
"ro 	c #050210",
"so 	c #190D30",
"to 	c #22123E",
"uo 	c #1A0D2D",
"vo 	c #110A2C",
"wo 	c #211344",
"xo 	c #231147",
"yo 	c #16092F",
"zo 	c #100834",
"Ao 	c #1D0B56",
"Bo 	c #1D0F57",
"Co 	c #140B3B",
"Do 	c #020012",
"Eo 	c #0B0932",
"Fo 	c #1A175F",
"Go 	c #1C1567",
"Ho 	c #16124B",
"Io 	c #0F2156",
"Jo 	c #0E1E63",
"Ko 	c #0F1C4C",
"Lo 	c #01041B",
"Mo 	c #03071D",
"No 	c #0F1946",
"Oo 	c #091B47",
"Po 	c #0D1A36",
"Qo 	c #03010D",
"Ro 	c #100A21",
"So 	c #12071F",
"To 	c #09030E",
"Uo 	c #11061A",
"Vo 	c #180623",
"Wo 	c #08010C",
"Xo 	c #04010B",
"Yo 	c #13081C",
"Zo 	c #170620",
"`o 	c #17041E",
" p 	c #0E061A",
".p 	c #190523",
"+p 	c #190621",
"@p 	c #07010D",
"#p 	c #11051A",
"$p 	c #1B0825",
"%p 	c #16081C",
"&p 	c #353C46",
"*p 	c #20232D",
"=p 	c #03040A",
"-p 	c #05020D",
";p 	c #140C26",
">p 	c #140922",
",p 	c #141024",
"'p 	c #1B1528",
")p 	c #221625",
"!p 	c #2C2231",
"~p 	c #0E0A0D",
"{p 	c #595653",
"]p 	c #383330",
"^p 	c #52483D",
"/p 	c #7C6C5D",
"(p 	c #0B0402",
"_p 	c #37221E",
":p 	c #B28673",
"<p 	c #422D23",
"[p 	c #0E0302",
"}p 	c #A57464",
"|p 	c #69443C",
"1p 	c #9E695B",
"2p 	c #945949",
"3p 	c #814E46",
"4p 	c #AA594E",
"5p 	c #5F302A",
"6p 	c #AD5B52",
"7p 	c #1C0403",
"8p 	c #391613",
"9p 	c #A85B57",
"0p 	c #361415",
"ap 	c #150204",
"bp 	c #8B4649",
"cp 	c #642D2D",
"dp 	c #40161C",
"ep 	c #722A39",
"fp 	c #220408",
"gp 	c #390D22",
"hp 	c #191118",
"ip 	c #252316",
"jp 	c #80825C",
"kp 	c #A0A27D",
"lp 	c #50503A",
"mp 	c #3B4543",
"np 	c #A5A9AB",
"op 	c #7D7783",
"pp 	c #140814",
"qp 	c #250F1F",
"rp 	c #55364D",
"sp 	c #31122A",
"tp 	c #140013",
"up 	c #421735",
"vp 	c #310E26",
"wp 	c #190813",
"xp 	c #593F4A",
"yp 	c #270F18",
"zp 	c #51373E",
"Ap 	c #53383E",
"Bp 	c #3B1E21",
"Cp 	c #593C44",
"Dp 	c #371920",
"Ep 	c #6B423D",
"Fp 	c #432018",
"Gp 	c #7F5538",
"Hp 	c #432513",
"Ip 	c #7B523B",
"Jp 	c #3A1C11",
"Kp 	c #734F3D",
"Lp 	c #2E0E06",
"Mp 	c #705348",
"Np 	c #1D0C05",
"Op 	c #703D32",
"Pp 	c #4E2529",
"Qp 	c #180902",
"Rp 	c #895849",
"Sp 	c #351113",
"Tp 	c #100203",
"Up 	c #784B52",
"Vp 	c #583137",
"Wp 	c #1C0E18",
"Xp 	c #5F3951",
"Yp 	c #3E2443",
"Zp 	c #060012",
"`p 	c #35203D",
" q 	c #41265D",
".q 	c #100720",
"+q 	c #210E3A",
"@q 	c #392168",
"#q 	c #100922",
"$q 	c #271550",
"%q 	c #2D1D59",
"&q 	c #0F0321",
"*q 	c #2F1C61",
"=q 	c #130833",
"-q 	c #24104E",
";q 	c #221056",
">q 	c #120419",
",q 	c #251058",
"'q 	c #130436",
")q 	c #150629",
"!q 	c #230B51",
"~q 	c #0F0125",
"{q 	c #0B041C",
"]q 	c #1F0A40",
"^q 	c #1D0333",
"/q 	c #040012",
"(q 	c #110519",
"_q 	c #1F0A3E",
":q 	c #1D0636",
"<q 	c #09010D",
"[q 	c #050110",
"}q 	c #180A2B",
"|q 	c #220F3A",
"1q 	c #1E0A37",
"2q 	c #10061F",
"3q 	c #210D47",
"4q 	c #230D53",
"5q 	c #190A3A",
"6q 	c #06000E",
"7q 	c #0C0730",
"8q 	c #1C0C53",
"9q 	c #1F0E55",
"0q 	c #170941",
"aq 	c #05001E",
"bq 	c #0A0835",
"cq 	c #1C1561",
"dq 	c #1F1866",
"eq 	c #141342",
"fq 	c #00020F",
"gq 	c #071030",
"hq 	c #121F5A",
"iq 	c #0F2161",
"jq 	c #0E1748",
"kq 	c #010015",
"lq 	c #060E27",
"mq 	c #0E1B47",
"nq 	c #0E1844",
"oq 	c #0D122A",
"pq 	c #000203",
"qq 	c #090519",
"rq 	c #120823",
"sq 	c #140720",
"tq 	c #0F0515",
"uq 	c #0C0414",
"vq 	c #160520",
"wq 	c #0B0311",
"xq 	c #12071B",
"yq 	c #16051D",
"zq 	c #0F0519",
"Aq 	c #1A0523",
"Bq 	c #18051F",
"Cq 	c #12061C",
"Dq 	c #1A0823",
"Eq 	c #120617",
"Fq 	c #21242D",
"Gq 	c #313642",
"Hq 	c #13141D",
"Iq 	c #0B0717",
"Jq 	c #160E28",
"Kq 	c #0D0618",
"Lq 	c #06040E",
"Mq 	c #1B1728",
"Nq 	c #140D1E",
"Oq 	c #0D060D",
"Pq 	c #2F2633",
"Qq 	c #1B141E",
"Rq 	c #302C2E",
"Sq 	c #5E5957",
"Tq 	c #0E0908",
"Uq 	c #1B100B",
"Vq 	c #84766A",
"Wq 	c #44342D",
"Xq 	c #926359",
"Yq 	c #98675A",
"Zq 	c #5E3D38",
"`q 	c #B97668",
" r 	c #110603",
".r 	c #492A23",
"+r 	c #D78371",
"@r 	c #2D0F0A",
"#r 	c #2F1713",
"$r 	c #C97568",
"%r 	c #491815",
"&r 	c #1E0605",
"*r 	c #B16257",
"=r 	c #612B25",
"-r 	c #8F4943",
";r 	c #84423F",
">r 	c #582026",
",r 	c #9F4351",
"'r 	c #200A09",
")r 	c #120102",
"!r 	c #6C2734",
"~r 	c #531B26",
"{r 	c #481128",
"]r 	c #262615",
"^r 	c #787A5C",
"/r 	c #A0A27E",
"(r 	c #5E613F",
"_r 	c #090B00",
":r 	c #2A292C",
"<r 	c #8F929B",
"[r 	c #969DA5",
"}r 	c #35333E",
"|r 	c #0B000D",
"1r 	c #42263E",
"2r 	c #522C48",
"3r 	c #240316",
"4r 	c #1B0417",
"5r 	c #471D3C",
"6r 	c #29081E",
"7r 	c #210D19",
"8r 	c #5B3F4B",
"9r 	c #271014",
"0r 	c #51373C",
"ar 	c #5D4146",
"br 	c #321519",
"cr 	c #63454C",
"dr 	c #321214",
"er 	c #734B47",
"fr 	c #3C1A14",
"gr 	c #865941",
"hr 	c #3F2011",
"ir 	c #7E553A",
"jr 	c #3D2016",
"kr 	c #714B37",
"lr 	c #5A382C",
"mr 	c #54362A",
"nr 	c #241109",
"or 	c #89544A",
"pr 	c #180204",
"qr 	c #4F2E25",
"rr 	c #815444",
"sr 	c #281015",
"tr 	c #814D5B",
"ur 	c #41272E",
"vr 	c #1B0E18",
"wr 	c #573552",
"xr 	c #42274E",
"yr 	c #0B041A",
"zr 	c #25152B",
"Ar 	c #422961",
"Br 	c #0B021F",
"Cr 	c #36215F",
"Dr 	c #291B46",
"Er 	c #0E0527",
"Fr 	c #362364",
"Gr 	c #1B0E36",
"Hr 	c #24144E",
"Ir 	c #2D1B57",
"Jr 	c #0D032F",
"Kr 	c #2C186A",
"Lr 	c #150927",
"Mr 	c #1D0C47",
"Nr 	c #271156",
"Or 	c #0B0013",
"Pr 	c #050013",
"Qr 	c #1D074B",
"Rr 	c #210B41",
"Sr 	c #070110",
"Tr 	c #14042F",
"Ur 	c #24083E",
"Vr 	c #130628",
"Wr 	c #11022C",
"Xr 	c #21073A",
"Yr 	c #1A0824",
"Zr 	c #070014",
"`r 	c #18072C",
" s 	c #210B3E",
".s 	c #180B39",
"+s 	c #0B031E",
"@s 	c #0E041F",
"#s 	c #1C0A47",
"$s 	c #200A56",
"%s 	c #190A33",
"&s 	c #07020E",
"*s 	c #0E0230",
"=s 	c #1E0B50",
"-s 	c #1E0D56",
";s 	c #190B42",
">s 	c #060114",
",s 	c #0C0B35",
"'s 	c #1C1862",
")s 	c #1C1A64",
"!s 	c #101349",
"~s 	c #0B123C",
"{s 	c #0F1F5E",
"]s 	c #0F1F5B",
"^s 	c #0D1039",
"/s 	c #00030A",
"(s 	c #0B1436",
"_s 	c #0F1745",
":s 	c #0F1534",
"<s 	c #070913",
"[s 	c #120520",
"}s 	c #13051B",
"|s 	c #060008",
"1s 	c #100516",
"2s 	c #10061A",
"3s 	c #160621",
"4s 	c #16061D",
"5s 	c #1C0524",
"6s 	c #17031C",
"7s 	c #13061D",
"8s 	c #190721",
"9s 	c #2C303B",
"0s 	c #2A2B3A",
"as 	c #0A0912",
"bs 	c #020108",
"cs 	c #100B20",
"ds 	c #130D26",
"es 	c #110B18",
"fs 	c #1F1728",
"gs 	c #0B0512",
"hs 	c #1C181E",
"is 	c #2F2835",
"js 	c #08030A",
"ks 	c #0B0608",
"ls 	c #56504F",
"ms 	c #413B3A",
"ns 	c #554237",
"os 	c #7F6C60",
"ps 	c #0F0503",
"qs 	c #3B1F19",
"rs 	c #BA8374",
"ss 	c #4D2623",
"ts 	c #0A0302",
"us 	c #A6796D",
"vs 	c #753C38",
"ws 	c #A96C5E",
"xs 	c #945745",
"ys 	c #90514F",
"zs 	c #AD554C",
"As 	c #653231",
"Bs 	c #AF5D51",
"Cs 	c #1B0301",
"Ds 	c #341617",
"Es 	c #AE5D56",
"Fs 	c #401415",
"Gs 	c #060401",
"Hs 	c #8D3F44",
"Is 	c #7E2C3A",
"Js 	c #320C10",
"Ks 	c #7C2939",
"Ls 	c #330E13",
"Ms 	c #1E0911",
"Ns 	c #50132B",
"Os 	c #9B9F7B",
"Ps 	c #5A5D3E",
"Qs 	c #0B0D03",
"Rs 	c #222229",
"Ss 	c #83838E",
"Ts 	c #A2A5A4",
"Us 	c #515052",
"Vs 	c #0C030F",
"Ws 	c #271323",
"Xs 	c #54324B",
"Ys 	c #3C1A32",
"Zs 	c #14000F",
"`s 	c #2A1222",
" t 	c #4C1D38",
".t 	c #1B0112",
"+t 	c #291A24",
"@t 	c #60424D",
"#t 	c #220B0F",
"$t 	c #523B3C",
"%t 	c #5E4448",
"&t 	c #2E1216",
"*t 	c #6D4C51",
"=t 	c #2E0F15",
"-t 	c #704B45",
";t 	c #421B15",
">t 	c #79503F",
",t 	c #5D301D",
"'t 	c #664231",
")t 	c #603A28",
"!t 	c #4B2E21",
"~t 	c #684634",
"{t 	c #2E120C",
"]t 	c #7E5E50",
"^t 	c #1E0200",
"/t 	c #734936",
"(t 	c #54312E",
"_t 	c #0B0200",
":t 	c #915150",
"<t 	c #573433",
"[t 	c #42212A",
"}t 	c #84485B",
"|t 	c #2C1E26",
"1t 	c #1B0C17",
"2t 	c #4F2F52",
"3t 	c #472C58",
"4t 	c #110A22",
"5t 	c #110819",
"6t 	c #3C245A",
"7t 	c #37235D",
"8t 	c #08081D",
"9t 	c #26143A",
"0t 	c #3B2768",
"at 	c #120A2A",
"bt 	c #29184F",
"ct 	c #342166",
"dt 	c #050217",
"et 	c #0D0420",
"ft 	c #362165",
"gt 	c #1A0E3C",
"ht 	c #21104F",
"it 	c #2D185E",
"jt 	c #04001F",
"kt 	c #090217",
"lt 	c #2B1256",
"mt 	c #200A46",
"nt 	c #0B0020",
"ot 	c #260C4C",
"pt 	c #1C0842",
"qt 	c #15062C",
"rt 	c #240B3F",
"st 	c #15052B",
"tt 	c #120522",
"ut 	c #20073A",
"vt 	c #1C0533",
"wt 	c #0C0214",
"xt 	c #04000D",
"yt 	c #120626",
"zt 	c #200941",
"At 	c #1E093B",
"Bt 	c #0F0320",
"Ct 	c #070116",
"Dt 	c #1A0840",
"Et 	c #1F0A4B",
"Ft 	c #1B0942",
"Gt 	c #07011D",
"Ht 	c #0C032A",
"It 	c #1A0B53",
"Jt 	c #1D0F58",
"Kt 	c #160D43",
"Lt 	c #03011A",
"Mt 	c #0C0E38",
"Nt 	c #181B64",
"Ot 	c #181D68",
"Pt 	c #0B1241",
"Qt 	c #00010D",
"Rt 	c #000114",
"St 	c #0E1846",
"Tt 	c #0D2159",
"Ut 	c #0D1F56",
"Vt 	c #05082D",
"Wt 	c #020617",
"Xt 	c #0D183B",
"Yt 	c #111839",
"Zt 	c #0F102B",
"`t 	c #16041F",
" u 	c #0D0313",
".u 	c #14041C",
"+u 	c #170520",
"@u 	c #120619",
"#u 	c #100519",
"$u 	c #17051E",
"%u 	c #1B0423",
"&u 	c #18031C",
"*u 	c #06030D",
"=u 	c #13071F",
"-u 	c #19081F",
";u 	c #0A030B",
">u 	c #080B0B",
",u 	c #313442",
"'u 	c #1D1D2C",
")u 	c #05030B",
"!u 	c #07040D",
"~u 	c #130D28",
"{u 	c #0F0A24",
"]u 	c #1F1425",
"^u 	c #1B1223",
"/u 	c #060306",
"(u 	c #2A282D",
"_u 	c #201C28",
":u 	c #2A2525",
"<u 	c #635D59",
"[u 	c #191110",
"}u 	c #120B0A",
"|u 	c #856E60",
"1u 	c #4F392D",
"2u 	c #805C53",
"3u 	c #9D6D5D",
"4u 	c #090001",
"5u 	c #5A3327",
"6u 	c #B47D6C",
"7u 	c #1A0709",
"8u 	c #46211B",
"9u 	c #D0876D",
"0u 	c #2F1711",
"au 	c #310E0C",
"bu 	c #CC7367",
"cu 	c #4C1E1A",
"du 	c #0E0205",
"eu 	c #AD5C57",
"fu 	c #71362D",
"gu 	c #813E3A",
"hu 	c #944C48",
"iu 	c #A14C4B",
"ju 	c #441B1C",
"ku 	c #571622",
"lu 	c #742634",
"mu 	c #1C0406",
"nu 	c #2B0A18",
"ou 	c #52142A",
"pu 	c #0C0E08",
"qu 	c #292A2E",
"ru 	c #858288",
"su 	c #A9A1A9",
"tu 	c #5D5960",
"uu 	c #0A0B0F",
"vu 	c #140915",
"wu 	c #512E46",
"xu 	c #49283F",
"yu 	c #1B0515",
"zu 	c #180313",
"Au 	c #441C37",
"Bu 	c #361728",
"Cu 	c #130008",
"Du 	c #482A35",
"Eu 	c #573E46",
"Fu 	c #1B0709",
"Gu 	c #624747",
"Hu 	c #33110F",
"Iu 	c #6F4F53",
"Ju 	c #2B0E16",
"Ku 	c #724946",
"Lu 	c #4A261D",
"Mu 	c #69412D",
"Nu 	c #6D4533",
"Ou 	c #4D2819",
"Pu 	c #815641",
"Qu 	c #371309",
"Ru 	c #875F4A",
"Su 	c #200804",
"Tu 	c #7D5543",
"Uu 	c #40241C",
"Vu 	c #371B11",
"Wu 	c #915D4D",
"Xu 	c #0E0404",
"Yu 	c #3B271B",
"Zu 	c #A45D5D",
"`u 	c #251013",
" v 	c #58333E",
".v 	c #774158",
"+v 	c #20131D",
"@v 	c #150813",
"#v 	c #462848",
"$v 	c #492F5D",
"%v 	c #1F1435",
"&v 	c #2A1840",
"*v 	c #412C6B",
"=v 	c #1E1644",
"-v 	c #0E0513",
";v 	c #39256C",
">v 	c #2D1F5B",
",v 	c #110429",
"'v 	c #3D287B",
")v 	c #20143F",
"!v 	c #24154B",
"~v 	c #34246C",
"{v 	c #060119",
"]v 	c #0B021D",
"^v 	c #311A6D",
"/v 	c #1F0F4D",
"(v 	c #170530",
"_v 	c #2E1471",
":v 	c #130532",
"<v 	c #140232",
"[v 	c #2A0B5A",
"}v 	c #1D0533",
"|v 	c #1D0538",
"1v 	c #220849",
"2v 	c #110328",
"3v 	c #130130",
"4v 	c #230342",
"5v 	c #1C072D",
"6v 	c #0A0111",
"7v 	c #110225",
"8v 	c #1E083B",
"9v 	c #1F083F",
"0v 	c #120229",
"av 	c #060110",
"bv 	c #130539",
"cv 	c #1D0856",
"dv 	c #1A094B",
"ev 	c #0B0222",
"fv 	c #07012C",
"gv 	c #180C57",
"hv 	c #1E105F",
"iv 	c #190F48",
"jv 	c #040117",
"kv 	c #0B0F41",
"lv 	c #171E5E",
"mv 	c #132160",
"nv 	c #0A1036",
"ov 	c #02051A",
"pv 	c #0F1E4C",
"qv 	c #0A2260",
"rv 	c #0C1A4E",
"sv 	c #010416",
"tv 	c #050F23",
"uv 	c #11183A",
"vv 	c #131338",
"wv 	c #0B091D",
"xv 	c #150420",
"yv 	c #100417",
"zv 	c #170622",
"Av 	c #0F0417",
"Bv 	c #170621",
"Cv 	c #16041D",
"Dv 	c #07000B",
"Ev 	c #12041A",
"Fv 	c #1B0322",
"Gv 	c #17041B",
"Hv 	c #0A030F",
"Iv 	c #15071F",
"Jv 	c #17081C",
"Kv 	c #121518",
"Lv 	c #2D2F3E",
"Mv 	c #131121",
"Nv 	c #040106",
"Ov 	c #090616",
"Pv 	c #150F2A",
"Qv 	c #09061A",
"Rv 	c #221628",
"Sv 	c #130B18",
"Tv 	c #141115",
"Uv 	c #312E37",
"Vv 	c #030201",
"Wv 	c #504945",
"Xv 	c #524849",
"Yv 	c #45362E",
"Zv 	c #8C7260",
"`v 	c #190904",
" w 	c #281517",
".w 	c #B18174",
"+w 	c #573A31",
"@w 	c #A96B5A",
"#w 	c #7E4F45",
"$w 	c #9C6151",
"%w 	c #AA6A53",
"&w 	c #883F37",
"*w 	c #BE6458",
"=w 	c #080100",
"-w 	c #4D2021",
";w 	c #C3645E",
">w 	c #290E0B",
",w 	c #190606",
"'w 	c #B35651",
")w 	c #5F2D2A",
"!w 	c #672D2C",
"~w 	c #984443",
"{w 	c #1E0B0A",
"]w 	c #6D1E2D",
"^w 	c #691F2C",
"/w 	c #110101",
"(w 	c #070003",
"_w 	c #350B1D",
":w 	c #54162C",
"<w 	c #878E8F",
"[w 	c #989C9F",
"}w 	c #54575C",
"|w 	c #0E0912",
"1w 	c #170716",
"2w 	c #4C2643",
"3w 	c #532948",
"4w 	c #260C22",
"5w 	c #11000F",
"6w 	c #321129",
"7w 	c #46203A",
"8w 	c #1F0619",
"9w 	c #1D0913",
"0w 	c #5F3D48",
"aw 	c #452E30",
"bw 	c #200B0B",
"cw 	c #72565A",
"dw 	c #4C3537",
"ew 	c #351612",
"fw 	c #715258",
"gw 	c #2F0D10",
"hw 	c #76483E",
"iw 	c #512C26",
"jw 	c #5A3322",
"kw 	c #825C46",
"lw 	c #3C1A0B",
"mw 	c #90694F",
"nw 	c #280E06",
"ow 	c #895B41",
"pw 	c #401C13",
"qw 	c #53362C",
"rw 	c #79513F",
"sw 	c #865D4E",
"tw 	c #502C2B",
"uw 	c #83554C",
"vw 	c #794946",
"ww 	c #140609",
"xw 	c #653D4E",
"yw 	c #603B58",
"zw 	c #1D0B1B",
"Aw 	c #0C070D",
"Bw 	c #3D233E",
"Cw 	c #4B3263",
"Dw 	c #2E1F4F",
"Ew 	c #080316",
"Fw 	c #10081A",
"Gw 	c #3E2C63",
"Hw 	c #3A2769",
"Iw 	c #23164C",
"Jw 	c #452F7B",
"Kw 	c #160C26",
"Lw 	c #2A1C5B",
"Mw 	c #3C296B",
"Nw 	c #09021C",
"Ow 	c #07041A",
"Pw 	c #37296B",
"Qw 	c #22154E",
"Rw 	c #1D0E41",
"Sw 	c #3C1D72",
"Tw 	c #130429",
"Uw 	c #201057",
"Vw 	c #30126E",
"Ww 	c #0E0218",
"Xw 	c #1D0740",
"Yw 	c #2D0F59",
"Zw 	c #160632",
"`w 	c #1C053E",
" x 	c #25074C",
".x 	c #140227",
"+x 	c #140324",
"@x 	c #1E073C",
"#x 	c #1B053D",
"$x 	c #0C011E",
"%x 	c #1F043D",
"&x 	c #220640",
"*x 	c #140529",
"=x 	c #02010C",
"-x 	c #100635",
";x 	c #1C0952",
">x 	c #1C084A",
",x 	c #0D0326",
"'x 	c #060228",
")x 	c #1B0C55",
"!x 	c #201160",
"~x 	c #160E4A",
"{x 	c #050117",
"]x 	c #000011",
"^x 	c #0E1240",
"/x 	c #152162",
"(x 	c #191E61",
"_x 	c #0B0A30",
":x 	c #050823",
"<x 	c #102157",
"[x 	c #08225D",
"}x 	c #09153D",
"|x 	c #000408",
"1x 	c #0E1130",
"2x 	c #15133B",
"3x 	c #131124",
"4x 	c #05030A",
"5x 	c #0C0415",
"6x 	c #14061F",
"7x 	c #14061C",
"8x 	c #140525",
"9x 	c #160521",
"0x 	c #0D0213",
"ax 	c #150523",
"bx 	c #15031D",
"cx 	c #0B000F",
"dx 	c #140219",
"ex 	c #1B0422",
"fx 	c #18041E",
"gx 	c #140919",
"hx 	c #040201",
"ix 	c #1A1D27",
"jx 	c #282836",
"kx 	c #0E0723",
"lx 	c #150F28",
"mx 	c #06040D",
"nx 	c #160D1C",
"ox 	c #221826",
"px 	c #0A040C",
"qx 	c #251F28",
"rx 	c #2B2635",
"sx 	c #17160F",
"tx 	c #675C58",
"ux 	c #322328",
"vx 	c #78604E",
"wx 	c #6A523F",
"xx 	c #6A433B",
"yx 	c #B57E68",
"zx 	c #140C0E",
"Ax 	c #381A12",
"Bx 	c #C38370",
"Cx 	c #2E1B1F",
"Dx 	c #260C07",
"Ex 	c #D4896D",
"Fx 	c #643430",
"Gx 	c #060100",
"Hx 	c #C1695B",
"Ix 	c #8A3C3B",
"Jx 	c #91463C",
"Kx 	c #A7544E",
"Lx 	c #4C1F1D",
"Mx 	c #B95C5A",
"Nx 	c #321613",
"Ox 	c #853E3C",
"Px 	c #85373B",
"Qx 	c #100003",
"Rx 	c #72232F",
"Sx 	c #631928",
"Tx 	c #0A0100",
"Ux 	c #390A20",
"Vx 	c #571630",
"Wx 	c #434644",
"Xx 	c #0A0710",
"Yx 	c #150717",
"Zx 	c #462A41",
"`x 	c #502B47",
" y 	c #320C28",
".y 	c #140011",
"+y 	c #250B22",
"@y 	c #461F39",
"#y 	c #331126",
"$y 	c #150009",
"%y 	c #3D222D",
"&y 	c #61464E",
"*y 	c #2A181A",
"=y 	c #341D1F",
"-y 	c #796163",
";y 	c #382427",
">y 	c #412224",
",y 	c #735151",
"'y 	c #240C13",
")y 	c #794C42",
"!y 	c #592F24",
"~y 	c #552C1E",
"{y 	c #90674F",
"]y 	c #2E1108",
"^y 	c #996A4B",
"/y 	c #33180E",
"(y 	c #764D34",
"_y 	c #534133",
":y 	c #2E1406",
"<y 	c #976A4B",
"[y 	c #1D0604",
"}y 	c #593730",
"|y 	c #8C594B",
"1y 	c #422722",
"2y 	c #9C6663",
"3y 	c #3C221F",
"4y 	c #28161E",
"5y 	c #684155",
"6y 	c #543050",
"7y 	c #17081B",
"8y 	c #2F1838",
"9y 	c #473064",
"0y 	c #3C2C5E",
"ay 	c #17102B",
"by 	c #2A1C4B",
"cy 	c #443378",
"dy 	c #281D46",
"ey 	c #0B0523",
"fy 	c #3F2E70",
"gy 	c #34275A",
"hy 	c #0E0823",
"iy 	c #433272",
"jy 	c #261852",
"ky 	c #1F1645",
"ly 	c #3D2E74",
"my 	c #0E062D",
"ny 	c #050015",
"oy 	c #331B63",
"py 	c #301A62",
"qy 	c #03000E",
"ry 	c #0A0311",
"sy 	c #301862",
"ty 	c #27125A",
"uy 	c #040016",
"vy 	c #05001D",
"wy 	c #1D0E4E",
"xy 	c #261258",
"yy 	c #130329",
"zy 	c #080113",
"Ay 	c #1D0844",
"By 	c #230953",
"Cy 	c #14032C",
"Dy 	c #0F0228",
"Ey 	c #1B0640",
"Fy 	c #1C083B",
"Gy 	c #0F011E",
"Hy 	c #090013",
"Iy 	c #170830",
"Jy 	c #1F0646",
"Ky 	c #17023C",
"Ly 	c #060015",
"My 	c #0E032F",
"Ny 	c #190B4E",
"Oy 	c #1C075A",
"Py 	c #0F0138",
"Qy 	c #070224",
"Ry 	c #180E5A",
"Sy 	c #1E1667",
"Ty 	c #171048",
"Uy 	c #000021",
"Vy 	c #131447",
"Wy 	c #1C1E5E",
"Xy 	c #171C59",
"Yy 	c #030827",
"Zy 	c #070F2E",
"`y 	c #0B2259",
" z 	c #0D1F57",
".z 	c #090C2A",
"+z 	c #06051B",
"@z 	c #14123A",
"#z 	c #13122E",
"$z 	c #11061C",
"%z 	c #14071F",
"&z 	c #0F0418",
"*z 	c #0F0311",
"=z 	c #09010E",
"-z 	c #150621",
";z 	c #16031E",
">z 	c #14031A",
",z 	c #1C0423",
"'z 	c #130419",
")z 	c #0D0210",
"!z 	c #19051F",
"~z 	c #22222D",
"{z 	c #1F1E2C",
"]z 	c #090410",
"^z 	c #120D26",
"/z 	c #120D22",
"(z 	c #1F1525",
"_z 	c #1C1220",
":z 	c #0A060C",
"<z 	c #332D36",
"[z 	c #1A1724",
"}z 	c #3A342E",
"|z 	c #635955",
"1z 	c #0F0506",
"2z 	c #221815",
"3z 	c #8F7766",
"4z 	c #372418",
"5z 	c #0A0202",
"6z 	c #986D61",
"7z 	c #8B5D4D",
"8z 	c #7C4A3F",
"9z 	c #AE7362",
"0z 	c #68362B",
"az 	c #D58870",
"bz 	c #240B07",
"cz 	c #381A15",
"dz 	c #D3756C",
"ez 	c #491816",
"fz 	c #0E0202",
"gz 	c #BA5C59",
"hz 	c #7C3734",
"iz 	c #6F3736",
"jz 	c #AD5652",
"kz 	c #1B0302",
"lz 	c #1B0606",
"mz 	c #934746",
"nz 	c #71302E",
"oz 	c #1D050A",
"pz 	c #762532",
"qz 	c #5C1A26",
"rz 	c #35081B",
"sz 	c #5A142E",
"tz 	c #280B26",
"uz 	c #562545",
"vz 	c #552745",
"wz 	c #2F0D27",
"xz 	c #160011",
"yz 	c #1E0B1D",
"zz 	c #411E39",
"Az 	c #401732",
"Bz 	c #12020F",
"Cz 	c #1B1016",
"Dz 	c #5A3E46",
"Ez 	c #56313A",
"Fz 	c #180C0A",
"Gz 	c #5D393D",
"Hz 	c #79585C",
"Iz 	c #1E1716",
"Jz 	c #4E3639",
"Kz 	c #6E4851",
"Lz 	c #270A0D",
"Mz 	c #895441",
"Nz 	c #4D2E2A",
"Oz 	c #4E2C1E",
"Pz 	c #996B50",
"Qz 	c #331004",
"Rz 	c #98694A",
"Sz 	c #412419",
"Tz 	c #5B3623",
"Uz 	c #81593F",
"Vz 	c #190200",
"Wz 	c #946B52",
"Xz 	c #452114",
"Yz 	c #29130F",
"Zz 	c #9F735B",
"`z 	c #2F1A13",
" A 	c #070603",
".A 	c #895756",
"+A 	c #824F53",
"@A 	c #0B0503",
"#A 	c #39222F",
"$A 	c #613B56",
"%A 	c #49294F",
"&A 	c #1E0D2B",
"*A 	c #412E5D",
"=A 	c #433268",
"-A 	c #2C224A",
";A 	c #100828",
">A 	c #3F326E",
",A 	c #3D326C",
"'A 	c #0D0926",
")A 	c #271B4C",
"!A 	c #483B7F",
"~A 	c #171235",
"{A 	c #2D2156",
"]A 	c #433580",
"^A 	c #090720",
"/A 	c #04021A",
"(A 	c #3A2D72",
"_A 	c #302269",
":A 	c #130928",
"<A 	c #3B277A",
"[A 	c #211151",
"}A 	c #15092F",
"|A 	c #351C79",
"1A 	c #1F0E4B",
"2A 	c #05031A",
"3A 	c #231056",
"4A 	c #2D0D63",
"5A 	c #0E0528",
"6A 	c #090115",
"7A 	c #1D0747",
"8A 	c #270952",
"9A 	c #14042C",
"0A 	c #0D0218",
"aA 	c #1B0736",
"bA 	c #1F0449",
"cA 	c #14012B",
"dA 	c #050113",
"eA 	c #190237",
"fA 	c #220450",
"gA 	c #170541",
"hA 	c #0B0114",
"iA 	c #0B042B",
"jA 	c #1B0651",
"kA 	c #1E075E",
"lA 	c #100339",
"mA 	c #040320",
"nA 	c #171156",
"oA 	c #1E156D",
"pA 	c #151046",
"qA 	c #02010D",
"rA 	c #03011B",
"sA 	c #14164B",
"tA 	c #162266",
"uA 	c #111D54",
"vA 	c #020418",
"wA 	c #091843",
"xA 	c #0C215D",
"yA 	c #101C49",
"zA 	c #040415",
"AA 	c #100B2C",
"BA 	c #141132",
"CA 	c #030409",
"DA 	c #130520",
"EA 	c #0F051B",
"FA 	c #17041F",
"GA 	c #130417",
"HA 	c #18041F",
"IA 	c #0C000F",
"JA 	c #130219",
"KA 	c #0E0311",
"LA 	c #030308",
"MA 	c #262331",
"NA 	c #1A1523",
"OA 	c #070512",
"PA 	c #161228",
"QA 	c #0E091A",
"RA 	c #0A0510",
"SA 	c #211728",
"TA 	c #140B18",
"UA 	c #352F39",
"VA 	c #080606",
"WA 	c #5A4D49",
"XA 	c #4B4340",
"YA 	c #513E34",
"ZA 	c #856D5D",
"`A 	c #371F1A",
" B 	c #B48171",
".B 	c #533229",
"+B 	c #B37260",
"@B 	c #7A4A3F",
"#B 	c #A75F4E",
"$B 	c #B56C59",
"%B 	c #783C32",
"&B 	c #C66A63",
"*B 	c #170202",
"=B 	c #351412",
"-B 	c #CC6263",
";B 	c #50201D",
">B 	c #914749",
",B 	c #994B44",
"'B 	c #2E0F13",
")B 	c #9A4A4B",
"!B 	c #672A28",
"~B 	c #1C050B",
"{B 	c #752531",
"]B 	c #5D1E27",
"^B 	c #110001",
"/B 	c #280412",
"(B 	c #5A152D",
"_B 	c #4A224A",
":B 	c #270924",
"<B 	c #170011",
"[B 	c #29081F",
"}B 	c #431C35",
"|B 	c #441931",
"1B 	c #230413",
"2B 	c #1C0510",
"3B 	c #51303D",
"4B 	c #66414D",
"5B 	c #2F1419",
"6B 	c #2A1818",
"7B 	c #755C5A",
"8B 	c #5A4141",
"9B 	c #220B0D",
"0B 	c #6D4A4D",
"aB 	c #59383A",
"bB 	c #30110D",
"cB 	c #895E52",
"dB 	c #402521",
"eB 	c #5B311C",
"fB 	c #A07152",
"gB 	c #2E0C04",
"hB 	c #91674D",
"iB 	c #533021",
"jB 	c #4D2817",
"kB 	c #956A4C",
"lB 	c #865842",
"mB 	c #6D4538",
"nB 	c #8B6751",
"oB 	c #6B442E",
"pB 	c #4A362C",
"qB 	c #A16567",
"rB 	c #452629",
"sB 	c #0D040E",
"tB 	c #5A3656",
"uB 	c #422552",
"vB 	c #100925",
"wB 	c #0D0217",
"xB 	c #352649",
"yB 	c #47346B",
"zB 	c #41326C",
"AB 	c #181332",
"BB 	c #27214A",
"CB 	c #493F7F",
"DB 	c #292355",
"EB 	c #08051E",
"FB 	c #423979",
"GB 	c #383367",
"HB 	c #01020D",
"IB 	c #0B0729",
"JB 	c #463A80",
"KB 	c #2C255A",
"LB 	c #19133B",
"MB 	c #453787",
"NB 	c #191139",
"OB 	c #25184E",
"PB 	c #3F2784",
"QB 	c #140636",
"RB 	c #1E0F4E",
"SB 	c #382072",
"TB 	c #170F2F",
"UB 	c #0B0228",
"VB 	c #2A1164",
"WB 	c #2A125F",
"XB 	c #0F0425",
"YB 	c #080019",
"ZB 	c #200747",
"`B 	c #250D58",
" C 	c #12073A",
".C 	c #090018",
"+C 	c #1A0540",
"@C 	c #1E0648",
"#C 	c #130432",
"$C 	c #040017",
"%C 	c #14032E",
"&C 	c #1B074A",
"*C 	c #190840",
"=C 	c #0C021F",
"-C 	c #1B074C",
";C 	c #1D075C",
">C 	c #11033B",
",C 	c #060320",
"'C 	c #1A125B",
")C 	c #201870",
"!C 	c #151146",
"~C 	c #020320",
"{C 	c #121D52",
"]C 	c #192463",
"^C 	c #0F1743",
"/C 	c #01031B",
"(C 	c #0D1C4A",
"_C 	c #0E1F53",
":C 	c #0D133A",
"<C 	c #04020F",
"[C 	c #15102C",
"}C 	c #120E29",
"|C 	c #0D0918",
"1C 	c #140421",
"2C 	c #0A0012",
"3C 	c #0A0314",
"4C 	c #16031B",
"5C 	c #12051C",
"6C 	c #1B041F",
"7C 	c #0E0111",
"8C 	c #120118",
"9C 	c #1A0322",
"0C 	c #0D0412",
"aC 	c #19061F",
"bC 	c #120717",
"cC 	c #07050C",
"dC 	c #27202F",
"eC 	c #160D1D",
"fC 	c #080817",
"gC 	c #151326",
"hC 	c #08050F",
"iC 	c #24192C",
"jC 	c #0D0411",
"kC 	c #251F26",
"lC 	c #302A34",
"mC 	c #1E1A16",
"nC 	c #705D5A",
"oC 	c #2F2624",
"pC 	c #7D6250",
"qC 	c #675040",
"rC 	c #684537",
"sC 	c #B57C68",
"tC 	c #210E0B",
"uC 	c #28180E",
"vC 	c #C5856D",
"wC 	c #42241E",
"xC 	c #0F0702",
"yC 	c #D1806A",
"zC 	c #824A3C",
"AC 	c #AA5846",
"BC 	c #A4584F",
"CC 	c #5C2824",
"DC 	c #C96462",
"EC 	c #2F1110",
"FC 	c #A84E53",
"GC 	c #89453A",
"HC 	c #341118",
"IC 	c #9C4A4B",
"JC 	c #682726",
"KC 	c #160407",
"LC 	c #6F232D",
"MC 	c #69202B",
"NC 	c #1F0305",
"OC 	c #140007",
"PC 	c #4E1327",
"QC 	c #11000C",
"RC 	c #290C24",
"SC 	c #3D1930",
"TC 	c #230414",
"UC 	c #1A040C",
"VC 	c #442C33",
"WC 	c #65474F",
"XC 	c #41232C",
"YC 	c #1F090B",
"ZC 	c #574143",
"`C 	c #7C5D63",
" D 	c #341D1E",
".D 	c #39191C",
"+D 	c #7D545D",
"@D 	c #3F2123",
"#D 	c #421E19",
"$D 	c #8F6258",
"%D 	c #3C1712",
"&D 	c #67412E",
"*D 	c #966B4E",
"=D 	c #2E0A03",
"-D 	c #956A51",
";D 	c #5E3728",
">D 	c #401E11",
",D 	c #9C7256",
"'D 	c #210603",
")D 	c #6F4834",
"!D 	c #7E624E",
"~D 	c #734D35",
"{D 	c #94664B",
"]D 	c #0D0200",
"^D 	c #25120E",
"/D 	c #936055",
"(D 	c #82494B",
"_D 	c #0D0506",
":D 	c #240B1D",
"<D 	c #462D40",
"[D 	c #563257",
"}D 	c #3F2354",
"|D 	c #000207",
"1D 	c #1E1329",
"2D 	c #463469",
"3D 	c #45347C",
"4D 	c #362E60",
"5D 	c #070613",
"6D 	c #0B091F",
"7D 	c #413978",
"8D 	c #443E80",
"9D 	c #0F1027",
"0D 	c #251F53",
"aD 	c #4C468B",
"bD 	c #1B1A40",
"cD 	c #4B4190",
"dD 	c #110F22",
"eD 	c #352871",
"fD 	c #3F337E",
"gD 	c #04031D",
"hD 	c #08040F",
"iD 	c #3C256C",
"jD 	c #3A256F",
"kD 	c #050315",
"lD 	c #2E165C",
"mD 	c #3A207B",
"nD 	c #160738",
"oD 	c #0B0623",
"pD 	c #321263",
"qD 	c #2E1462",
"rD 	c #0C0529",
"sD 	c #080117",
"tD 	c #1C0647",
"uD 	c #260D58",
"vD 	c #16083A",
"wD 	c #040019",
"xD 	c #18043C",
"yD 	c #1F084A",
"zD 	c #18063A",
"AD 	c #08011E",
"BD 	c #0F0225",
"CD 	c #1B0556",
"DD 	c #1A0552",
"ED 	c #0A021D",
"FD 	c #1B064C",
"GD 	c #1F0862",
"HD 	c #110538",
"ID 	c #070619",
"JD 	c #18155D",
"KD 	c #1F1972",
"LD 	c #13113D",
"MD 	c #030822",
"ND 	c #161E5A",
"OD 	c #182366",
"PD 	c #09153E",
"QD 	c #030A23",
"RD 	c #0B2054",
"SD 	c #0D1C56",
"TD 	c #090B2C",
"UD 	c #0C0718",
"VD 	c #170E2D",
"WD 	c #140A23",
"XD 	c #05010F",
"YD 	c #0E0414",
"ZD 	c #18031E",
"`D 	c #11041A",
" E 	c #1C031F",
".E 	c #100213",
"+E 	c #110117",
"@E 	c #190221",
"#E 	c #130318",
"$E 	c #1B0821",
"%E 	c #110616",
"&E 	c #0D0A12",
"*E 	c #251A2B",
"=E 	c #0B0C1D",
"-E 	c #131222",
";E 	c #030208",
">E 	c #1C1125",
",E 	c #22162A",
"'E 	c #060108",
")E 	c #312C33",
"!E 	c #251F29",
"~E 	c #353029",
"{E 	c #735C5A",
"]E 	c #130B0B",
"^E 	c #121009",
"/E 	c #977760",
"(E 	c #442C1E",
"_E 	c #916655",
":E 	c #A56651",
"<E 	c #533F33",
"[E 	c #BC856A",
"}E 	c #150705",
"|E 	c #3B1B19",
"1E 	c #DF8F75",
"2E 	c #522C20",
"3E 	c #C76C54",
"4E 	c #82473B",
"5E 	c #7B3934",
"6E 	c #BE625C",
"7E 	c #190809",
"8E 	c #120508",
"9E 	c #B45056",
"0E 	c #7F4133",
"aE 	c #311319",
"bE 	c #9A4749",
"cE 	c #72292B",
"dE 	c #0E0204",
"eE 	c #641C25",
"fE 	c #792432",
"gE 	c #300B0F",
"hE 	c #350815",
"iE 	c #4C1C38",
"jE 	c #3F122C",
"kE 	c #1D0211",
"lE 	c #18020D",
"mE 	c #452731",
"nE 	c #66474F",
"oE 	c #473034",
"pE 	c #190808",
"qE 	c #3F2B28",
"rE 	c #815F5D",
"sE 	c #5B3C3C",
"tE 	c #1B0B10",
"uE 	c #593F43",
"vE 	c #794C4E",
"wE 	c #2A0C0E",
"xE 	c #623A2E",
"yE 	c #8C5D51",
"zE 	c #300E0B",
"AE 	c #81543B",
"BE 	c #8A614B",
"CE 	c #2E0C05",
"DE 	c #A16D4F",
"EE 	c #583629",
"FE 	c #3E1A0D",
"GE 	c #AA775A",
"HE 	c #270E0C",
"IE 	c #583620",
"JE 	c #9F7252",
"KE 	c #4F2F20",
"LE 	c #AE765C",
"ME 	c #321710",
"NE 	c #704940",
"OE 	c #936164",
"PE 	c #3D1F24",
"QE 	c #28162A",
"RE 	c #442947",
"SE 	c #51325F",
"TE 	c #3B2A5D",
"UE 	c #1C1841",
"VE 	c #000112",
"WE 	c #090111",
"XE 	c #352851",
"YE 	c #473C76",
"ZE 	c #433E77",
"`E 	c #202144",
" F 	c #24204A",
".F 	c #4E4A89",
"+F 	c #313260",
"@F 	c #060622",
"#F 	c #423E7B",
"$F 	c #403E74",
"%F 	c #020415",
"&F 	c #09041D",
"*F 	c #473F82",
"=F 	c #30386B",
"-F 	c #140B2D",
";F 	c #4B3E86",
">F 	c #282456",
",F 	c #160A34",
"'F 	c #453086",
")F 	c #291F5D",
"!F 	c #341C7B",
"~F 	c #3B2074",
"{F 	c #140522",
"]F 	c #13052C",
"^F 	c #2D1568",
"/F 	c #2D156A",
"(F 	c #12052D",
"_F 	c #170943",
":F 	c #290E5D",
"<F 	c #230752",
"[F 	c #0C0223",
"}F 	c #020112",
"|F 	c #10072F",
"1F 	c #1F094C",
"2F 	c #1D054F",
"3F 	c #0B0224",
"4F 	c #0B0028",
"5F 	c #1B054E",
"6F 	c #1D074F",
"7F 	c #11032E",
"8F 	c #070220",
"9F 	c #170A57",
"0F 	c #1E0C5D",
"aF 	c #140738",
"bF 	c #06052C",
"cF 	c #1C1865",
"dF 	c #201E65",
"eF 	c #0E0F3E",
"fF 	c #182064",
"gF 	c #152168",
"hF 	c #090C2D",
"iF 	c #071235",
"jF 	c #0B1F57",
"kF 	c #0B1841",
"lF 	c #000316",
"mF 	c #130D21",
"nF 	c #130C2C",
"oF 	c #0D0518",
"pF 	c #13051E",
"qF 	c #14041F",
"rF 	c #0B0012",
"sF 	c #0D0311",
"tF 	c #1A041F",
"uF 	c #100314",
"vF 	c #1A0420",
"wF 	c #15021A",
"xF 	c #100414",
"yF 	c #1C0920",
"zF 	c #0F0711",
"AF 	c #0F0B17",
"BF 	c #22152E",
"CF 	c #100415",
"DF 	c #120C25",
"EF 	c #241628",
"FF 	c #1B131D",
"GF 	c #0E0913",
"HF 	c #39333D",
"IF 	c #19141A",
"JF 	c #574641",
"KF 	c #635049",
"LF 	c #3A271E",
"MF 	c #9F7664",
"NF 	c #1E110C",
"OF 	c #1A0B0D",
"PF 	c #B17764",
"QF 	c #7D503F",
"RF 	c #875C4B",
"SF 	c #A67660",
"TF 	c #66382E",
"UF 	c #DE8E73",
"VF 	c #30160F",
"WF 	c #250A0B",
"XF 	c #D57361",
"YF 	c #69362E",
"ZF 	c #8E4340",
"`F 	c #B55E5D",
" G 	c #180106",
".G 	c #180A09",
"+G 	c #A85955",
"@G 	c #8C3D37",
"#G 	c #210F14",
"$G 	c #954447",
"%G 	c #803231",
"&G 	c #100302",
"*G 	c #4E1621",
"=G 	c #7D2737",
"-G 	c #4F1620",
";G 	c #0F0302",
">G 	c #0D000A",
",G 	c #0F000D",
"'G 	c #15080F",
")G 	c #4E2835",
"!G 	c #6F4352",
"~G 	c #493136",
"{G 	c #1E080A",
"]G 	c #371C20",
"^G 	c #78595B",
"/G 	c #6E554E",
"(G 	c #211412",
"_G 	c #341E22",
":G 	c #845459",
"<G 	c #502C2F",
"[G 	c #260E0F",
"}G 	c #8F5845",
"|G 	c #6F483E",
"1G 	c #260C08",
"2G 	c #A76B47",
"3G 	c #76523D",
"4G 	c #26100C",
"5G 	c #AA7250",
"6G 	c #5A301C",
"7G 	c #3C1E14",
"8G 	c #A07C5D",
"9G 	c #241110",
"0G 	c #542B19",
"aG 	c #A97B52",
"bG 	c #1B0C05",
"cG 	c #371B15",
"dG 	c #AF7C66",
"eG 	c #4E3025",
"fG 	c #452E2D",
"gG 	c #995C63",
"hG 	c #653D48",
"iG 	c #0F0205",
"jG 	c #2B1A32",
"kG 	c #44284D",
"lG 	c #4D3363",
"mG 	c #3D2E62",
"nG 	c #282451",
"oG 	c #0A0A22",
"pG 	c #130B28",
"qG 	c #433C6A",
"rG 	c #46427C",
"sG 	c #404072",
"tG 	c #0B0D22",
"uG 	c #06061D",
"vG 	c #3F3E71",
"wG 	c #4B4D86",
"xG 	c #161732",
"yG 	c #202046",
"zG 	c #54548F",
"AG 	c #22264B",
"BG 	c #211F47",
"CG 	c #49528F",
"DG 	c #181C45",
"EG 	c #25214D",
"FG 	c #4B468B",
"GG 	c #151239",
"HG 	c #241846",
"IG 	c #483984",
"JG 	c #1F174E",
"KG 	c #100726",
"LG 	c #3D2670",
"MG 	c #3B2375",
"NG 	c #12052C",
"OG 	c #11052E",
"PG 	c #31176A",
"QG 	c #331A69",
"RG 	c #170737",
"SG 	c #17063B",
"TG 	c #29105F",
"UG 	c #240F56",
"VG 	c #0F0331",
"WG 	c #0D0429",
"XG 	c #1E0B51",
"YG 	c #1E0855",
"ZG 	c #12022F",
"`G 	c #080126",
" H 	c #18054F",
".H 	c #1E0757",
"+H 	c #130435",
"@H 	c #030010",
"#H 	c #05021D",
"$H 	c #180B57",
"%H 	c #1F0F68",
"&H 	c #12083D",
"*H 	c #09082A",
"=H 	c #1F1B61",
"-H 	c #1F2063",
";H 	c #0C0C36",
">H 	c #0B1139",
",H 	c #1A2365",
"'H 	c #182056",
")H 	c #04051F",
"!H 	c #00030E",
"~H 	c #091840",
"{H 	c #0D1F4C",
"]H 	c #071033",
"^H 	c #08070F",
"/H 	c #120C27",
"(H 	c #120A20",
"_H 	c #0F0518",
":H 	c #0C0211",
"<H 	c #0D0212",
"[H 	c #16061E",
"}H 	c #100317",
"|H 	c #0C020C",
"1H 	c #18031D",
"2H 	c #110416",
"3H 	c #16021B",
"4H 	c #1E0A21",
"5H 	c #0E080F",
"6H 	c #0F0A18",
"7H 	c #1F112C",
"8H 	c #0F0312",
"9H 	c #030210",
"0H 	c #140D29",
"aH 	c #291A2A",
"bH 	c #160F16",
"cH 	c #18131C",
"dH 	c #3B353E",
"eH 	c #0C080D",
"fH 	c #090408",
"gH 	c #695550",
"hH 	c #4E4038",
"iH 	c #5D4134",
"jH 	c #946B5D",
"kH 	c #391F1D",
"lH 	c #BD7F6A",
"mH 	c #5B392B",
"nH 	c #A8745D",
"oH 	c #91634F",
"pH 	c #825041",
"qH 	c #DA8A6E",
"rH 	c #1E0904",
"sH 	c #321715",
"tH 	c #DC7768",
"uH 	c #5D2B26",
"vH 	c #934745",
"wH 	c #B35E5F",
"xH 	c #190205",
"yH 	c #170605",
"zH 	c #A35854",
"AH 	c #9A423E",
"BH 	c #12070A",
"CH 	c #873B3F",
"DH 	c #923D3F",
"EH 	c #270B0B",
"FH 	c #2C0911",
"GH 	c #722734",
"HH 	c #6F2531",
"IH 	c #360A10",
"JH 	c #5A303C",
"KH 	c #6D444F",
"LH 	c #432E32",
"MH 	c #160A0B",
"NH 	c #30191A",
"OH 	c #715756",
"PH 	c #7B5C58",
"QH 	c #3A1F1F",
"RH 	c #260D1A",
"SH 	c #704752",
"TH 	c #774A4A",
"UH 	c #290C0E",
"VH 	c #4B2D2B",
"WH 	c #996657",
"XH 	c #432320",
"YH 	c #452012",
"ZH 	c #AE7D5C",
"`H 	c #4C3529",
" I 	c #431C0E",
".I 	c #B67953",
"+I 	c #3D2218",
"@I 	c #3E261F",
"#I 	c #AA795D",
"$I 	c #2D150F",
"%I 	c #492716",
"&I 	c #AC7B5C",
"*I 	c #26170F",
"=I 	c #1D100A",
"-I 	c #AB7459",
";I 	c #6D4639",
">I 	c #261912",
",I 	c #895A55",
"'I 	c #85495C",
")I 	c #2D141E",
"!I 	c #120A17",
"~I 	c #2C1734",
"{I 	c #442851",
"]I 	c #4E3566",
"^I 	c #433366",
"/I 	c #352F5D",
"(I 	c #1F1E3F",
"_I 	c #000111",
":I 	c #251F45",
"<I 	c #4B477F",
"[I 	c #4B4A84",
"}I 	c #343459",
"|I 	c #1E2143",
"1I 	c #52568D",
"2I 	c #3F3E73",
"3I 	c #02030E",
"4I 	c #030411",
"5I 	c #41427A",
"6I 	c #494F84",
"7I 	c #050A1B",
"8I 	c #010212",
"9I 	c #3B3F72",
"0I 	c #46487F",
"aI 	c #070726",
"bI 	c #030314",
"cI 	c #39397C",
"dI 	c #403F7D",
"eI 	c #07071D",
"fI 	c #34255E",
"gI 	c #4A3991",
"hI 	c #16123A",
"iI 	c #140933",
"jI 	c #3E2885",
"kI 	c #3A2775",
"lI 	c #0E0722",
"mI 	c #120529",
"nI 	c #321869",
"oI 	c #3B1E75",
"pI 	c #200C3A",
"qI 	c #0D072C",
"rI 	c #261357",
"sI 	c #2E0E69",
"tI 	c #1B0738",
"uI 	c #0A0326",
"vI 	c #1D0652",
"wI 	c #27075B",
"xI 	c #1A0536",
"yI 	c #050025",
"zI 	c #18044A",
"AI 	c #20085A",
"BI 	c #160545",
"CI 	c #040013",
"DI 	c #050124",
"EI 	c #1A0D5F",
"FI 	c #231067",
"GI 	c #140941",
"HI 	c #0C0831",
"II 	c #1E1F5E",
"JI 	c #1F1D68",
"KI 	c #080834",
"LI 	c #000108",
"MI 	c #0F1742",
"NI 	c #192668",
"OI 	c #13175A",
"PI 	c #000115",
"QI 	c #05071D",
"RI 	c #0C1C4C",
"SI 	c #0B1B49",
"TI 	c #030723",
"UI 	c #0E0818",
"VI 	c #140A24",
"WI 	c #0B0513",
"XI 	c #100517",
"YI 	c #09000C",
"ZI 	c #15051B",
"`I 	c #050007",
" J 	c #09010A",
".J 	c #16041B",
"+J 	c #130518",
"@J 	c #09010B",
"#J 	c #180420",
"$J 	c #0E0213",
"%J 	c #1D0B23",
"&J 	c #0D080F",
"*J 	c #100B19",
"=J 	c #1B0D26",
"-J 	c #050312",
";J 	c #160F2A",
">J 	c #100913",
",J 	c #2A1B2C",
"'J 	c #110A10",
")J 	c #231D27",
"!J 	c #38323B",
"~J 	c #1B1515",
"{J 	c #745F56",
"]J 	c #392E29",
"^J 	c #775846",
"/J 	c #7F5B4D",
"(J 	c #533730",
"_J 	c #C1846A",
":J 	c #43261B",
"<J 	c #0C0101",
"[J 	c #BC8469",
"}J 	c #7C503E",
"|J 	c #966151",
"1J 	c #D38166",
"2J 	c #140100",
"3J 	c #3A1E1D",
"4J 	c #DD796A",
"5J 	c #592924",
"6J 	c #8F4644",
"7J 	c #B5625F",
"8J 	c #1D0808",
"9J 	c #9B4D4C",
"0J 	c #A94E4D",
"aJ 	c #170504",
"bJ 	c #6E2C33",
"cJ 	c #9F444D",
"dJ 	c #4D1B1D",
"eJ 	c #0F0002",
"fJ 	c #521920",
"gJ 	c #7A2937",
"hJ 	c #6A1C28",
"iJ 	c #2E0608",
"jJ 	c #442126",
"kJ 	c #180607",
"lJ 	c #301D1C",
"mJ 	c #755556",
"nJ 	c #815E5F",
"oJ 	c #3E2B29",
"pJ 	c #1A0A09",
"qJ 	c #5B3739",
"rJ 	c #845559",
"sJ 	c #431E29",
"tJ 	c #2C0E0F",
"uJ 	c #855647",
"vJ 	c #845444",
"wJ 	c #260C0A",
"xJ 	c #694534",
"yJ 	c #AC7957",
"zJ 	c #3C180B",
"AJ 	c #5D3620",
"BJ 	c #A47C5E",
"CJ 	c #29120B",
"DJ 	c #583121",
"EJ 	c #AF7957",
"FJ 	c #290D07",
"GJ 	c #502717",
"HJ 	c #B67F59",
"IJ 	c #2D1D16",
"JJ 	c #140502",
"KJ 	c #A36E4F",
"LJ 	c #845B3C",
"MJ 	c #090100",
"NJ 	c #15070C",
"OJ 	c #79454C",
"PJ 	c #8C5156",
"QJ 	c #452C3A",
"RJ 	c #180D1D",
"SJ 	c #291437",
"TJ 	c #452B5A",
"UJ 	c #4D376A",
"VJ 	c #47386B",
"WJ 	c #3E3666",
"XJ 	c #35335C",
"YJ 	c #131535",
"ZJ 	c #030216",
"`J 	c #3C3864",
" K 	c #4C4D86",
".K 	c #4E5283",
"+K 	c #181B36",
"@K 	c #030516",
"#K 	c #3E426E",
"$K 	c #575B99",
"%K 	c #1C2237",
"&K 	c #181C3F",
"*K 	c #565E93",
"=K 	c #2C3653",
"-K 	c #15163B",
";K 	c #545890",
">K 	c #2C325F",
",K 	c #0E1231",
"'K 	c #4A4A8A",
")K 	c #32316D",
"!K 	c #000017",
"~K 	c #09041F",
"{K 	c #3C316F",
"]K 	c #423B7F",
"^K 	c #0E0C33",
"/K 	c #150E38",
"(K 	c #402F7A",
"_K 	c #39297A",
":K 	c #100A28",
"<K 	c #0F032A",
"[K 	c #301762",
"}K 	c #3E217B",
"|K 	c #25115B",
"1K 	c #040119",
"2K 	c #0D0421",
"3K 	c #2A0D58",
"4K 	c #33136C",
"5K 	c #1E0B4B",
"6K 	c #05001C",
"7K 	c #0A001B",
"8K 	c #20054D",
"9K 	c #260968",
"0K 	c #160940",
"aK 	c #040214",
"bK 	c #180445",
"cK 	c #210961",
"dK 	c #160548",
"eK 	c #050218",
"fK 	c #1B0F50",
"gK 	c #231467",
"hK 	c #140B41",
"iK 	c #0A0C36",
"jK 	c #21216D",
"kK 	c #1C1F5E",
"lK 	c #040918",
"mK 	c #111C53",
"nK 	c #1A226D",
"oK 	c #0A133B",
"pK 	c #051133",
"qK 	c #0E1D4A",
"rK 	c #0A143B",
"sK 	c #000312",
"tK 	c #150A24",
"uK 	c #11071B",
"vK 	c #020202",
"wK 	c #14061B",
"xK 	c #0A020B",
"yK 	c #120518",
"zK 	c #050006",
"AK 	c #140418",
"BK 	c #14041A",
"CK 	c #08020A",
"DK 	c #170521",
"EK 	c #16021F",
"FK 	c #0F0314",
"GK 	c #1D0C23",
"HK 	c #100B18",
"IK 	c #0C010D",
"JK 	c #070514",
"KK 	c #17102A",
"LK 	c #0C0818",
"MK 	c #140D17",
"NK 	c #2C1D2E",
"OK 	c #0C050B",
"PK 	c #2B262E",
"QK 	c #332E35",
"RK 	c #2B221E",
"SK 	c #796357",
"TK 	c #251D1A",
"UK 	c #8B664F",
"VK 	c #694B3E",
"WK 	c #69463B",
"XK 	c #BF8265",
"YK 	c #2E170E",
"ZK 	c #180A07",
"`K 	c #CA8B6E",
" L 	c #6E4434",
".L 	c #A16A58",
"+L 	c #CE7D60",
"@L 	c #3D2121",
"#L 	c #DC7869",
"$L 	c #5A2924",
"%L 	c #84403C",
"&L 	c #BC6763",
"*L 	c #2E1010",
"=L 	c #834142",
"-L 	c #B85B5B",
";L 	c #341210",
">L 	c #471821",
",L 	c #994551",
"'L 	c #793235",
")L 	c #1D0203",
"!L 	c #210406",
"~L 	c #61222B",
"{L 	c #7D2835",
"]L 	c #652027",
"^L 	c #280C0A",
"/L 	c #352C27",
"(L 	c #745E5D",
"_L 	c #7F5D5F",
":L 	c #3D2928",
"<L 	c #140908",
"[L 	c #502D31",
"}L 	c #89565C",
"|L 	c #553338",
"1L 	c #5E382D",
"2L 	c #996A59",
"3L 	c #4D2A26",
"4L 	c #31120A",
"5L 	c #A36D4A",
"6L 	c #8B5F44",
"7L 	c #1F0D07",
"8L 	c #805942",
"9L 	c #9E6844",
"0L 	c #1F0602",
"aL 	c #6A4735",
"bL 	c #A07052",
"cL 	c #1E0501",
"dL 	c #5B3021",
"eL 	c #B77C5C",
"fL 	c #2F1F15",
"gL 	c #0F0300",
"hL 	c #A26448",
"iL 	c #986449",
"jL 	c #0E0A05",
"kL 	c #5F3C3D",
"lL 	c #884F61",
"mL 	c #62384C",
"nL 	c #0E090E",
"oL 	c #0A0306",
"pL 	c #180B1D",
"qL 	c #25143A",
"rL 	c #422E61",
"sL 	c #4D396D",
"tL 	c #4A3B6D",
"uL 	c #443C6D",
"vL 	c #3F3E6E",
"wL 	c #343866",
"xL 	c #0B0E27",
"yL 	c #100F2A",
"zL 	c #484E7C",
"AL 	c #4A578D",
"BL 	c #434973",
"CL 	c #050616",
"DL 	c #1A1B37",
"EL 	c #526094",
"FL 	c #444D76",
"GL 	c #040612",
"HL 	c #3B4268",
"IL 	c #555E95",
"JL 	c #10152F",
"KL 	c #2E3663",
"LL 	c #505E97",
"ML 	c #171A3A",
"NL 	c #232553",
"OL 	c #53529A",
"PL 	c #242357",
"QL 	c #0D0A22",
"RL 	c #403C7D",
"SL 	c #3F3B83",
"TL 	c #0A0B2A",
"UL 	c #160E34",
"VL 	c #403083",
"WL 	c #3D3279",
"XL 	c #110E32",
"YL 	c #080220",
"ZL 	c #2A175E",
"`L 	c #402581",
" M 	c #2E1B5B",
".M 	c #0C0327",
"+M 	c #09011A",
"@M 	c #230D4E",
"#M 	c #351972",
"$M 	c #29105C",
"%M 	c #0D0224",
"&M 	c #020015",
"*M 	c #140644",
"=M 	c #250C65",
"-M 	c #1F084E",
";M 	c #09001C",
">M 	c #050017",
",M 	c #16063C",
"'M 	c #230B5E",
")M 	c #1A0650",
"!M 	c #060017",
"~M 	c #1B1452",
"{M 	c #23176A",
"]M 	c #120B42",
"^M 	c #212768",
"/M 	c #181E54",
"(M 	c #17235A",
"_M 	c #16235F",
":M 	c #040A2C",
"<M 	c #0F183A",
"[M 	c #111C47",
"}M 	c #0D0414",
"|M 	c #0E0217",
"1M 	c #15051C",
"2M 	c #0F0511",
"3M 	c #1A0522",
"4M 	c #0C040F",
"5M 	c #110315",
"6M 	c #060106",
"7M 	c #160422",
"8M 	c #0C0B10",
"9M 	c #080618",
"0M 	c #0A0616",
"aM 	c #18101B",
"bM 	c #2A1C2C",
"cM 	c #080105",
"dM 	c #352F36",
"eM 	c #2D282E",
"fM 	c #3A2F29",
"gM 	c #7B6555",
"hM 	c #161211",
"iM 	c #0B0404",
"jM 	c #997156",
"kM 	c #543C2F",
"lM 	c #7A5343",
"mM 	c #BB7F5D",
"nM 	c #1E0F08",
"oM 	c #21120E",
"pM 	c #D38F6D",
"qM 	c #663E2F",
"rM 	c #A36B57",
"sM 	c #D07F62",
"tM 	c #391B1B",
"uM 	c #DB7566",
"vM 	c #64352F",
"wM 	c #73322D",
"xM 	c #C86F6B",
"yM 	c #481F1F",
"zM 	c #5D2D2B",
"AM 	c #BC6260",
"BM 	c #602B2B",
"CM 	c #7C3641",
"DM 	c #974445",
"EM 	c #511C1F",
"FM 	c #090003",
"GM 	c #23090B",
"HM 	c #68232D",
"IM 	c #7E2A36",
"JM 	c #67252C",
"KM 	c #7A585F",
"LM 	c #312421",
"MM 	c #150806",
"NM 	c #512B30",
"OM 	c #8C515B",
"PM 	c #653E48",
"QM 	c #180810",
"RM 	c #3C201B",
"SM 	c #996151",
"TM 	c #7A4A42",
"UM 	c #250A05",
"VM 	c #623E27",
"WM 	c #AB815D",
"XM 	c #4B3426",
"YM 	c #391305",
"ZM 	c #A7724F",
"`M 	c #704F3B",
" N 	c #160300",
".N 	c #8A5C45",
"+N 	c #936246",
"@N 	c #5E3C2D",
"#N 	c #AC7D5F",
"$N 	c #311B16",
"%N 	c #100200",
"&N 	c #97654A",
"*N 	c #A26A50",
"=N 	c #1D0C0A",
"-N 	c #453031",
";N 	c #7C5456",
">N 	c #673E51",
",N 	c #291528",
"'N 	c #0B040A",
")N 	c #14091D",
"!N 	c #22153A",
"~N 	c #3B2C5D",
"{N 	c #4A396E",
"]N 	c #4A3E70",
"^N 	c #484072",
"/N 	c #454376",
"(N 	c #454678",
"_N 	c #383B64",
":N 	c #06091A",
"<N 	c #020301",
"[N 	c #222B4A",
"}N 	c #4B5C8D",
"|N 	c #555E91",
"1N 	c #2A3049",
"2N 	c #010110",
"3N 	c #34446A",
"4N 	c #59699D",
"5N 	c #26304C",
"6N 	c #11152B",
"7N 	c #555F98",
"8N 	c #3F4872",
"9N 	c #00020A",
"0N 	c #050922",
"aN 	c #475188",
"bN 	c #465186",
"cN 	c #06081C",
"dN 	c #010111",
"eN 	c #353966",
"fN 	c #505291",
"gN 	c #181B40",
"hN 	c #121235",
"iN 	c #454489",
"jN 	c #3E4079",
"kN 	c #0C0D26",
"lN 	c #140C35",
"mN 	c #3E3282",
"nN 	c #413A8C",
"oN 	c #181642",
"pN 	c #040014",
"qN 	c #251447",
"rN 	c #42297C",
"sN 	c #3B227B",
"tN 	c #160B41",
"uN 	c #1E0A40",
"vN 	c #371870",
"wN 	c #301666",
"xN 	c #130737",
"yN 	c #160343",
"zN 	c #2A0D67",
"AN 	c #220C57",
"BN 	c #0B012D",
"CN 	c #15083C",
"DN 	c #230D68",
"EN 	c #1D0852",
"FN 	c #07001B",
"GN 	c #1D155D",
"HN 	c #251A6E",
"IN 	c #0F0A37",
"JN 	c #00010C",
"KN 	c #111644",
"LN 	c #252475",
"MN 	c #181852",
"NN 	c #070F2B",
"ON 	c #142364",
"PN 	c #101C5A",
"QN 	c #010315",
"RN 	c #04091A",
"SN 	c #0D1A3E",
"TN 	c #0D173B",
"UN 	c #15081C",
"VN 	c #13071D",
"WN 	c #07010E",
"XN 	c #13061B",
"YN 	c #130618",
"ZN 	c #08010D",
"`N 	c #100413",
" O 	c #0C0110",
".O 	c #15041C",
"+O 	c #0D0110",
"@O 	c #12031C",
"#O 	c #180423",
"$O 	c #0D0112",
"%O 	c #0F0918",
"&O 	c #170A1E",
"*O 	c #18112C",
"=O 	c #080514",
"-O 	c #1C141E",
";O 	c #281B2B",
">O 	c #070204",
",O 	c #3B343A",
"'O 	c #272227",
")O 	c #473B34",
"!O 	c #786351",
"~O 	c #0D0A09",
"{O 	c #160D0C",
"]O 	c #A0735A",
"^O 	c #493327",
"/O 	c #855948",
"(O 	c #BA7B5B",
"_O 	c #160B06",
":O 	c #251712",
"<O 	c #D7906E",
"[O 	c #653E30",
"}O 	c #9F6554",
"|O 	c #D78265",
"1O 	c #140403",
"2O 	c #281113",
"3O 	c #D57267",
"4O 	c #7E433D",
"5O 	c #531F1D",
"6O 	c #D16D69",
"7O 	c #6D3434",
"8O 	c #321412",
"9O 	c #B05A59",
"0O 	c #96494B",
"aO 	c #150708",
"bO 	c #47181E",
"cO 	c #934447",
"dO 	c #85393F",
"eO 	c #37111A",
"fO 	c #290408",
"gO 	c #651D28",
"hO 	c #7B2936",
"iO 	c #180506",
"jO 	c #522B3A",
"kO 	c #84585F",
"lO 	c #684548",
"mO 	c #250C0E",
"nO 	c #2E140B",
"oO 	c #885845",
"pO 	c #906154",
"qO 	c #321B14",
"rO 	c #36180C",
"sO 	c #9F6D4E",
"tO 	c #93654C",
"uO 	c #221008",
"vO 	c #61361E",
"wO 	c #B47C58",
"xO 	c #4B291C",
"yO 	c #270F07",
"zO 	c #A27453",
"AO 	c #784F3B",
"BO 	c #764C38",
"CO 	c #B07A57",
"DO 	c #21140C",
"EO 	c #170501",
"FO 	c #996453",
"GO 	c #9F6D5C",
"HO 	c #25130C",
"IO 	c #39222C",
"JO 	c #77505D",
"KO 	c #683E52",
"LO 	c #412033",
"MO 	c #0F061D",
"NO 	c #1A0F2F",
"OO 	c #2C214B",
"PO 	c #40376A",
"QO 	c #4A4277",
"RO 	c #4A437A",
"SO 	c #4C497B",
"TO 	c #4B4A78",
"UO 	c #4A5083",
"VO 	c #323A59",
"WO 	c #01050C",
"XO 	c #01040E",
"YO 	c #3D4B6D",
"ZO 	c #536093",
"`O 	c #4D5C7E",
" P 	c #0E1520",
".P 	c #0E142E",
"+P 	c #4D628C",
"@P 	c #4B6088",
"#P 	c #0A0D22",
"$P 	c #2F3858",
"%P 	c #58699A",
"&P 	c #202C46",
"*P 	c #1E1D3C",
"=P 	c #5065A0",
"-P 	c #333D63",
";P 	c #070A1C",
">P 	c #454785",
",P 	c #4B528D",
"'P 	c #0D142A",
")P 	c #15173F",
"!P 	c #4A478F",
"~P 	c #413F80",
"{P 	c #0F102E",
"]P 	c #0F0B2B",
"^P 	c #3B3376",
"/P 	c #483F8F",
"(P 	c #241F54",
"_P 	c #010010",
":P 	c #180D41",
"<P 	c #3D2979",
"[P 	c #3F2F7C",
"}P 	c #1F1651",
"|P 	c #030015",
"1P 	c #31196B",
"2P 	c #371B74",
"3P 	c #1E0A46",
"4P 	c #0F062E",
"5P 	c #281061",
"6P 	c #2A0C66",
"7P 	c #0F0431",
"8P 	c #13093C",
"9P 	c #271064",
"0P 	c #040318",
"aP 	c #070326",
"bP 	c #20175C",
"cP 	c #271C68",
"dP 	c #0D0B31",
"eP 	c #1A1554",
"fP 	c #24266E",
"gP 	c #0D143E",
"hP 	c #0A1642",
"iP 	c #112667",
"jP 	c #0B143E",
"kP 	c #061424",
"lP 	c #111B48",
"mP 	c #0B0D2D",
"nP 	c #0D0312",
"oP 	c #150623",
"pP 	c #0A0514",
"qP 	c #140620",
"rP 	c #0C0116",
"sP 	c #130319",
"tP 	c #16031D",
"uP 	c #15041B",
"vP 	c #1B0321",
"wP 	c #07000C",
"xP 	c #0D0111",
"yP 	c #0F0716",
"zP 	c #180921",
"AP 	c #090A18",
"BP 	c #070614",
"CP 	c #1E161E",
"DP 	c #281A29",
"EP 	c #0A0409",
"FP 	c #413740",
"GP 	c #232125",
"HP 	c #4E3E39",
"IP 	c #756250",
"JP 	c #080601",
"KP 	c #1D1112",
"LP 	c #A47360",
"MP 	c #462F23",
"NP 	c #8B5C4E",
"OP 	c #BB775E",
"PP 	c #170C06",
"QP 	c #231610",
"RP 	c #D8906D",
"SP 	c #684333",
"TP 	c #945A4D",
"UP 	c #E1886B",
"VP 	c #230E0B",
"WP 	c #120509",
"XP 	c #C46863",
"YP 	c #A55049",
"ZP 	c #C75F5B",
"`P 	c #9F504C",
" Q 	c #0A0204",
".Q 	c #0A0101",
"+Q 	c #844241",
"@Q 	c #BE5F61",
"#Q 	c #55272C",
"$Q 	c #0C0102",
"%Q 	c #5F2932",
"&Q 	c #9C434B",
"*Q 	c #833238",
"=Q 	c #330F13",
"-Q 	c #160304",
";Q 	c #46161B",
">Q 	c #8E595D",
",Q 	c #6A3C4B",
"'Q 	c #290C12",
")Q 	c #280F09",
"!Q 	c #76513B",
"~Q 	c #9B6B57",
"{Q 	c #250803",
"]Q 	c #7C513A",
"^Q 	c #B37D5C",
"/Q 	c #5C311B",
"(Q 	c #2A0F05",
"_Q 	c #9C6438",
":Q 	c #9B6B45",
"<Q 	c #110C0D",
"[Q 	c #502B1C",
"}Q 	c #BC7951",
"|Q 	c #4F3026",
"1Q 	c #916143",
"2Q 	c #A26C59",
"3Q 	c #150B04",
"4Q 	c #200904",
"5Q 	c #9C6551",
"6Q 	c #9F6E5E",
"7Q 	c #2A120C",
"8Q 	c #281C1F",
"9Q 	c #6E4B5D",
"0Q 	c #6A3C56",
"aQ 	c #48293F",
"bQ 	c #130412",
"cQ 	c #08050D",
"dQ 	c #0C0516",
"eQ 	c #110621",
"fQ 	c #170F32",
"gQ 	c #26224C",
"hQ 	c #3F3B6A",
"iQ 	c #4B4B7D",
"jQ 	c #4A4D7D",
"kQ 	c #4C517E",
"lQ 	c #475380",
"mQ 	c #4E5A80",
"nQ 	c #2C364F",
"oQ 	c #11172B",
"pQ 	c #4B5D86",
"qQ 	c #52698F",
"rQ 	c #37465A",
"sQ 	c #2C3B56",
"tQ 	c #597196",
"uQ 	c #34405B",
"vQ 	c #090B1B",
"wQ 	c #4D5A80",
"xQ 	c #4E5F8C",
"yQ 	c #08101F",
"zQ 	c #313860",
"AQ 	c #5A6A95",
"BQ 	c #232B4C",
"CQ 	c #10122A",
"DQ 	c #4E5481",
"EQ 	c #455083",
"FQ 	c #0B1125",
"GQ 	c #191541",
"HQ 	c #4C4795",
"IQ 	c #444987",
"JQ 	c #111735",
"KQ 	c #362A74",
"LQ 	c #4A439A",
"MQ 	c #2F3063",
"NQ 	c #08091F",
"OQ 	c #0D062D",
"PQ 	c #342667",
"QQ 	c #453589",
"RQ 	c #2E2167",
"SQ 	c #0B0433",
"TQ 	c #0E041B",
"UQ 	c #2B185B",
"VQ 	c #3B217C",
"WQ 	c #281256",
"XQ 	c #090023",
"YQ 	c #0D0527",
"ZQ 	c #231164",
"`Q 	c #2B126A",
" R 	c #17053F",
".R 	c #140838",
"+R 	c #261468",
"@R 	c #1C0E58",
"#R 	c #050120",
"$R 	c #07071B",
"%R 	c #231C63",
"&R 	c #0A0831",
"*R 	c #030617",
"=R 	c #1C1F51",
"-R 	c #21266B",
";R 	c #080F39",
">R 	c #000417",
",R 	c #121E4C",
"'R 	c #14235A",
")R 	c #060C2C",
"!R 	c #121435",
"~R 	c #13173A",
"{R 	c #030718",
"]R 	c #11051D",
"^R 	c #100319",
"/R 	c #0E0112",
"(R 	c #18041D",
"_R 	c #0A010E",
":R 	c #130218",
"<R 	c #1C0422",
"[R 	c #09000E",
"}R 	c #0B000E",
"|R 	c #12121A",
"1R 	c #180822",
"2R 	c #0B020E",
"3R 	c #0A0A18",
"4R 	c #19112B",
"5R 	c #080613",
"6R 	c #221821",
"7R 	c #2A1B29",
"8R 	c #0C070A",
"9R 	c #453B44",
"0R 	c #211F23",
"aR 	c #53423D",
"bR 	c #75614F",
"cR 	c #060400",
"dR 	c #1E1214",
"eR 	c #A57461",
"fR 	c #472D22",
"gR 	c #855849",
"hR 	c #BD7A5D",
"iR 	c #1F1009",
"jR 	c #1B100D",
"kR 	c #D28D6C",
"lR 	c #7B513D",
"mR 	c #7B493D",
"nR 	c #E69278",
"oR 	c #3F211B",
"pR 	c #A5554D",
"qR 	c #C36861",
"rR 	c #1E0A0A",
"sR 	c #944D45",
"tR 	c #C76963",
"uR 	c #41171E",
"vR 	c #351F1A",
"wR 	c #AF5D5F",
"xR 	c #9F5252",
"yR 	c #2B0F0D",
"zR 	c #170208",
"AR 	c #6F2E38",
"BR 	c #9E3F4C",
"CR 	c #8B3041",
"DR 	c #411419",
"ER 	c #26080D",
"FR 	c #2E0E08",
"GR 	c #774C3C",
"HR 	c #9F6F5A",
"IR 	c #64392B",
"JR 	c #270501",
"KR 	c #5A3622",
"LR 	c #AD805E",
"MR 	c #83553E",
"NR 	c #220905",
"OR 	c #543729",
"PR 	c #B38053",
"QR 	c #613D20",
"RR 	c #110200",
"SR 	c #88532F",
"TR 	c #AC724E",
"UR 	c #29120A",
"VR 	c #220F07",
"WR 	c #9F7453",
"XR 	c #945E3F",
"YR 	c #230F0E",
"ZR 	c #A36C4F",
"`R 	c #9A6C52",
" S 	c #28110B",
".S 	c #241420",
"+S 	c #6A4557",
"@S 	c #6B3754",
"#S 	c #54274A",
"$S 	c #1C0A1E",
"%S 	c #090114",
"&S 	c #08041B",
"*S 	c #0C0B28",
"=S 	c #1A1B3E",
"-S 	c #363B63",
";S 	c #4C547F",
">S 	c #4B567F",
",S 	c #48597D",
"'S 	c #4A5C83",
")S 	c #516187",
"!S 	c #1F2942",
"~S 	c #283A53",
"{S 	c #506B8F",
"]S 	c #546885",
"^S 	c #1B212F",
"/S 	c #070D1B",
"(S 	c #485E7D",
"_S 	c #566B8A",
":S 	c #151C2F",
"<S 	c #1F2641",
"[S 	c #596B9F",
"}S 	c #344C61",
"|S 	c #000402",
"1S 	c #08071A",
"2S 	c #42537D",
"3S 	c #566294",
"4S 	c #171834",
"5S 	c #161B39",
"6S 	c #525C97",
"7S 	c #44517F",
"8S 	c #0B0E26",
"9S 	c #16173B",
"0S 	c #454C8E",
"aS 	c #46508C",
"bS 	c #1B1E43",
"cS 	c #27285D",
"dS 	c #474995",
"eS 	c #3E3C80",
"fS 	c #101234",
"gS 	c #04011B",
"hS 	c #291E51",
"iS 	c #443885",
"jS 	c #3A2D81",
"kS 	c #120B3C",
"lS 	c #050116",
"mS 	c #281655",
"nS 	c #3F237E",
"oS 	c #2F186B",
"pS 	c #0B0325",
"qS 	c #070523",
"rS 	c #280F58",
"sS 	c #33146D",
"tS 	c #1B0741",
"uS 	c #04000C",
"vS 	c #13083E",
"wS 	c #2A166A",
"xS 	c #201255",
"yS 	c #040215",
"zS 	c #09082C",
"AS 	c #261E6B",
"BS 	c #241D66",
"CS 	c #060621",
"DS 	c #060726",
"ES 	c #1F226D",
"FS 	c #1C2464",
"GS 	c #07061F",
"HS 	c #040722",
"IS 	c #12215C",
"JS 	c #0E204D",
"KS 	c #000619",
"LS 	c #131838",
"MS 	c #0C122C",
"NS 	c #100418",
"OS 	c #09010C",
"PS 	c #08000C",
"QS 	c #17031B",
"RS 	c #140319",
"SS 	c #0A010D",
"TS 	c #0C0111",
"US 	c #0B0111",
"VS 	c #1C0F23",
"WS 	c #171520",
"XS 	c #0A0312",
"YS 	c #170921",
"ZS 	c #090917",
"`S 	c #1B122D",
" T 	c #231821",
".T 	c #2A1A2A",
"+T 	c #0D060B",
"@T 	c #55433E",
"#T 	c #765F4E",
"$T 	c #1C1113",
"%T 	c #A57460",
"&T 	c #4D3026",
"*T 	c #7A5141",
"=T 	c #C3805F",
"-T 	c #2C1610",
";T 	c #0E0505",
">T 	c #C58769",
",T 	c #95644C",
"'T 	c #5A322A",
")T 	c #E3957E",
"!T 	c #D47970",
"~T 	c #522423",
"{T 	c #502D24",
"]T 	c #CE7069",
"^T 	c #8F424B",
"/T 	c #0A0001",
"(T 	c #020401",
"_T 	c #73383B",
":T 	c #C65B5C",
"<T 	c #8A4543",
"[T 	c #150607",
"}T 	c #190406",
"|T 	c #672B32",
"1T 	c #95404C",
"2T 	c #893846",
"3T 	c #5F1F2B",
"4T 	c #22050A",
"5T 	c #7A5243",
"6T 	c #A1705E",
"7T 	c #693E39",
"8T 	c #230304",
"9T 	c #47241B",
"0T 	c #A47A49",
"aT 	c #A07343",
"bT 	c #3D1A10",
"cT 	c #371608",
"dT 	c #9F6D47",
"eT 	c #9E6D4C",
"fT 	c #260F07",
"gT 	c #2B1B16",
"hT 	c #A67655",
"iT 	c #885734",
"jT 	c #3E2920",
"kT 	c #B97F52",
"lT 	c #794A30",
"mT 	c #331E12",
"nT 	c #B66E54",
"oT 	c #8E6552",
"pT 	c #1D1108",
"qT 	c #20121D",
"rT 	c #653F5B",
"sT 	c #663354",
"tT 	c #542547",
"uT 	c #2C0D2B",
"vT 	c #08000D",
"wT 	c #02020D",
"xT 	c #030518",
"yT 	c #0B112F",
"zT 	c #2C375A",
"AT 	c #4C597C",
"BT 	c #4E5F7E",
"CT 	c #495D7E",
"DT 	c #4C6285",
"ET 	c #4E617C",
"FT 	c #121B2A",
"GT 	c #040B12",
"HT 	c #435770",
"IT 	c #556C8C",
"JT 	c #42576A",
"KT 	c #02070A",
"LT 	c #1E2C40",
"MT 	c #587391",
"NT 	c #41546B",
"OT 	c #01050B",
"PT 	c #394468",
"QT 	c #577390",
"RT 	c #1A2E3C",
"ST 	c #0F182E",
"TT 	c #53628B",
"UT 	c #4F5B7F",
"VT 	c #0B121F",
"WT 	c #1B2246",
"XT 	c #545F95",
"YT 	c #474F89",
"ZT 	c #0A1020",
"`T 	c #0F1236",
" U 	c #424A85",
".U 	c #51559E",
"+U 	c #272B59",
"@U 	c #181950",
"#U 	c #45428F",
"$U 	c #484B85",
"%U 	c #202449",
"&U 	c #191440",
"*U 	c #403681",
"=U 	c #433886",
"-U 	c #1F184B",
";U 	c #010012",
">U 	c #1D0F4C",
",U 	c #3D277F",
"'U 	c #362370",
")U 	c #0F082C",
"!U 	c #251155",
"~U 	c #321A6F",
"{U 	c #1B0B49",
"]U 	c #170A3A",
"^U 	c #2B1B66",
"/U 	c #201459",
"(U 	c #040120",
"_U 	c #0D0A35",
":U 	c #282466",
"<U 	c #212356",
"[U 	c #03051A",
"}U 	c #0B0C37",
"|U 	c #212762",
"1U 	c #1A2052",
"2U 	c #010115",
"3U 	c #071139",
"4U 	c #132459",
"5U 	c #0B183B",
"6U 	c #0D1026",
"7U 	c #161836",
"8U 	c #03020A",
"9U 	c #0F061B",
"0U 	c #0A0212",
"aU 	c #150117",
"bU 	c #140516",
"cU 	c #0C0011",
"dU 	c #1A0421",
"eU 	c #0F0315",
"fU 	c #1B0F21",
"gU 	c #1B1723",
"hU 	c #090311",
"iU 	c #160820",
"jU 	c #0B010D",
"kU 	c #1D122D",
"lU 	c #221720",
"mU 	c #2D1C2C",
"nU 	c #0B0409",
"oU 	c #242226",
"pU 	c #523E3A",
"qU 	c #7C6152",
"rU 	c #0A0803",
"sU 	c #160C0D",
"tU 	c #A3715E",
"uU 	c #5B3A30",
"vU 	c #6C4838",
"wU 	c #C78560",
"xU 	c #41251D",
"yU 	c #AF775C",
"zU 	c #B1795D",
"AU 	c #331510",
"BU 	c #D48B79",
"CU 	c #975B4B",
"DU 	c #3E1814",
"EU 	c #CA776C",
"FU 	c #914C47",
"GU 	c #110704",
"HU 	c #9D5853",
"IU 	c #C86A6D",
"JU 	c #4A1F1F",
"KU 	c #22070A",
"LU 	c #994649",
"MU 	c #B96266",
"NU 	c #783F43",
"OU 	c #190505",
"PU 	c #0C0202",
"QU 	c #482526",
"RU 	c #873C4A",
"SU 	c #98384D",
"TU 	c #7C2D3E",
"UU 	c #43181F",
"VU 	c #653B34",
"WU 	c #1E0903",
"XU 	c #3E1E0F",
"YU 	c #A46F4B",
"ZU 	c #B57C57",
"`U 	c #522E1A",
" V 	c #230500",
".V 	c #7A4B39",
"+V 	c #AC825D",
"@V 	c #59381E",
"#V 	c #1E0000",
"$V 	c #744639",
"%V 	c #B47A5C",
"&V 	c #512F21",
"*V 	c #6C4A30",
"=V 	c #B6815A",
"-V 	c #4E2D1C",
";V 	c #482E26",
">V 	c #B2775F",
",V 	c #885A43",
"'V 	c #180B0A",
")V 	c #1C121C",
"!V 	c #5E3E53",
"~V 	c #653153",
"{V 	c #4C274C",
"]V 	c #271431",
"^V 	c #0E0010",
"/V 	c #000216",
"(V 	c #010924",
"_V 	c #212F4B",
":V 	c #4D5C77",
"<V 	c #4D617C",
"[V 	c #47637A",
"}V 	c #4F6980",
"|V 	c #42566C",
"1V 	c #060A1B",
"2V 	c #1B2331",
"3V 	c #4F6685",
"4V 	c #4C6F86",
"5V 	c #223641",
"6V 	c #01040F",
"7V 	c #38526D",
"8V 	c #54738E",
"9V 	c #243545",
"0V 	c #0D121C",
"aV 	c #4B6285",
"bV 	c #4B658B",
"cV 	c #111722",
"dV 	c #1A273C",
"eV 	c #526B93",
"fV 	c #41547A",
"gV 	c #080C16",
"hV 	c #1C2647",
"iV 	c #526495",
"jV 	c #455984",
"kV 	c #10182B",
"lV 	c #0A0C23",
"mV 	c #374371",
"nV 	c #51639A",
"oV 	c #324067",
"pV 	c #090A1D",
"qV 	c #0D0F29",
"rV 	c #393B79",
"sV 	c #4E519E",
"tV 	c #32356B",
"uV 	c #07091E",
"vV 	c #0C0B24",
"wV 	c #36306D",
"xV 	c #4A4196",
"yV 	c #2B2665",
"zV 	c #020219",
"AV 	c #150D35",
"BV 	c #3B247A",
"CV 	c #3F2783",
"DV 	c #180D43",
"EV 	c #030018",
"FV 	c #211153",
"GV 	c #361E78",
"HV 	c #200E4E",
"IV 	c #030013",
"JV 	c #150C3C",
"KV 	c #2C1D72",
"LV 	c #050114",
"MV 	c #0E1039",
"NV 	c #282871",
"OV 	c #1C1B5F",
"PV 	c #010217",
"QV 	c #0F143C",
"RV 	c #1C2A71",
"SV 	c #131646",
"TV 	c #0D194D",
"UV 	c #152354",
"VV 	c #040F26",
"WV 	c #171330",
"XV 	c #12122C",
"YV 	c #010406",
"ZV 	c #110516",
"`V 	c #140417",
" W 	c #070007",
".W 	c #120015",
"+W 	c #170519",
"@W 	c #0D0113",
"#W 	c #19021F",
"$W 	c #130519",
"%W 	c #180E1F",
"&W 	c #1F1927",
"*W 	c #160720",
"=W 	c #0C020F",
"-W 	c #1F132F",
";W 	c #0D0715",
">W 	c #221620",
",W 	c #301E2E",
"'W 	c #050105",
")W 	c #090307",
"!W 	c #2A282C",
"~W 	c #4A3532",
"{W 	c #846758",
"]W 	c #13100C",
"^W 	c #0D0304",
"/W 	c #9C6957",
"(W 	c #6B483F",
"_W 	c #573625",
":W 	c #C88760",
"<W 	c #5D3B32",
"[W 	c #8F5C41",
"}W 	c #CD9070",
"|W 	c #1B1710",
"1W 	c #B36F5F",
"2W 	c #C7816C",
"3W 	c #180D10",
"4W 	c #A05A4C",
"5W 	c #C6716A",
"6W 	c #3B1515",
"7W 	c #482423",
"8W 	c #CB6D66",
"9W 	c #A85854",
"0W 	c #220A0D",
"aW 	c #291011",
"bW 	c #9A5255",
"cW 	c #BD5E63",
"dW 	c #834344",
"eW 	c #1F0C0E",
"fW 	c #311114",
"gW 	c #6E2F36",
"hW 	c #8E3C46",
"iW 	c #8F3844",
"jW 	c #3B1C0F",
"kW 	c #9E694B",
"lW 	c #BB835B",
"mW 	c #623E21",
"nW 	c #170500",
"oW 	c #513525",
"pW 	c #B37C5C",
"qW 	c #865C48",
"rW 	c #150807",
"sW 	c #3A1A0F",
"tW 	c #A77150",
"uW 	c #8F654E",
"vW 	c #1F0A07",
"wW 	c #250B07",
"xW 	c #9E6A4F",
"yW 	c #A96F4B",
"zW 	c #28160A",
"AW 	c #604030",
"BW 	c #AF7F6A",
"CW 	c #794A3F",
"DW 	c #100403",
"EW 	c #21121D",
"FW 	c #593C53",
"GW 	c #5C2F54",
"HW 	c #51224A",
"IW 	c #311435",
"JW 	c #0E0216",
"KW 	c #000212",
"LW 	c #1D2940",
"MW 	c #4A5E77",
"NW 	c #4B657E",
"OW 	c #49637A",
"PW 	c #526980",
"QW 	c #314254",
"RW 	c #040302",
"SW 	c #364657",
"TW 	c #4C6C86",
"UW 	c #476076",
"VW 	c #081019",
"WW 	c #161926",
"XW 	c #4E6A7F",
"YW 	c #456779",
"ZW 	c #0C141F",
"`W 	c #1D283C",
" X 	c #52708B",
".X 	c #3E5771",
"+X 	c #040813",
"@X 	c #29334D",
"#X 	c #557098",
"$X 	c #38526F",
"%X 	c #030911",
"&X 	c #192442",
"*X 	c #54628F",
"=X 	c #4F5E85",
"-X 	c #152136",
";X 	c #020612",
">X 	c #31345E",
",X 	c #595E95",
"'X 	c #425181",
")X 	c #101C2E",
"!X 	c #02011F",
"~X 	c #2C2C62",
"{X 	c #4F5594",
"]X 	c #3E4A85",
"^X 	c #111B33",
"/X 	c #040216",
"(X 	c #2C2556",
"_X 	c #4D4692",
":X 	c #33347E",
"<X 	c #080D28",
"[X 	c #11052A",
"}X 	c #3A237F",
"|X 	c #42308B",
"1X 	c #1C144A",
"2X 	c #1E1250",
"3X 	c #372279",
"4X 	c #020018",
"5X 	c #170E40",
"6X 	c #312071",
"7X 	c #24155A",
"8X 	c #02001B",
"9X 	c #14153E",
"0X 	c #2C2977",
"aX 	c #17184E",
"bX 	c #00020C",
"cX 	c #161953",
"dX 	c #1D2A71",
"eX 	c #041137",
"fX 	c #040617",
"gX 	c #141C56",
"hX 	c #0C1D53",
"iX 	c #000911",
"jX 	c #12081B",
"kX 	c #0A0B1C",
"lX 	c #050103",
"mX 	c #09050A",
"nX 	c #16051A",
"oX 	c #0D0010",
"pX 	c #0A000A",
"qX 	c #13031A",
"rX 	c #0E0313",
"sX 	c #100217",
"tX 	c #110317",
"uX 	c #16021E",
"vX 	c #120D17",
"wX 	c #221C2D",
"xX 	c #140718",
"yX 	c #060511",
"zX 	c #120914",
"AX 	c #1C161C",
"BX 	c #332030",
"CX 	c #090105",
"DX 	c #3F3940",
"EX 	c #372C33",
"FX 	c #392E24",
"GX 	c #876A5A",
"HX 	c #241917",
"IX 	c #826253",
"JX 	c #845849",
"KX 	c #3F231A",
"LX 	c #BF836C",
"MX 	c #7C5645",
"NX 	c #593D2A",
"OX 	c #DA9A7A",
"PX 	c #503831",
"QX 	c #78443A",
"RX 	c #E6957E",
"SX 	c #55372E",
"TX 	c #562929",
"UX 	c #D5766A",
"VX 	c #904D45",
"WX 	c #080103",
"XX 	c #7D4441",
"YX 	c #D56E65",
"ZX 	c #984741",
"`X 	c #0F0407",
" Y 	c #2B1211",
".Y 	c #954F52",
"+Y 	c #BA5F68",
"@Y 	c #924A52",
"#Y 	c #391A1B",
"$Y 	c #140304",
"%Y 	c #45171F",
"&Y 	c #772D3A",
"*Y 	c #BB8855",
"=Y 	c #6D4228",
"-Y 	c #190400",
";Y 	c #3F2319",
">Y 	c #A7734F",
",Y 	c #A8734C",
"'Y 	c #3F1C0D",
")Y 	c #210200",
"!Y 	c #805036",
"~Y 	c #B27D59",
"{Y 	c #5A3725",
"]Y 	c #4F3222",
"^Y 	c #AF8262",
"/Y 	c #785542",
"(Y 	c #0D0100",
"_Y 	c #160402",
":Y 	c #875242",
"<Y 	c #B47B6B",
"[Y 	c #553D2F",
"}Y 	c #221321",
"|Y 	c #55384F",
"1Y 	c #582F50",
"2Y 	c #4D1F4A",
"3Y 	c #37123A",
"4Y 	c #17011C",
"5Y 	c #09000D",
"6Y 	c #1B293B",
"7Y 	c #4B6075",
"8Y 	c #486277",
"9Y 	c #466173",
"0Y 	c #4F6678",
"aY 	c #192431",
"bY 	c #0C131D",
"cY 	c #465E73",
"dY 	c #4F6B82",
"eY 	c #2E434E",
"fY 	c #2C3C4B",
"gY 	c #4D7283",
"hY 	c #364C5C",
"iY 	c #02020C",
"jY 	c #2B4151",
"kY 	c #55718F",
"lY 	c #334459",
"mY 	c #000209",
"nY 	c #2C3D5B",
"oY 	c #557090",
"pY 	c #3E4F61",
"qY 	c #06080F",
"rY 	c #181D37",
"sY 	c #4A5D82",
"tY 	c #4D6994",
"uY 	c #21314E",
"vY 	c #21253B",
"wY 	c #4E5A87",
"xY 	c #535F92",
"yY 	c #282E4E",
"zY 	c #171B40",
"AY 	c #464D8D",
"BY 	c #505697",
"CY 	c #252B52",
"DY 	c #1C1A47",
"EY 	c #46438D",
"FY 	c #41408E",
"GY 	c #15143E",
"HY 	c #09041A",
"IY 	c #322463",
"JY 	c #46368D",
"KY 	c #241C52",
"LY 	c #000014",
"MY 	c #1D1148",
"NY 	c #3A2774",
"OY 	c #251954",
"PY 	c #020014",
"QY 	c #322476",
"RY 	c #1F184A",
"SY 	c #181949",
"TY 	c #2C2D71",
"UY 	c #111545",
"VY 	c #05041D",
"WY 	c #182259",
"XY 	c #182862",
"YY 	c #060C32",
"ZY 	c #122256",
"`Y 	c #081731",
" Z 	c #130F24",
".Z 	c #14102A",
"+Z 	c #03030C",
"@Z 	c #0A020D",
"#Z 	c #14061E",
"$Z 	c #030103",
"%Z 	c #130418",
"&Z 	c #120416",
"*Z 	c #0C0310",
"=Z 	c #0E0212",
"-Z 	c #180322",
";Z 	c #09000B",
">Z 	c #242030",
",Z 	c #05070D",
"'Z 	c #120714",
")Z 	c #110613",
"!Z 	c #03020C",
"~Z 	c #1C1429",
"{Z 	c #160C16",
"]Z 	c #161217",
"^Z 	c #352232",
"/Z 	c #0F040A",
"(Z 	c #393439",
"_Z 	c #403339",
":Z 	c #261F14",
"<Z 	c #866A5C",
"[Z 	c #3A2927",
"}Z 	c #695347",
"|Z 	c #9A6A59",
"1Z 	c #0A0401",
"2Z 	c #230C09",
"3Z 	c #AD7461",
"4Z 	c #9F7056",
"5Z 	c #0E0301",
"6Z 	c #23150C",
"7Z 	c #CB8D72",
"8Z 	c #956454",
"9Z 	c #301614",
"0Z 	c #D18872",
"aZ 	c #A86D56",
"bZ 	c #110406",
"cZ 	c #99544B",
"dZ 	c #CD796F",
"eZ 	c #542826",
"fZ 	c #1A0909",
"gZ 	c #9A5550",
"hZ 	c #CD716C",
"iZ 	c #824246",
"jZ 	c #0F0305",
"kZ 	c #1F0B0C",
"lZ 	c #814148",
"mZ 	c #B96063",
"nZ 	c #AB5758",
"oZ 	c #6B2F37",
"pZ 	c #140506",
"qZ 	c #170400",
"rZ 	c #331B10",
"sZ 	c #9A6A47",
"tZ 	c #B87D53",
"uZ 	c #5E331C",
"vZ 	c #512F23",
"wZ 	c #AC7A5B",
"xZ 	c #886049",
"yZ 	c #1C0B06",
"zZ 	c #1B0703",
"AZ 	c #8B5C42",
"BZ 	c #B07C57",
"CZ 	c #493221",
"DZ 	c #321A11",
"EZ 	c #9C6858",
"FZ 	c #A97267",
"GZ 	c #4A2723",
"HZ 	c #231724",
"IZ 	c #583453",
"JZ 	c #562953",
"KZ 	c #4A1C4A",
"LZ 	c #380E3A",
"MZ 	c #1D0122",
"NZ 	c #1E2D37",
"OZ 	c #4B626F",
"PZ 	c #45606E",
"QZ 	c #456172",
"RZ 	c #425869",
"SZ 	c #050B13",
"TZ 	c #24303C",
"UZ 	c #496578",
"VZ 	c #466570",
"WZ 	c #121F25",
"XZ 	c #070A14",
"YZ 	c #3C5867",
"ZZ 	c #4B6D81",
"`Z 	c #242C36",
" ` 	c #040A16",
".` 	c #3B4E67",
"+` 	c #527087",
"@` 	c #293A49",
"#` 	c #010213",
"$` 	c #313F57",
"%` 	c #596D8A",
"&` 	c #3E506A",
"*` 	c #060E18",
"=` 	c #0D162C",
"-` 	c #3D547D",
";` 	c #53699F",
">` 	c #314363",
",` 	c #040B11",
"'` 	c #101128",
")` 	c #424879",
"!` 	c #54679B",
"~` 	c #3A4863",
"{` 	c #080F1C",
"]` 	c #0A0A2B",
"^` 	c #3A3C79",
"/` 	c #525F96",
"(` 	c #32436A",
"_` 	c #050E29",
":` 	c #13102B",
"<` 	c #403B81",
"[` 	c #494A9E",
"}` 	c #1C2549",
"|` 	c #030016",
"1` 	c #291F60",
"2` 	c #453B8B",
"3` 	c #292460",
"4` 	c #1D1345",
"5` 	c #3E2A77",
"6` 	c #281B57",
"7` 	c #030014",
"8` 	c #181546",
"9` 	c #332B6D",
"0` 	c #1A154B",
"a` 	c #000013",
"b` 	c #01030B",
"c` 	c #1E1E50",
"d` 	c #2B2A7A",
"e` 	c #0B0E39",
"f` 	c #080A22",
"g` 	c #1F2661",
"h` 	c #132054",
"i` 	c #0B1735",
"j` 	c #151F51",
"k` 	c #050B26",
"l` 	c #090411",
"m` 	c #171129",
"n` 	c #0E0921",
"o` 	c #100614",
"p` 	c #100715",
"q` 	c #13051C",
"r` 	c #0B000C",
"s` 	c #0C0112",
"t` 	c #0A000E",
"u` 	c #180521",
"v` 	c #0C010E",
"w` 	c #23202E",
"x` 	c #090C11",
"y` 	c #130715",
"z` 	c #1B1426",
"A` 	c #1B101D",
"B` 	c #110D13",
"C` 	c #372431",
"D` 	c #170C13",
"E` 	c #30292E",
"F` 	c #4E3F43",
"G` 	c #060101",
"H` 	c #150F09",
"I` 	c #7E6559",
"J` 	c #55403C",
"K` 	c #4B3931",
"L` 	c #A67868",
"M` 	c #291B17",
"N` 	c #8C5A45",
"O` 	c #BC8464",
"P` 	c #3A2115",
"Q` 	c #996752",
"R` 	c #D38E6E",
"S` 	c #2A170F",
"T` 	c #8A5846",
"U` 	c #E48F75",
"V` 	c #5A3027",
"W` 	c #361B1B",
"X` 	c #C2726B",
"Y` 	c #BB675F",
"Z` 	c #311412",
"`` 	c #231214",
"  .	c #9C5F5E",
". .	c #8A474A",
"+ .	c #190707",
"@ .	c #0F0303",
"# .	c #642D2F",
"$ .	c #AF545A",
"% .	c #BB5B66",
"& .	c #8C4C51",
"* .	c #452728",
"= .	c #0F0606",
"- .	c #996241",
"; .	c #BC845B",
"> .	c #6E452C",
", .	c #2C1813",
"' .	c #956951",
") .	c #AB7758",
"! .	c #472B20",
"~ .	c #4C2D20",
"{ .	c #AC7B5D",
"] .	c #8F6247",
"^ .	c #1F0E07",
"/ .	c #563423",
"( .	c #A77861",
"_ .	c #966457",
": .	c #2D1915",
"< .	c #31152C",
"[ .	c #593256",
"} .	c #50244F",
"| .	c #47184B",
"1 .	c #370F3F",
"2 .	c #210329",
"3 .	c #0F0119",
"4 .	c #04010D",
"5 .	c #000205",
"6 .	c #000305",
"7 .	c #26383F",
"8 .	c #46606A",
"9 .	c #3D5A69",
"0 .	c #456273",
"a .	c #293A45",
"b .	c #04060B",
"c .	c #394E5C",
"d .	c #456571",
"e .	c #364E56",
"f .	c #020610",
"g .	c #14222D",
"h .	c #446475",
"i .	c #496068",
"j .	c #10181F",
"k .	c #0B1421",
"l .	c #415D70",
"m .	c #4E6A7C",
"n .	c #1F2E3B",
"o .	c #020513",
"p .	c #273F5F",
"q .	c #4D6F96",
"r .	c #405667",
"s .	c #0C1619",
"t .	c #070A1B",
"u .	c #324661",
"v .	c #425473",
"w .	c #0F192E",
"x .	c #010612",
"y .	c #253659",
"z .	c #53638D",
"A .	c #4C5981",
"B .	c #1C2339",
"C .	c #222E53",
"D .	c #4A5B99",
"E .	c #425188",
"F .	c #121B30",
"G .	c #32396F",
"H .	c #49529B",
"I .	c #282D62",
"J .	c #000116",
"K .	c #211C59",
"L .	c #473D95",
"M .	c #2F2B63",
"N .	c #03041B",
"O .	c #1F1245",
"P .	c #3C2D7F",
"Q .	c #261C5B",
"R .	c #1B1656",
"S .	c #352C7A",
"T .	c #18153D",
"U .	c #040519",
"V .	c #252361",
"W .	c #272B62",
"X .	c #060A19",
"Y .	c #0C0F39",
"Z .	c #1C2B67",
"` .	c #010516",
" ..	c #141B49",
"...	c #0F1B3F",
"+..	c #00050F",
"@..	c #10091D",
"#..	c #150D29",
"$..	c #060214",
"%..	c #110618",
"&..	c #110419",
"*..	c #110213",
"=..	c #0F0214",
"-..	c #0E0113",
";..	c #16051F",
">..	c #110313",
",..	c #201E2B",
"'..	c #111419",
")..	c #140916",
"!..	c #060208",
"~..	c #201423",
"{..	c #0B070E",
"]..	c #36232E",
"^..	c #251E1F",
"/..	c #564649",
"(..	c #160D0E",
"_..	c #6A564C",
":..	c #72554D",
"<..	c #281C19",
"[..	c #A57768",
"}..	c #563831",
"|..	c #59392B",
"1..	c #C58968",
"2..	c #744C39",
"3..	c #4F3125",
"4..	c #E09877",
"5..	c #7B4D40",
"6..	c #321811",
"7..	c #D1826D",
"8..	c #B67866",
"9..	c #1B0A05",
"0..	c #673230",
"a..	c #D27670",
"b..	c #A35C5B",
"c..	c #260A0A",
"d..	c #271311",
"e..	c #A45B51",
"f..	c #D2706A",
"g..	c #995451",
"h..	c #2A1413",
"i..	c #341419",
"j..	c #7C4645",
"k..	c #AB5C66",
"l..	c #B15768",
"m..	c #873F50",
"n..	c #4B1E29",
"o..	c #7E522B",
"p..	c #200500",
"q..	c #200903",
"r..	c #815A43",
"s..	c #B8805A",
"t..	c #75492F",
"u..	c #210B04",
"v..	c #925E40",
"w..	c #B57C59",
"x..	c #5E3A27",
"y..	c #160805",
"z..	c #804F3E",
"A..	c #B77A66",
"B..	c #74504B",
"C..	c #180A08",
"D..	c #080208",
"E..	c #361B35",
"F..	c #5A2E59",
"G..	c #502151",
"H..	c #431749",
"I..	c #320F3E",
"J..	c #1F072E",
"K..	c #10031E",
"L..	c #050211",
"M..	c #030915",
"N..	c #0D1621",
"O..	c #131F2A",
"P..	c #14222C",
"Q..	c #0F1D26",
"R..	c #071218",
"S..	c #000409",
"T..	c #01060A",
"U..	c #31444D",
"V..	c #405B69",
"W..	c #385665",
"X..	c #435965",
"Y..	c #101B24",
"Z..	c #161E27",
"`..	c #3F5A64",
" +.	c #41606C",
".+.	c #1F2E39",
"++.	c #293B44",
"@+.	c #436973",
"#+.	c #365160",
"$+.	c #050914",
"%+.	c #121E26",
"&+.	c #416075",
"*+.	c #45677B",
"=+.	c #1C2931",
"-+.	c #000414",
";+.	c #233951",
">+.	c #4D6981",
",+.	c #445F75",
"'+.	c #15232D",
")+.	c #000404",
"!+.	c #223344",
"~+.	c #4C6484",
"{+.	c #4A6281",
"]+.	c #203040",
"^+.	c #141F39",
"/+.	c #42567A",
"(+.	c #516687",
"_+.	c #2A3C53",
":+.	c #03080C",
"<+.	c #12193D",
"[+.	c #45517C",
"}+.	c #4D6088",
"|+.	c #1D2D46",
"1+.	c #000310",
"2+.	c #292E5D",
"3+.	c #4E5496",
"4+.	c #313B6F",
"5+.	c #05081A",
"6+.	c #1C184C",
"7+.	c #443F83",
"8+.	c #31336D",
"9+.	c #060823",
"0+.	c #1A124A",
"a+.	c #3C3180",
"b+.	c #27205B",
"c+.	c #000016",
"d+.	c #352F72",
"e+.	c #161240",
"f+.	c #09091D",
"g+.	c #252B62",
"h+.	c #1C2862",
"i+.	c #101946",
"j+.	c #202A66",
"k+.	c #080C2B",
"l+.	c #060B1F",
"m+.	c #132044",
"n+.	c #091433",
"o+.	c #160C23",
"p+.	c #110821",
"q+.	c #110514",
"r+.	c #0D0315",
"s+.	c #12041B",
"t+.	c #090106",
"u+.	c #0F0115",
"v+.	c #170318",
"w+.	c #0F0114",
"x+.	c #060005",
"y+.	c #13041D",
"z+.	c #130517",
"A+.	c #080009",
"B+.	c #181D21",
"C+.	c #150917",
"D+.	c #08040A",
"E+.	c #130D1C",
"F+.	c #251929",
"G+.	c #05030C",
"H+.	c #33202A",
"I+.	c #2B1D27",
"J+.	c #170F0F",
"K+.	c #574647",
"L+.	c #2A1F22",
"M+.	c #503F37",
"N+.	c #896759",
"O+.	c #180D0A",
"P+.	c #916152",
"Q+.	c #8B5A4C",
"R+.	c #1C120E",
"S+.	c #AF7458",
"T+.	c #AE775D",
"U+.	c #150B08",
"V+.	c #0D0703",
"W+.	c #AB745D",
"X+.	c #CD8675",
"Y+.	c #70413C",
"Z+.	c #DF937E",
"`+.	c #8B503E",
" @.	c #D07C78",
".@.	c #9E564F",
"+@.	c #200B09",
"@@.	c #250F0B",
"#@.	c #8B4F48",
"$@.	c #C57370",
"%@.	c #B06362",
"&@.	c #532E2B",
"*@.	c #0A0201",
"=@.	c #492125",
"-@.	c #8D4650",
";@.	c #AC5867",
">@.	c #A75366",
",@.	c #130200",
"'@.	c #714729",
")@.	c #B87E5C",
"!@.	c #915D45",
"~@.	c #2B0F07",
"{@.	c #573E2C",
"]@.	c #B27E5E",
"^@.	c #945F40",
"/@.	c #29130B",
"(@.	c #402415",
"_@.	c #A06851",
":@.	c #A5766D",
"<@.	c #573233",
"[@.	c #411F3A",
"}@.	c #532E55",
"|@.	c #471F50",
"1@.	c #3C1248",
"2@.	c #330D41",
"3@.	c #220C36",
"4@.	c #130626",
"5@.	c #070317",
"6@.	c #03030F",
"7@.	c #040A17",
"8@.	c #1D2633",
"9@.	c #314150",
"0@.	c #435865",
"a@.	c #4C6470",
"b@.	c #4C6670",
"c@.	c #47646D",
"d@.	c #435F68",
"e@.	c #3F555F",
"f@.	c #2E4149",
"g@.	c #162127",
"h@.	c #000308",
"i@.	c #081118",
"j@.	c #3A4E58",
"k@.	c #37525F",
"l@.	c #3B5562",
"m@.	c #314350",
"n@.	c #00040A",
"o@.	c #293C46",
"p@.	c #3C5C68",
"q@.	c #3B5260",
"r@.	c #09131A",
"s@.	c #2B4E5A",
"t@.	c #406377",
"u@.	c #2E3F4C",
"v@.	c #000304",
"w@.	c #112734",
"x@.	c #3D6176",
"y@.	c #48616C",
"z@.	c #1B2B32",
"A@.	c #1C2E3F",
"B@.	c #44637B",
"C@.	c #466578",
"D@.	c #1D333D",
"E@.	c #101F2A",
"F@.	c #3E5668",
"G@.	c #4D6C85",
"H@.	c #2E455B",
"I@.	c #080F17",
"J@.	c #040E1B",
"K@.	c #2C405F",
"L@.	c #4B6593",
"M@.	c #3A506D",
"N@.	c #0E1624",
"O@.	c #080C1B",
"P@.	c #2F4469",
"Q@.	c #4C639A",
"R@.	c #303B65",
"S@.	c #02060E",
"T@.	c #1B2543",
"U@.	c #465593",
"V@.	c #3B4579",
"W@.	c #090E25",
"X@.	c #18163F",
"Y@.	c #434385",
"Z@.	c #343774",
"`@.	c #060926",
" #.	c #1B1441",
".#.	c #41367D",
"+#.	c #272060",
"@#.	c #251E5C",
"##.	c #362D7A",
"$#.	c #0F0E33",
"%#.	c #090D2E",
"&#.	c #23307D",
"*#.	c #17224F",
"=#.	c #000206",
"-#.	c #141F59",
";#.	c #19255D",
">#.	c #02061D",
",#.	c #09122C",
"'#.	c #121C4A",
")#.	c #050A1D",
"!#.	c #160B26",
"~#.	c #14051C",
"{#.	c #0D020F",
"]#.	c #0C000D",
"^#.	c #160319",
"/#.	c #0D000E",
"(#.	c #120316",
"_#.	c #10121A",
":#.	c #1E2227",
"<#.	c #150915",
"[#.	c #0D0814",
"}#.	c #0E0915",
"|#.	c #271720",
"1#.	c #35232E",
"2#.	c #090302",
"3#.	c #503E40",
"4#.	c #413437",
"5#.	c #2E201A",
"6#.	c #8B6C5C",
"7#.	c #3D2F2B",
"8#.	c #633D30",
"9#.	c #AD735E",
"0#.	c #2B1E1D",
"a#.	c #784C39",
"b#.	c #CA8B6C",
"c#.	c #5E3D30",
"d#.	c #522F25",
"e#.	c #DD947B",
"f#.	c #8B6349",
"g#.	c #130508",
"h#.	c #A76151",
"i#.	c #DE8E75",
"j#.	c #593D31",
"k#.	c #864A45",
"l#.	c #D37E6F",
"m#.	c #9E5A4E",
"n#.	c #271010",
"o#.	c #0B0706",
"p#.	c #6E3B3D",
"q#.	c #C6666D",
"r#.	c #C36E71",
"s#.	c #7C4B4B",
"t#.	c #2A1314",
"u#.	c #100708",
"v#.	c #4C282B",
"w#.	c #894750",
"x#.	c #B47D59",
"y#.	c #A16E4A",
"z#.	c #412214",
"A#.	c #381F11",
"B#.	c #9F6B4B",
"C#.	c #B27A56",
"D#.	c #583627",
"E#.	c #0F0401",
"F#.	c #644439",
"G#.	c #AE7863",
"H#.	c #93625A",
"I#.	c #371E1C",
"J#.	c #130718",
"K#.	c #3D2540",
"L#.	c #512D52",
"M#.	c #4B1A4B",
"N#.	c #410E46",
"O#.	c #340C44",
"P#.	c #250C3D",
"Q#.	c #140834",
"R#.	c #0B0425",
"S#.	c #050216",
"T#.	c #030311",
"U#.	c #020314",
"V#.	c #0D1426",
"W#.	c #2B394A",
"X#.	c #4A5D6D",
"Y#.	c #596F7F",
"Z#.	c #5C737F",
"`#.	c #587079",
" $.	c #4F6970",
".$.	c #486568",
"+$.	c #456264",
"@$.	c #415D63",
"#$.	c #415A66",
"$$.	c #3E5962",
"%$.	c #3D545B",
"&$.	c #29393F",
"*$.	c #070F15",
"=$.	c #192027",
"-$.	c #394F5A",
";$.	c #2F4A5B",
">$.	c #375263",
",$.	c #17242D",
"'$.	c #091119",
")$.	c #314B59",
"!$.	c #395665",
"~$.	c #2A404D",
"{$.	c #000309",
"]$.	c #0B171F",
"^$.	c #385360",
"/$.	c #405A68",
"($.	c #21313D",
"_$.	c #172732",
":$.	c #435A69",
"<$.	c #426170",
"[$.	c #1E2E38",
"}$.	c #142128",
"|$.	c #3B5765",
"1$.	c #43687D",
"2$.	c #2B4253",
"3$.	c #050D17",
"4$.	c #080B14",
"5$.	c #273F50",
"6$.	c #446A80",
"7$.	c #3A5B71",
"8$.	c #182233",
"9$.	c #1C2A40",
"0$.	c #3F5E7D",
"a$.	c #475F79",
"b$.	c #1C2836",
"c$.	c #223352",
"d$.	c #4B618D",
"e$.	c #3D4B6A",
"f$.	c #090D20",
"g$.	c #131A32",
"h$.	c #435482",
"i$.	c #445084",
"j$.	c #101233",
"k$.	c #131335",
"l$.	c #3E4284",
"m$.	c #373D81",
"n$.	c #090A2B",
"o$.	c #1B183D",
"p$.	c #3F3790",
"q$.	c #24245E",
"r$.	c #030416",
"s$.	c #27255C",
"t$.	c #2F316D",
"u$.	c #0A0D2A",
"v$.	c #0D1639",
"w$.	c #273471",
"x$.	c #111948",
"y$.	c #040823",
"z$.	c #172862",
"A$.	c #0E1E4C",
"B$.	c #0E173E",
"C$.	c #101839",
"D$.	c #010408",
"E$.	c #110720",
"F$.	c #10091C",
"G$.	c #100212",
"H$.	c #12031E",
"I$.	c #120217",
"J$.	c #15001B",
"K$.	c #130017",
"L$.	c #100014",
"M$.	c #150421",
"N$.	c #100012",
"O$.	c #0B0B11",
"P$.	c #09080E",
"Q$.	c #120811",
"R$.	c #110817",
"S$.	c #2A1728",
"T$.	c #1A111E",
"U$.	c #402633",
"V$.	c #160D13",
"W$.	c #3D2B31",
"X$.	c #574748",
"Y$.	c #080505",
"Z$.	c #0E0603",
"`$.	c #745D4E",
" %.	c #6C524C",
".%.	c #221510",
"+%.	c #A2715B",
"@%.	c #6B4A40",
"#%.	c #2E1C15",
"$%.	c #B37C62",
"%%.	c #AF765E",
"&%.	c #1A0E0C",
"*%.	c #070201",
"=%.	c #92644A",
"-%.	c #DC9977",
";%.	c #57332E",
">%.	c #301312",
",%.	c #BD796C",
"'%.	c #CC896E",
")%.	c #502C25",
"!%.	c #100506",
"~%.	c #7E4D41",
"{%.	c #D57C6E",
"]%.	c #B2625E",
"^%.	c #371B1E",
"/%.	c #472128",
"(%.	c #9B5B61",
"_%.	c #C37375",
":%.	c #AD6461",
"<%.	c #633938",
"[%.	c #190A0C",
"}%.	c #18080A",
"|%.	c #5B2E28",
"1%.	c #200B03",
"2%.	c #805A34",
"3%.	c #B58557",
"4%.	c #8A5538",
"5%.	c #270A04",
"6%.	c #3A2216",
"7%.	c #8D654B",
"8%.	c #AD7869",
"9%.	c #7A4340",
"0%.	c #1D0D23",
"a%.	c #492847",
"b%.	c #52274E",
"c%.	c #431545",
"d%.	c #3E0E43",
"e%.	c #360C44",
"f%.	c #2A0F44",
"g%.	c #190D3B",
"h%.	c #0A072F",
"i%.	c #060626",
"j%.	c #02071E",
"k%.	c #00071F",
"l%.	c #0F1933",
"m%.	c #344157",
"n%.	c #57687B",
"o%.	c #617685",
"p%.	c #5B7580",
"q%.	c #536F78",
"r%.	c #4E6970",
"s%.	c #4A666B",
"t%.	c #456165",
"u%.	c #415D60",
"v%.	c #3E5A5C",
"w%.	c #3D5459",
"x%.	c #3C4F56",
"y%.	c #384D54",
"z%.	c #384C52",
"A%.	c #3A4C54",
"B%.	c #2F3E47",
"C%.	c #0D121A",
"D%.	c #28343F",
"E%.	c #364A5A",
"F%.	c #304656",
"G%.	c #33424B",
"H%.	c #060B0D",
"I%.	c #142731",
"J%.	c #334C5A",
"K%.	c #374E5E",
"L%.	c #182431",
"M%.	c #172227",
"N%.	c #3C505C",
"O%.	c #3A5567",
"P%.	c #18272E",
"Q%.	c #19222D",
"R%.	c #3C5361",
"S%.	c #415D6C",
"T%.	c #213642",
"U%.	c #000511",
"V%.	c #08111B",
"W%.	c #2F454E",
"X%.	c #41666D",
"Y%.	c #34545E",
"Z%.	c #0E202C",
"`%.	c #192435",
" &.	c #3B5770",
".&.	c #466175",
"+&.	c #243B49",
"@&.	c #020912",
"#&.	c #0E132D",
"$&.	c #354B64",
"%&.	c #446978",
"&&.	c #233F4A",
"*&.	c #030410",
"=&.	c #13243C",
"-&.	c #465983",
";&.	c #465480",
">&.	c #141A32",
",&.	c #0C102C",
"'&.	c #3F4A79",
")&.	c #495480",
"!&.	c #141E38",
"~&.	c #0F112C",
"{&.	c #42447E",
"]&.	c #3B3E87",
"^&.	c #070C2E",
"/&.	c #1D1841",
"(&.	c #403A88",
"_&.	c #23225A",
":&.	c #2A2D64",
"<&.	c #2A2C79",
"[&.	c #04062C",
"}&.	c #161A43",
"|&.	c #2E307A",
"1&.	c #091130",
"2&.	c #08122E",
"3&.	c #1A2B51",
"4&.	c #0B1138",
"5&.	c #030A17",
"6&.	c #151B3B",
"7&.	c #0E0E2B",
"8&.	c #130B1E",
"9&.	c #0C0712",
"0&.	c #060003",
"a&.	c #14021A",
"b&.	c #0D0011",
"c&.	c #120317",
"d&.	c #14041D",
"e&.	c #140217",
"f&.	c #1F212A",
"g&.	c #121118",
"h&.	c #140A19",
"i&.	c #05010E",
"j&.	c #201121",
"k&.	c #241927",
"l&.	c #0C0409",
"m&.	c #3A2530",
"n&.	c #271B22",
"o&.	c #221518",
"p&.	c #5C4E4E",
"q&.	c #242021",
"r&.	c #4D3A2B",
"s&.	c #886B5D",
"t&.	c #2C1716",
"u&.	c #714D44",
"v&.	c #A17260",
"w&.	c #2B130C",
"x&.	c #6E4C3E",
"y&.	c #C7906D",
"z&.	c #6F513A",
"A&.	c #2D1611",
"B&.	c #BC8170",
"C&.	c #CB8574",
"D&.	c #301E18",
"E&.	c #462123",
"F&.	c #C97C77",
"G&.	c #CB826E",
"H&.	c #4E2B1E",
"I&.	c #68423F",
"J&.	c #C57C77",
"K&.	c #C66D67",
"L&.	c #623233",
"M&.	c #170D0B",
"N&.	c #6D3C3A",
"O&.	c #B36663",
"P&.	c #C0716E",
"Q&.	c #9B5A59",
"R&.	c #562B2E",
"S&.	c #150409",
"T&.	c #6C3E20",
"U&.	c #B67E57",
"V&.	c #A5704C",
"W&.	c #482817",
"X&.	c #0D0707",
"Y&.	c #664135",
"Z&.	c #A9786E",
"`&.	c #9B6963",
" *.	c #4B2A27",
".*.	c #26132F",
"+*.	c #4B274F",
"@*.	c #511E4D",
"#*.	c #460F44",
"$*.	c #3C0B45",
"%*.	c #380E49",
"&*.	c #2D114B",
"**.	c #1A1042",
"=*.	c #0B0D38",
"-*.	c #080E34",
";*.	c #050E2E",
">*.	c #030F29",
",*.	c #0F1F37",
"'*.	c #33445F",
")*.	c #576984",
"!*.	c #63788E",
"~*.	c #5D7587",
"{*.	c #55707B",
"]*.	c #506E72",
"^*.	c #4A6A6B",
"/*.	c #476565",
"(*.	c #426060",
"_*.	c #405B5D",
":*.	c #3E5558",
"<*.	c #3B5154",
"[*.	c #3A4C4F",
"}*.	c #3B484B",
"|*.	c #364449",
"1*.	c #34424A",
"2*.	c #33424C",
"3*.	c #34434E",
"4*.	c #313944",
"5*.	c #090E15",
"6*.	c #0B0E16",
"7*.	c #2F3B49",
"8*.	c #2E3F4F",
"9*.	c #364551",
"0*.	c #1F2A31",
"a*.	c #00050B",
"b*.	c #263843",
"c*.	c #324756",
"d*.	c #324453",
"e*.	c #09111A",
"f*.	c #1F2D35",
"g*.	c #334E62",
"h*.	c #354C5D",
"i*.	c #16202A",
"j*.	c #111D29",
"k*.	c #304F5E",
"l*.	c #385B69",
"m*.	c #2A3A49",
"n*.	c #080A17",
"o*.	c #020609",
"p*.	c #1E3237",
"q*.	c #3C5964",
"r*.	c #3A5B6A",
"s*.	c #1D3440",
"t*.	c #02080B",
"u*.	c #0A0F1C",
"v*.	c #284350",
"w*.	c #3E6471",
"x*.	c #324F5B",
"y*.	c #0C1722",
"z*.	c #010610",
"A*.	c #26384B",
"B*.	c #465E74",
"C*.	c #324C5F",
"D*.	c #071320",
"E*.	c #0B162A",
"F*.	c #395068",
"G*.	c #465D76",
"H*.	c #15243B",
"I*.	c #060A1F",
"J*.	c #35476D",
"K*.	c #475980",
"L*.	c #18233C",
"M*.	c #0D0E2B",
"N*.	c #3A4677",
"O*.	c #38447E",
"P*.	c #090D34",
"Q*.	c #1C1A4B",
"R*.	c #424081",
"S*.	c #20224F",
"T*.	c #060925",
"U*.	c #2D326F",
"V*.	c #252C65",
"W*.	c #010113",
"X*.	c #1F2258",
"Y*.	c #222D67",
"Z*.	c #08071F",
"`*.	c #0F1C39",
" =.	c #19255B",
".=.	c #040A26",
"+=.	c #0C0F29",
"@=.	c #191840",
"#=.	c #0D0514",
"$=.	c #08020E",
"%=.	c #120615",
"&=.	c #120315",
"*=.	c #130515",
"==.	c #0D0211",
"-=.	c #110515",
";=.	c #0A000D",
">=.	c #110215",
",=.	c #191820",
"'=.	c #1C1A22",
")=.	c #0C0412",
"!=.	c #120711",
"~=.	c #36262F",
"{=.	c #0A0203",
"]=.	c #0B0304",
"^=.	c #4D4141",
"/=.	c #463D40",
"(=.	c #1C120A",
"_=.	c #846755",
":=.	c #5E433A",
"<=.	c #2C1A1A",
"[=.	c #A5725F",
"}=.	c #774C3A",
"|=.	c #1D120D",
"1=.	c #A77252",
"2=.	c #C48465",
"3=.	c #3F2520",
"4=.	c #4C2E29",
"5=.	c #D59276",
"6=.	c #B27462",
"7=.	c #1E0F0A",
"8=.	c #4D2529",
"9=.	c #CD8075",
"0=.	c #CC836F",
"a=.	c #5D302D",
"b=.	c #BC6D67",
"c=.	c #CE7972",
"d=.	c #8C504E",
"e=.	c #2A1013",
"f=.	c #31181A",
"g=.	c #844A4E",
"h=.	c #B36F6E",
"i=.	c #B66E6E",
"j=.	c #885254",
"k=.	c #AA754D",
"l=.	c #BC7B58",
"m=.	c #67412B",
"n=.	c #0B0300",
"o=.	c #442221",
"p=.	c #976052",
"q=.	c #B17A66",
"r=.	c #7D4C51",
"s=.	c #2C0F1D",
"t=.	c #000403",
"u=.	c #090313",
"v=.	c #4B2753",
"w=.	c #47184F",
"x=.	c #400C45",
"y=.	c #3D0C48",
"z=.	c #381251",
"A=.	c #301652",
"B=.	c #1F144C",
"C=.	c #141647",
"D=.	c #0D1740",
"E=.	c #0D193E",
"F=.	c #172445",
"G=.	c #344561",
"H=.	c #546981",
"I=.	c #637A90",
"J=.	c #5F798B",
"K=.	c #58727F",
"L=.	c #526D77",
"M=.	c #4C6A6D",
"N=.	c #476766",
"O=.	c #446460",
"P=.	c #405E5A",
"Q=.	c #3D5754",
"R=.	c #3C5253",
"S=.	c #3B4A4E",
"T=.	c #3A454C",
"U=.	c #384147",
"V=.	c #373E43",
"W=.	c #383A43",
"X=.	c #363843",
"Y=.	c #343945",
"Z=.	c #303844",
"`=.	c #353947",
" -.	c #292B36",
".-.	c #05060A",
"+-.	c #1C212A",
"@-.	c #323D4A",
"#-.	c #2E3848",
"$-.	c #333A49",
"%-.	c #0E0F17",
"&-.	c #0A1116",
"*-.	c #2F3D49",
"=-.	c #2E4050",
"--.	c #283643",
";-.	c #04050B",
">-.	c #1E303A",
",-.	c #304959",
"'-.	c #344453",
")-.	c #171D27",
"!-.	c #09161D",
"~-.	c #29414C",
"{-.	c #3E525F",
"]-.	c #334350",
"^-.	c #0F1721",
"/-.	c #111922",
"(-.	c #2F4752",
"_-.	c #3D5B64",
":-.	c #2D494D",
"<-.	c #0C1719",
"[-.	c #152C36",
"}-.	c #375666",
"|-.	c #38586B",
"1-.	c #182E2B",
"2-.	c #1A2137",
"3-.	c #35596F",
"4-.	c #36576C",
"5-.	c #171C2B",
"6-.	c #030F0D",
"7-.	c #2B4557",
"8-.	c #426088",
"9-.	c #1E3340",
"0-.	c #01061A",
"a-.	c #303B62",
"b-.	c #4C5D83",
"c-.	c #1B2946",
"d-.	c #3A4378",
"e-.	c #3E4487",
"f-.	c #090D29",
"g-.	c #1D1E48",
"h-.	c #41427D",
"i-.	c #1C1F50",
"j-.	c #0A101F",
"k-.	c #32376A",
"l-.	c #24245C",
"m-.	c #000015",
"n-.	c #020614",
"o-.	c #1F2961",
"p-.	c #1F2A54",
"q-.	c #000318",
"r-.	c #132148",
"s-.	c #132244",
"t-.	c #000311",
"u-.	c #131532",
"v-.	c #13142A",
"w-.	c #120819",
"x-.	c #0E0312",
"y-.	c #0C0109",
"z-.	c #0B030C",
"A-.	c #0E0411",
"B-.	c #100117",
"C-.	c #18061C",
"D-.	c #0C0114",
"E-.	c #0E0C13",
"F-.	c #23222A",
"G-.	c #06050B",
"H-.	c #140717",
"I-.	c #07030F",
"J-.	c #2C1D2C",
"K-.	c #24121E",
"L-.	c #180D15",
"M-.	c #402B35",
"N-.	c #1E0F15",
"O-.	c #2D2524",
"P-.	c #614E50",
"Q-.	c #1D1515",
"R-.	c #594237",
"S-.	c #8A685D",
"T-.	c #221312",
"U-.	c #684538",
"V-.	c #A77866",
"W-.	c #3E2420",
"X-.	c #4E2F24",
"Y-.	c #C5816A",
"Z-.	c #A87460",
"`-.	c #1E0E0A",
" ;.	c #684633",
".;.	c #E2947C",
"+;.	c #A16F57",
"@;.	c #150F06",
"#;.	c #4A2526",
"$;.	c #C37B71",
"%;.	c #D58676",
"&;.	c #733F39",
"*;.	c #331919",
"=;.	c #9A5A51",
"-;.	c #CD7D77",
";;.	c #B3676A",
">;.	c #5D2F34",
",;.	c #080205",
"';.	c #0B0005",
");.	c #442627",
"!;.	c #8D5756",
"~;.	c #B26E6F",
"{;.	c #AC6468",
"];.	c #82553E",
"^;.	c #22130F",
"/;.	c #1E0C0F",
"(;.	c #704945",
"_;.	c #B27463",
":;.	c #A3675A",
"<;.	c #55312F",
"[;.	c #150819",
"};.	c #3C2042",
"|;.	c #4D2350",
"1;.	c #47124C",
"2;.	c #400B4B",
"3;.	c #3C0F4D",
"4;.	c #3B1856",
"5;.	c #331B5B",
"6;.	c #261B57",
"7;.	c #1B1D54",
"8;.	c #1A2252",
"9;.	c #202B55",
"0;.	c #364267",
"a;.	c #546284",
"b;.	c #657793",
"c;.	c #64798F",
"d;.	c #5B7482",
"e;.	c #557078",
"f;.	c #506C6F",
"g;.	c #4C686B",
"h;.	c #466361",
"i;.	c #41605A",
"j;.	c #3D5C55",
"k;.	c #3A554F",
"l;.	c #364C49",
"m;.	c #354545",
"n;.	c #343C41",
"o;.	c #34363F",
"p;.	c #30333B",
"q;.	c #30313B",
"r;.	c #332E3A",
"s;.	c #352D3A",
"t;.	c #35303C",
"u;.	c #32313D",
"v;.	c #322F41",
"w;.	c #33323F",
"x;.	c #1C1C22",
"y;.	c #04080D",
"z;.	c #282E3C",
"A;.	c #2D3345",
"B;.	c #2F3348",
"C;.	c #232836",
"D;.	c #151D26",
"E;.	c #2B3A48",
"F;.	c #2C3B4B",
"G;.	c #212733",
"H;.	c #020505",
"I;.	c #1A303B",
"J;.	c #2C4456",
"K;.	c #2D4050",
"L;.	c #141F28",
"M;.	c #08090E",
"N;.	c #1E3339",
"O;.	c #2C4C56",
"P;.	c #2F4855",
"Q;.	c #1A2434",
"R;.	c #020408",
"S;.	c #030C0F",
"T;.	c #1C323B",
"U;.	c #35505F",
"V;.	c #324E5F",
"W;.	c #172A34",
"X;.	c #010308",
"Y;.	c #091520",
"Z;.	c #284756",
"`;.	c #345968",
" >.	c #233D46",
".>.	c #030D10",
"+>.	c #0B1321",
"@>.	c #30495D",
"#>.	c #385B6D",
"$>.	c #1C2A36",
"%>.	c #00040E",
"&>.	c #223747",
"*>.	c #3F5D81",
"=>.	c #263C4B",
"->.	c #010307",
";>.	c #253957",
">>.	c #455E7F",
",>.	c #202E4C",
"'>.	c #080A21",
")>.	c #3C4470",
"!>.	c #3A487C",
"~>.	c #0C0E2E",
"{>.	c #1F244E",
"]>.	c #3E4187",
"^>.	c #181A46",
"/>.	c #0F1133",
"(>.	c #343481",
"_>.	c #19214C",
":>.	c #060C25",
"<>.	c #193268",
"[>.	c #181E4A",
"}>.	c #010B17",
"|>.	c #12284F",
"1>.	c #0C1640",
"2>.	c #040711",
"3>.	c #181837",
"4>.	c #0C0926",
"5>.	c #0A0002",
"6>.	c #140218",
"7>.	c #11041B",
"8>.	c #16011A",
"9>.	c #0E0013",
"0>.	c #13011C",
"a>.	c #10051B",
"b>.	c #201F27",
"c>.	c #101116",
"d>.	c #170819",
"e>.	c #211020",
"f>.	c #331C2B",
"g>.	c #080308",
"h>.	c #37212C",
"i>.	c #342329",
"j>.	c #110A0A",
"k>.	c #624544",
"l>.	c #4D3836",
"m>.	c #221310",
"n>.	c #896359",
"o>.	c #664944",
"p>.	c #1C100D",
"q>.	c #91695C",
"r>.	c #916350",
"s>.	c #190A06",
"t>.	c #6F4D3E",
"u>.	c #CB8E65",
"v>.	c #89634A",
"w>.	c #0A0608",
"x>.	c #78513E",
"y>.	c #DD997D",
"z>.	c #A16756",
"A>.	c #180E0C",
"B>.	c #3A2019",
"C>.	c #B07362",
"D>.	c #D88A7D",
"E>.	c #8D554A",
"F>.	c #110506",
"G>.	c #653E39",
"H>.	c #BA766B",
"I>.	c #C57B72",
"J>.	c #8D5352",
"K>.	c #37191C",
"L>.	c #583134",
"M>.	c #9D5C62",
"N>.	c #4F3027",
"O>.	c #9E6659",
"P>.	c #AD7469",
"Q>.	c #785249",
"R>.	c #291715",
"S>.	c #230C27",
"T>.	c #46204C",
"U>.	c #491B4D",
"V>.	c #3E0B45",
"W>.	c #3F094C",
"X>.	c #421158",
"Y>.	c #421B60",
"Z>.	c #381E5E",
"`>.	c #2E225B",
" ,.	c #2A275B",
".,.	c #2A3260",
"+,.	c #3A446E",
"@,.	c #545D84",
"#,.	c #687292",
"$,.	c #677691",
"%,.	c #5F7388",
"&,.	c #57717E",
"*,.	c #546E77",
"=,.	c #4C696D",
"-,.	c #456867",
";,.	c #436160",
">,.	c #415B59",
",,.	c #3D5452",
"',.	c #394C4B",
"),.	c #374340",
"!,.	c #343C3C",
"~,.	c #303338",
"{,.	c #302E37",
"],.	c #2F2A37",
"^,.	c #2E2634",
"/,.	c #2F2434",
"(,.	c #332435",
"_,.	c #342435",
":,.	c #322637",
"<,.	c #302938",
"[,.	c #302A3A",
"},.	c #302C3A",
"|,.	c #2B2734",
"1,.	c #0D0C15",
"2,.	c #15161D",
"3,.	c #2E2E3D",
"4,.	c #2B2B3F",
"5,.	c #2E303E",
"6,.	c #10131A",
"7,.	c #1F262F",
"8,.	c #2A3341",
"9,.	c #2E3446",
"0,.	c #161929",
"a,.	c #1D2932",
"b,.	c #283A46",
"c,.	c #2B3B47",
"d,.	c #19212A",
"e,.	c #000406",
"f,.	c #142127",
"g,.	c #2A3C47",
"h,.	c #2F4253",
"i,.	c #22303D",
"j,.	c #090F15",
"k,.	c #101722",
"l,.	c #2A3D4E",
"m,.	c #314E5C",
"n,.	c #243744",
"o,.	c #060E17",
"p,.	c #020507",
"q,.	c #37535F",
"r,.	c #284A4F",
"s,.	c #081C20",
"t,.	c #03080F",
"u,.	c #1E3D45",
"v,.	c #3A5B6B",
"w,.	c #1C384A",
"x,.	c #00040F",
"y,.	c #172B43",
"z,.	c #3F5B70",
"A,.	c #2C424F",
"B,.	c #020918",
"C,.	c #223346",
"D,.	c #405F82",
"E,.	c #1D324E",
"F,.	c #0D0914",
"G,.	c #364775",
"H,.	c #364888",
"I,.	c #060F1D",
"J,.	c #24265C",
"K,.	c #3E4286",
"L,.	c #121836",
"M,.	c #121747",
"N,.	c #313C6A",
"O,.	c #131A36",
"P,.	c #25336A",
"Q,.	c #0C1538",
"R,.	c #061028",
"S,.	c #15245A",
"T,.	c #040D2C",
"U,.	c #0F0B1F",
"V,.	c #191231",
"W,.	c #110619",
"X,.	c #0D030F",
"Y,.	c #110414",
"Z,.	c #08020D",
"`,.	c #1C1D25",
" '.	c #170814",
".'.	c #140416",
"+'.	c #33222E",
"@'.	c #422C34",
"#'.	c #1E0D11",
"$'.	c #342926",
"%'.	c #68514F",
"&'.	c #21171B",
"*'.	c #4B3A31",
"='.	c #996961",
"-'.	c #3D2020",
";'.	c #3F2D24",
">'.	c #AD7561",
",'.	c #76473C",
"''.	c #8D634B",
")'.	c #CE8E70",
"!'.	c #7E5142",
"~'.	c #080301",
"{'.	c #7F5449",
"]'.	c #DF977C",
"^'.	c #AD6C4F",
"/'.	c #26120E",
"('.	c #24130E",
"_'.	c #986559",
":'.	c #DA897D",
"<'.	c #B06963",
"['.	c #402220",
"}'.	c #391F22",
"|'.	c #915B5E",
"1'.	c #CA7A74",
"2'.	c #BC6B65",
"3'.	c #6A3B3D",
"4'.	c #190A0B",
"5'.	c #2B1115",
"6'.	c #321E16",
"7'.	c #835449",
"8'.	c #AD766B",
"9'.	c #53302A",
"0'.	c #0E0305",
"a'.	c #0C030E",
"b'.	c #2C162F",
"c'.	c #46214C",
"d'.	c #44144B",
"e'.	c #3D0A45",
"f'.	c #3C0A4A",
"g'.	c #42145A",
"h'.	c #431D63",
"i'.	c #3E2065",
"j'.	c #392966",
"k'.	c #3B3769",
"l'.	c #434674",
"m'.	c #535F86",
"n'.	c #627093",
"o'.	c #697897",
"p'.	c #64758D",
"q'.	c #5E7386",
"r'.	c #55717D",
"s'.	c #4F6C74",
"t'.	c #4A666C",
"u'.	c #446263",
"v'.	c #40605E",
"w'.	c #3D5756",
"x'.	c #3C4D4E",
"y'.	c #374345",
"z'.	c #33393C",
"A'.	c #2D2E32",
"B'.	c #26252A",
"C'.	c #211E26",
"D'.	c #201826",
"E'.	c #201626",
"F'.	c #241728",
"G'.	c #281829",
"H'.	c #2F1B2E",
"I'.	c #312033",
"J'.	c #2F2335",
"K'.	c #2E2435",
"L'.	c #2E2738",
"M'.	c #1C1925",
"N'.	c #040409",
"O'.	c #272431",
"P'.	c #2B293D",
"Q'.	c #2A283A",
"R'.	c #25242F",
"S'.	c #05080F",
"T'.	c #242937",
"U'.	c #262A3E",
"V'.	c #2A2D40",
"W'.	c #11131E",
"X'.	c #17232C",
"Y'.	c #263441",
"Z'.	c #293141",
"`'.	c #1F232E",
" ).	c #05050A",
".).	c #0A1217",
"+).	c #1E3038",
"@).	c #293946",
"#).	c #29333F",
"$).	c #131721",
"%).	c #040910",
"&).	c #172A33",
"*).	c #2C3D47",
"=).	c #12191F",
"-).	c #0F1E25",
";).	c #2F4650",
">).	c #334A55",
",).	c #15222C",
"').	c #182F38",
")).	c #355660",
"!).	c #27424B",
"~).	c #030D15",
"{).	c #102232",
"]).	c #345866",
"^).	c #294956",
"/).	c #050B19",
"().	c #1B2C3A",
"_).	c #415D77",
":).	c #1D3654",
"<).	c #090B1A",
"[).	c #384769",
"}).	c #39496F",
"|).	c #050C25",
"1).	c #262C56",
"2).	c #3F427A",
"3).	c #0C112E",
"4).	c #1A1F47",
"5).	c #363970",
"6).	c #0D122D",
"7).	c #131A45",
"8).	c #223067",
"9).	c #040C2D",
"0).	c #0D1833",
"a).	c #132349",
"b).	c #03061A",
"c).	c #151120",
"d).	c #111123",
"e).	c #120418",
"f).	c #0C020A",
"g).	c #140619",
"h).	c #110412",
"i).	c #140215",
"j).	c #080109",
"k).	c #120513",
"l).	c #0A020A",
"m).	c #140216",
"n).	c #0A080D",
"o).	c #120410",
"p).	c #1B091C",
"q).	c #251822",
"r).	c #331C2D",
"s).	c #080306",
"t).	c #3A262D",
"u).	c #372227",
"v).	c #0C0705",
"w).	c #574743",
"x).	c #554444",
"y).	c #060202",
"z).	c #120B07",
"A).	c #7C574F",
"B).	c #815C51",
"C).	c #190C08",
"D).	c #664439",
"E).	c #AB7B6D",
"F).	c #4E322C",
"G).	c #210F0D",
"H).	c #9D6C5A",
"I).	c #C98D74",
"J).	c #74493C",
"K).	c #060201",
"L).	c #764F41",
"M).	c #D9947A",
"N).	c #B97867",
"O).	c #3C1C1A",
"P).	c #120604",
"Q).	c #7A4843",
"R).	c #CF827F",
"S).	c #C67C73",
"T).	c #6F3F39",
"U).	c #180505",
"V).	c #0E0507",
"W).	c #633937",
"X).	c #B26A67",
"Y).	c #C47673",
"Z).	c #965E5D",
"`).	c #412526",
" !.	c #A46E5E",
".!.	c #AC6F64",
"+!.	c #774944",
"@!.	c #2A1212",
"#!.	c #15081B",
"$!.	c #321C39",
"%!.	c #401E47",
"&!.	c #401046",
"*!.	c #400948",
"=!.	c #421052",
"-!.	c #471A5F",
";!.	c #452167",
">!.	c #422A6C",
",!.	c #443674",
"'!.	c #49467B",
")!.	c #535985",
"!!.	c #626C93",
"~!.	c #657696",
"{!.	c #627791",
"]!.	c #5D758A",
"^!.	c #577381",
"/!.	c #51707A",
"(!.	c #496A71",
"_!.	c #456568",
":!.	c #425F62",
"<!.	c #3E5759",
"[!.	c #3B5051",
"}!.	c #354547",
"|!.	c #323A3D",
"1!.	c #2A2B2F",
"2!.	c #1F1C21",
"3!.	c #131016",
"4!.	c #0E0911",
"5!.	c #0D0611",
"6!.	c #0F0513",
"7!.	c #1C0C19",
"8!.	c #230F1F",
"9!.	c #2B1528",
"0!.	c #2F192E",
"a!.	c #311B30",
"b!.	c #301E32",
"c!.	c #302134",
"d!.	c #2E2135",
"e!.	c #27202E",
"f!.	c #0A070F",
"g!.	c #15121D",
"h!.	c #2B2639",
"i!.	c #292038",
"j!.	c #2C2539",
"k!.	c #171420",
"l!.	c #262739",
"m!.	c #26263A",
"n!.	c #282738",
"o!.	c #100E19",
"p!.	c #131A26",
"q!.	c #242A3A",
"r!.	c #272B3A",
"s!.	c #212531",
"t!.	c #0A0C14",
"u!.	c #020706",
"v!.	c #121D23",
"w!.	c #242D3D",
"x!.	c #282E42",
"y!.	c #1A2030",
"z!.	c #04080C",
"A!.	c #0E161D",
"B!.	c #28323B",
"C!.	c #2D3A44",
"D!.	c #1B2630",
"E!.	c #01080A",
"F!.	c #090C17",
"G!.	c #28323F",
"H!.	c #324855",
"I!.	c #1A2C37",
"J!.	c #02050D",
"K!.	c #102122",
"L!.	c #304D56",
"M!.	c #274858",
"N!.	c #0B121C",
"O!.	c #091C27",
"P!.	c #334E5C",
"Q!.	c #2F495B",
"R!.	c #05121F",
"S!.	c #1A2733",
"T!.	c #355C7D",
"U!.	c #183A5A",
"V!.	c #090C0D",
"W!.	c #3B4576",
"X!.	c #37457A",
"Y!.	c #040D17",
"Z!.	c #2C3063",
"`!.	c #374573",
" ~.	c #090E1E",
".~.	c #1E2556",
"+~.	c #293A63",
"@~.	c #030D1E",
"#~.	c #19234D",
"$~.	c #132E61",
"%~.	c #00061D",
"&~.	c #020308",
"*~.	c #13203D",
"=~.	c #13183E",
"-~.	c #050606",
";~.	c #141326",
">~.	c #0A010A",
",~.	c #110614",
"'~.	c #100511",
")~.	c #150516",
"!~.	c #0F0310",
"~~.	c #0F0410",
"{~.	c #09020D",
"]~.	c #19171F",
"^~.	c #19151E",
"/~.	c #150812",
"(~.	c #1D1219",
"_~.	c #201016",
":~.	c #412F34",
"<~.	c #201113",
"[~.	c #29211B",
"}~.	c #685754",
"|~.	c #362624",
"1~.	c #2D221A",
"2~.	c #8B6C53",
"3~.	c #6B453C",
"4~.	c #0D0002",
"5~.	c #0F0A07",
"6~.	c #7C5B4D",
"7~.	c #A87468",
"8~.	c #3F2623",
"9~.	c #281A16",
"0~.	c #9E7161",
"a~.	c #D0896D",
"b~.	c #714F3A",
"c~.	c #66413E",
"d~.	c #D38D77",
"e~.	c #CB816A",
"f~.	c #56332D",
"g~.	c #4F2C29",
"h~.	c #B97068",
"i~.	c #D48278",
"j~.	c #9A6056",
"k~.	c #331E18",
"l~.	c #30191B",
"m~.	c #8B534D",
"n~.	c #BC7370",
"o~.	c #B56D6D",
"p~.	c #6A4244",
"q~.	c #120D10",
"r~.	c #935A5A",
"s~.	c #472A2B",
"t~.	c #0B0204",
"u~.	c #1D0C1D",
"v~.	c #381B41",
"w~.	c #3D1947",
"x~.	c #390D46",
"y~.	c #3E0C4D",
"z~.	c #461357",
"A~.	c #481E63",
"B~.	c #48276B",
"C~.	c #473274",
"D~.	c #4D4680",
"E~.	c #57588B",
"F~.	c #616A94",
"G~.	c #677498",
"H~.	c #677694",
"I~.	c #62768D",
"J~.	c #5C7685",
"K~.	c #53717B",
"L~.	c #4D6D72",
"M~.	c #47686A",
"N~.	c #416263",
"O~.	c #405C5C",
"P~.	c #3C5152",
"Q~.	c #3A484A",
"R~.	c #323B3E",
"S~.	c #24292D",
"T~.	c #17171C",
"U~.	c #0D080C",
"V~.	c #0A010C",
"W~.	c #0C010B",
"X~.	c #11050D",
"Y~.	c #2D142B",
"Z~.	c #341730",
"`~.	c #331930",
" {.	c #321A33",
".{.	c #2C1F31",
"+{.	c #160D18",
"@{.	c #2D1F38",
"#{.	c #2D1E38",
"${.	c #281E30",
"%{.	c #141320",
"&{.	c #272435",
"*{.	c #242034",
"={.	c #272035",
"-{.	c #0E111D",
";{.	c #1D2230",
">{.	c #212635",
",{.	c #232332",
"'{.	c #120F1A",
"){.	c #0A0F1A",
"!{.	c #1C2033",
"~{.	c #222737",
"{{.	c #1F242B",
"]{.	c #0C0E11",
"^{.	c #060911",
"/{.	c #1A232D",
"({.	c #26333E",
"_{.	c #1D2A2E",
":{.	c #090C10",
"<{.	c #01030E",
"[{.	c #132631",
"}{.	c #29444D",
"|{.	c #20343A",
"1{.	c #050E0E",
"2{.	c #0A141E",
"3{.	c #2D4053",
"4{.	c #2C474B",
"5{.	c #0B0E1E",
"6{.	c #274954",
"7{.	c #22505D",
"8{.	c #071620",
"9{.	c #17242F",
"0{.	c #38596F",
"a{.	c #1D3745",
"b{.	c #070C24",
"c{.	c #36486C",
"d{.	c #344664",
"e{.	c #030816",
"f{.	c #000515",
"g{.	c #293863",
"h{.	c #373D6C",
"i{.	c #05081D",
"j{.	c #000415",
"k{.	c #203062",
"l{.	c #233263",
"m{.	c #010313",
"n{.	c #000710",
"o{.	c #163151",
"p{.	c #132049",
"q{.	c #030A1E",
"r{.	c #182147",
"s{.	c #091123",
"t{.	c #0C0919",
"u{.	c #180F24",
"v{.	c #0F0611",
"w{.	c #100512",
"x{.	c #120613",
"y{.	c #070006",
"z{.	c #110410",
"A{.	c #110413",
"B{.	c #110612",
"C{.	c #0E0512",
"D{.	c #100411",
"E{.	c #201C24",
"F{.	c #0D0711",
"G{.	c #0F0510",
"H{.	c #170D18",
"I{.	c #271921",
"J{.	c #34232B",
"K{.	c #0F0307",
"L{.	c #322428",
"M{.	c #3E2B2F",
"N{.	c #0E0304",
"O{.	c #4A3B37",
"P{.	c #69514E",
"Q{.	c #4E3927",
"R{.	c #966B61",
"S{.	c #4C2C2E",
"T{.	c #23110C",
"U{.	c #976255",
"V{.	c #A47060",
"W{.	c #341E18",
"X{.	c #2E1B18",
"Y{.	c #A67161",
"Z{.	c #CE8C70",
"`{.	c #825240",
" ].	c #140302",
".].	c #4C3227",
"+].	c #C2856C",
"@].	c #DC8F7D",
"#].	c #724D44",
"$].	c #080504",
"%].	c #8F574F",
"&].	c #CB847D",
"*].	c #BB7472",
"=].	c #663639",
"-].	c #0C0204",
";].	c #0D0404",
">].	c #603636",
",].	c #AE6767",
"'].	c #B6706E",
")].	c #895451",
"!].	c #220E12",
"~].	c #0B0314",
"{].	c #270F2C",
"]].	c #3E1740",
"^].	c #3D0F43",
"/].	c #3C0B49",
"(].	c #401056",
"_].	c #441A60",
":].	c #472468",
"<].	c #4D2E73",
"[].	c #503C7D",
"}].	c #59528D",
"|].	c #606697",
"1].	c #667199",
"2].	c #677698",
"3].	c #657695",
"4].	c #63738D",
"5].	c #5F7184",
"6].	c #566E78",
"7].	c #4B696C",
"8].	c #466564",
"9].	c #415F5D",
"0].	c #3C5654",
"a].	c #3B4C4C",
"b].	c #383F41",
"c].	c #28282D",
"d].	c #151219",
"e].	c #060409",
"f].	c #040103",
"g].	c #040102",
"h].	c #050102",
"i].	c #160917",
"j].	c #2A1329",
"k].	c #34152F",
"l].	c #371530",
"m].	c #341632",
"n].	c #301933",
"o].	c #2D1C2F",
"p].	c #1F1320",
"q].	c #2C1A33",
"r].	c #2A1C34",
"s].	c #1C1225",
"t].	c #191621",
"u].	c #241D31",
"v].	c #241B33",
"w].	c #251C31",
"x].	c #100916",
"y].	c #080912",
"z].	c #1A1C2A",
"A].	c #221F32",
"B].	c #251D32",
"C].	c #191324",
"D].	c #020509",
"E].	c #13161E",
"F].	c #211E2F",
"G].	c #212030",
"H].	c #11141E",
"I].	c #040309",
"J].	c #0E141E",
"K].	c #1E2837",
"L].	c #222834",
"M].	c #0F1117",
"N].	c #0C1822",
"O].	c #253442",
"P].	c #27323C",
"Q].	c #0C1118",
"R].	c #080A11",
"S].	c #1D373F",
"T].	c #31454F",
"U].	c #151B24",
"V].	c #010D13",
"W].	c #22424C",
"X].	c #2A4D59",
"Y].	c #0A171F",
"Z].	c #141F2A",
"`].	c #33566F",
" ^.	c #1F3447",
".^.	c #06101A",
"+^.	c #384768",
"@^.	c #2E4060",
"#^.	c #010712",
"$^.	c #03081E",
"%^.	c #31396F",
"&^.	c #2D385C",
"*^.	c #010511",
"=^.	c #030720",
"-^.	c #263469",
";^.	c #1D2B49",
">^.	c #080B24",
",^.	c #1F2E59",
"'^.	c #081739",
")^.	c #081429",
"!^.	c #14233E",
"~^.	c #020619",
"{^.	c #150B1F",
"]^.	c #110411",
"^^.	c #140313",
"/^.	c #0E030F",
"(^.	c #1B161E",
"_^.	c #1A111F",
":^.	c #150A16",
"<^.	c #110609",
"[^.	c #3C242D",
"}^.	c #29171F",
"|^.	c #140A0C",
"1^.	c #462D33",
"2^.	c #311821",
"3^.	c #160E0A",
"4^.	c #674E47",
"5^.	c #5D433E",
"6^.	c #070402",
"7^.	c #0A0404",
"8^.	c #694A40",
"9^.	c #926B5B",
"0^.	c #3A201E",
"a^.	c #2E1915",
"b^.	c #996A58",
"c^.	c #9C715D",
"d^.	c #2E1A16",
"e^.	c #2D1A17",
"f^.	c #A36B5C",
"g^.	c #CE8B73",
"h^.	c #8C5F49",
"i^.	c #180D09",
"j^.	c #341F18",
"k^.	c #A87060",
"l^.	c #DA9483",
"m^.	c #9A6857",
"n^.	c #271811",
"o^.	c #623735",
"p^.	c #BC736D",
"q^.	c #C97E78",
"r^.	c #8A5551",
"s^.	c #281213",
"t^.	c #381D1D",
"u^.	c #8F5B5B",
"v^.	c #B26A6A",
"w^.	c #150616",
"x^.	c #2F1134",
"y^.	c #3C1148",
"z^.	c #3D0A48",
"A^.	c #400B49",
"B^.	c #461458",
"C^.	c #481D65",
"D^.	c #48276E",
"E^.	c #4E3579",
"F^.	c #5A4885",
"G^.	c #635A94",
"H^.	c #686B9E",
"I^.	c #68739E",
"J^.	c #667695",
"K^.	c #647691",
"L^.	c #61748C",
"M^.	c #5C7082",
"N^.	c #536973",
"O^.	c #496669",
"P^.	c #436161",
"Q^.	c #405957",
"R^.	c #3A514E",
"S^.	c #344544",
"T^.	c #283032",
"U^.	c #16151A",
"V^.	c #261126",
"W^.	c #32142E",
"X^.	c #35142F",
"Y^.	c #331431",
"Z^.	c #2E1A31",
"`^.	c #241525",
" /.	c #2C182D",
"./.	c #2D1730",
"+/.	c #291631",
"@/.	c #271A31",
"#/.	c #040208",
"$/.	c #1D1626",
"%/.	c #241A31",
"&/.	c #251931",
"*/.	c #25192C",
"=/.	c #130A16",
"-/.	c #161222",
";/.	c #20182E",
">/.	c #211830",
",/.	c #0E0812",
"'/.	c #100A19",
")/.	c #1B162A",
"!/.	c #1C1C2D",
"~/.	c #181624",
"{/.	c #090711",
"]/.	c #060B19",
"^/.	c #181E2D",
"//.	c #20242F",
"(/.	c #15151D",
"_/.	c #0A0A17",
":/.	c #232737",
"</.	c #272E3C",
"[/.	c #00060F",
"}/.	c #182B34",
"|/.	c #284347",
"1/.	c #122428",
"2/.	c #040609",
"3/.	c #213A40",
"4/.	c #28495D",
"5/.	c #091B29",
"6/.	c #10202F",
"7/.	c #325563",
"8/.	c #20353D",
"9/.	c #090F22",
"0/.	c #344A6D",
"a/.	c #273D59",
"b/.	c #040A28",
"c/.	c #2F4370",
"d/.	c #1F3254",
"e/.	c #050C28",
"f/.	c #253C64",
"g/.	c #121F41",
"h/.	c #091534",
"i/.	c #143055",
"j/.	c #050C23",
"k/.	c #0D1B32",
"l/.	c #101A37",
"m/.	c #09010F",
"n/.	c #0A040E",
"o/.	c #100514",
"p/.	c #110513",
"q/.	c #160515",
"r/.	c #0E010C",
"s/.	c #130213",
"t/.	c #140314",
"u/.	c #13000F",
"v/.	c #140517",
"w/.	c #130110",
"x/.	c #0C080E",
"y/.	c #201926",
"z/.	c #110715",
"A/.	c #1D0E1B",
"B/.	c #13040E",
"C/.	c #26131B",
"D/.	c #3D2731",
"E/.	c #130A0D",
"F/.	c #2A161B",
"G/.	c #4E2D39",
"H/.	c #200C16",
"I/.	c #2E1F19",
"J/.	c #745551",
"K/.	c #46322E",
"L/.	c #190D08",
"M/.	c #7D5843",
"N/.	c #8F5F5B",
"O/.	c #2C191B",
"P/.	c #9A6E5D",
"Q/.	c #9C6E5F",
"R/.	c #351C16",
"S/.	c #281312",
"T/.	c #956752",
"U/.	c #C98F6E",
"V/.	c #9B6E5E",
"W/.	c #2A1715",
"X/.	c #93564A",
"Y/.	c #DD8E7C",
"Z/.	c #B67E6E",
"`/.	c #4E3029",
" (.	c #381C16",
".(.	c #966057",
"+(.	c #C97D76",
"@(.	c #AD6662",
"#(.	c #492724",
"$(.	c #1B0E13",
"%(.	c #824D57",
"&(.	c #18081E",
"*(.	c #2F0E38",
"=(.	c #380B43",
"-(.	c #3C0946",
";(.	c #410F51",
">(.	c #46195D",
",(.	c #4A2266",
"'(.	c #4C2E71",
")(.	c #553E81",
"!(.	c #625092",
"~(.	c #696497",
"{(.	c #6B6E9D",
"](.	c #667699",
"^(.	c #63758F",
"/(.	c #55707C",
"((.	c #4B6B6F",
"_(.	c #456664",
":(.	c #415F5B",
"<(.	c #3E5555",
"[(.	c #3B4A4A",
"}(.	c #2D393A",
"|(.	c #161D1F",
"1(.	c #05070A",
"2(.	c #120310",
"3(.	c #270F24",
"4(.	c #30142E",
"5(.	c #301330",
"6(.	c #301332",
"7(.	c #301632",
"8(.	c #28142A",
"9(.	c #030304",
"0(.	c #231226",
"a(.	c #2E1430",
"b(.	c #2D112F",
"c(.	c #2B1530",
"d(.	c #1E1427",
"e(.	c #24172B",
"f(.	c #24162C",
"g(.	c #27182E",
"h(.	c #150A19",
"i(.	c #100F18",
"j(.	c #1E1429",
"k(.	c #22122F",
"l(.	c #120D1C",
"m(.	c #09040B",
"n(.	c #181020",
"o(.	c #1A172D",
"p(.	c #17162E",
"q(.	c #0C0A1A",
"r(.	c #04040D",
"s(.	c #151325",
"t(.	c #201C30",
"u(.	c #191526",
"v(.	c #07040A",
"w(.	c #04070F",
"x(.	c #161E2B",
"y(.	c #252A37",
"z(.	c #15161F",
"A(.	c #141F2B",
"B(.	c #18252E",
"C(.	c #010309",
"D(.	c #1A333E",
"E(.	c #264856",
"F(.	c #0A1B26",
"G(.	c #0B202E",
"H(.	c #36505F",
"I(.	c #1E2F3C",
"J(.	c #0B142A",
"K(.	c #354D6A",
"L(.	c #23384F",
"M(.	c #07122B",
"N(.	c #2F476E",
"O(.	c #1A2749",
"P(.	c #091634",
"Q(.	c #253B65",
"R(.	c #0D132F",
"S(.	c #0B1F3F",
"T(.	c #132950",
"U(.	c #02040F",
"V(.	c #010710",
"W(.	c #132036",
"X(.	c #0F0E25",
"Y(.	c #0D0612",
"Z(.	c #130B1B",
"`(.	c #11080F",
" _.	c #100410",
"._.	c #140513",
"+_.	c #1A0313",
"@_.	c #0F000C",
"#_.	c #0F020E",
"$_.	c #1C0011",
"%_.	c #110511",
"&_.	c #11000D",
"*_.	c #1D0315",
"=_.	c #110008",
"-_.	c #16121E",
";_.	c #221222",
">_.	c #1C0915",
",_.	c #240C1A",
"'_.	c #040306",
")_.	c #361F2A",
"!_.	c #371F28",
"~_.	c #070203",
"{_.	c #080404",
"]_.	c #42242A",
"^_.	c #49282D",
"/_.	c #0A0A07",
"(_.	c #462E2D",
"__.	c #785853",
":_.	c #362425",
"<_.	c #241411",
"[_.	c #855D56",
"}_.	c #875F53",
"|_.	c #25150D",
"1_.	c #36201F",
"2_.	c #A06C5D",
"3_.	c #A5705B",
"4_.	c #39221B",
"5_.	c #180C08",
"6_.	c #895C4C",
"7_.	c #CE8779",
"8_.	c #B07869",
"9_.	c #412E23",
"0_.	c #643D38",
"a_.	c #C58677",
"b_.	c #D68872",
"c_.	c #7A4C43",
"d_.	c #140505",
"e_.	c #14090B",
"f_.	c #784746",
"g_.	c #BF756E",
"h_.	c #B76F69",
"i_.	c #613437",
"j_.	c #070206",
"k_.	c #1A060F",
"l_.	c #200A26",
"m_.	c #2D0E36",
"n_.	c #310A3F",
"o_.	c #390C4B",
"p_.	c #411356",
"q_.	c #481C63",
"r_.	c #4C2770",
"s_.	c #533579",
"t_.	c #594787",
"u_.	c #615A94",
"v_.	c #67669D",
"w_.	c #6A6F9E",
"x_.	c #68739D",
"y_.	c #647699",
"z_.	c #5E758D",
"A_.	c #5A7181",
"B_.	c #526C77",
"C_.	c #486870",
"D_.	c #436163",
"E_.	c #415958",
"F_.	c #3F4F50",
"G_.	c #343D41",
"H_.	c #1E2124",
"I_.	c #070A0C",
"J_.	c #080107",
"K_.	c #170615",
"L_.	c #2A1027",
"M_.	c #33122E",
"N_.	c #31132E",
"O_.	c #321230",
"P_.	c #311031",
"Q_.	c #2F122F",
"R_.	c #2B142B",
"S_.	c #0F040F",
"T_.	c #180A1B",
"U_.	c #2B132D",
"V_.	c #2F102E",
"W_.	c #2D102E",
"X_.	c #29132C",
"Y_.	c #140917",
"Z_.	c #0D040F",
"`_.	c #221428",
" :.	c #24132D",
".:.	c #26122D",
"+:.	c #27152C",
"@:.	c #0A0712",
"#:.	c #1C1426",
"$:.	c #1F132C",
"%:.	c #1F142A",
"&:.	c #18101F",
"*:.	c #0F0D1B",
"=:.	c #171528",
"-:.	c #191227",
";:.	c #140B1D",
">:.	c #100E15",
",:.	c #181424",
"':.	c #080612",
"):.	c #12151D",
"!:.	c #23232F",
"~:.	c #161621",
"{:.	c #0F1A1F",
"]:.	c #28333F",
"^:.	c #1A212F",
"/:.	c #2E3F49",
"(:.	c #0F1927",
"_:.	c #0D1C27",
"::.	c #285059",
"<:.	c #12323D",
"[:.	c #0C142B",
"}:.	c #2D4F6C",
"|:.	c #1D2D40",
"1:.	c #131628",
"2:.	c #2B4871",
"3:.	c #152043",
"4:.	c #213760",
"5:.	c #020C1C",
"6:.	c #142744",
"7:.	c #0D203E",
"8:.	c #171E30",
"9:.	c #060713",
"0:.	c #0D030B",
"a:.	c #140613",
"b:.	c #0F020F",
"c:.	c #11000E",
"d:.	c #090008",
"e:.	c #150312",
"f:.	c #10020E",
"g:.	c #0B000B",
"h:.	c #130311",
"i:.	c #150313",
"j:.	c #231524",
"k:.	c #140811",
"l:.	c #09020A",
"m:.	c #22111D",
"n:.	c #190C16",
"o:.	c #452732",
"p:.	c #28151B",
"q:.	c #160809",
"r:.	c #482F30",
"s:.	c #3D2125",
"t:.	c #0A0403",
"u:.	c #513D3B",
"v:.	c #755652",
"w:.	c #2C1C18",
"x:.	c #2D1B18",
"y:.	c #836159",
"z:.	c #7D5C52",
"A:.	c #231514",
"B:.	c #321E1B",
"C:.	c #956B5A",
"D:.	c #A87660",
"E:.	c #412F27",
"F:.	c #734A44",
"G:.	c #C7846F",
"H:.	c #C47F6D",
"I:.	c #6B4040",
"J:.	c #3F251C",
"K:.	c #B27061",
"L:.	c #E3887F",
"M:.	c #A2625A",
"N:.	c #2A1713",
"O:.	c #593536",
"P:.	c #AF6C6D",
"Q:.	c #B76F76",
"R:.	c #6F3E43",
"S:.	c #200A29",
"T:.	c #2D0A39",
"U:.	c #330A43",
"V:.	c #3B0F53",
"W:.	c #421961",
"X:.	c #49226B",
"Y:.	c #4D2E77",
"Z:.	c #553E87",
"`:.	c #605192",
" <.	c #656299",
".<.	c #646C9B",
"+<.	c #63739C",
"@<.	c #65749A",
"#<.	c #627596",
"$<.	c #5C758B",
"%<.	c #56717D",
"&<.	c #516B70",
"*<.	c #49656A",
"=<.	c #405E63",
"-<.	c #405658",
";<.	c #384546",
"><.	c #22272A",
",<.	c #0C0C12",
"'<.	c #10040F",
")<.	c #1E0A1C",
"!<.	c #2F132B",
"~<.	c #32122E",
"{<.	c #31122D",
"]<.	c #32112F",
"^<.	c #310F30",
"/<.	c #301230",
"(<.	c #2B132B",
"_<.	c #10050F",
":<.	c #0F0512",
"<<.	c #271129",
"[<.	c #2F0F2E",
"}<.	c #310E2E",
"|<.	c #2D0E2B",
"1<.	c #230E22",
"2<.	c #24122A",
"3<.	c #27102D",
"4<.	c #260E2D",
"5<.	c #27122E",
"6<.	c #1A0C1E",
"7<.	c #06040B",
"8<.	c #1B0D24",
"9<.	c #20112A",
"0<.	c #1F1328",
"a<.	c #1C1323",
"b<.	c #0B0614",
"c<.	c #0A0814",
"d<.	c #1A1125",
"e<.	c #1F102B",
"f<.	c #140D22",
"g<.	c #04030C",
"h<.	c #0C0A12",
"i<.	c #181327",
"j<.	c #171229",
"k<.	c #0E0D1B",
"l<.	c #1D1D2E",
"m<.	c #16181F",
"n<.	c #020504",
"o<.	c #0C101F",
"p<.	c #24293D",
"q<.	c #1A202B",
"r<.	c #040408",
"s<.	c #19242D",
"t<.	c #293C4D",
"u<.	c #10181D",
"v<.	c #0C1F2F",
"w<.	c #2F4756",
"x<.	c #16282F",
"y<.	c #091A2D",
"z<.	c #2B506F",
"A<.	c #172639",
"B<.	c #0E203C",
"C<.	c #2D436D",
"D<.	c #0F1225",
"E<.	c #122D4E",
"F<.	c #1D2F55",
"G<.	c #010A1B",
"H<.	c #102C55",
"I<.	c #0B112D",
"J<.	c #0B1623",
"K<.	c #151827",
"L<.	c #06020E",
"M<.	c #120B17",
"N<.	c #0E010D",
"O<.	c #1B0213",
"P<.	c #170010",
"Q<.	c #140411",
"R<.	c #0D030E",
"S<.	c #100814",
"T<.	c #130A15",
"U<.	c #08040B",
"V<.	c #110811",
"W<.	c #281421",
"X<.	c #2D131D",
"Y<.	c #442931",
"Z<.	c #1D0C0F",
"`<.	c #221010",
" [.	c #5A2C36",
".[.	c #341B1D",
"+[.	c #0F0808",
"@[.	c #65453D",
"#[.	c #6D584F",
"$[.	c #1C1917",
"%[.	c #331C19",
"&[.	c #8B6056",
"*[.	c #845C4F",
"=[.	c #231614",
"-[.	c #2A1814",
";[.	c #936656",
">[.	c #AA7965",
",[.	c #543930",
"'[.	c #5B382D",
")[.	c #BB7B67",
"![.	c #CB8674",
"~[.	c #7D594C",
"{[.	c #211010",
"][.	c #955B4A",
"^[.	c #D38C7A",
"/[.	c #B1756D",
"([.	c #492424",
"_[.	c #492828",
":[.	c #AA6569",
"<[.	c #BB6A6F",
"[[.	c #6E3D40",
"}[.	c #090203",
"|[.	c #260938",
"1[.	c #310E49",
"2[.	c #3B1558",
"3[.	c #431E67",
"4[.	c #482873",
"5[.	c #523880",
"6[.	c #59488B",
"7[.	c #5F5795",
"8[.	c #65639A",
"9[.	c #666D9B",
"0[.	c #64759A",
"a[.	c #617796",
"b[.	c #607591",
"c[.	c #597387",
"d[.	c #526F79",
"e[.	c #4A6262",
"f[.	c #475C60",
"g[.	c #3B4D51",
"h[.	c #232E30",
"i[.	c #0C0F12",
"j[.	c #180818",
"k[.	c #281126",
"l[.	c #30142D",
"m[.	c #2F132D",
"n[.	c #2E112E",
"o[.	c #2F1130",
"p[.	c #2C122E",
"q[.	c #261228",
"r[.	c #230F24",
"s[.	c #2D0E2D",
"t[.	c #2F0C2D",
"u[.	c #2D0D2C",
"v[.	c #29112A",
"w[.	c #170818",
"x[.	c #26112C",
"y[.	c #250C2C",
"z[.	c #250C2D",
"A[.	c #24102A",
"B[.	c #190C1C",
"C[.	c #180C1C",
"D[.	c #1E1027",
"E[.	c #1E1028",
"F[.	c #110617",
"G[.	c #0C0411",
"H[.	c #1C1228",
"I[.	c #161020",
"J[.	c #08040C",
"K[.	c #080511",
"L[.	c #161023",
"M[.	c #19111F",
"N[.	c #0E0811",
"O[.	c #080A16",
"P[.	c #191822",
"Q[.	c #17151C",
"R[.	c #080B1A",
"S[.	c #1F2330",
"T[.	c #1B1D24",
"U[.	c #15222D",
"V[.	c #22393C",
"W[.	c #0C161E",
"X[.	c #2F474E",
"Y[.	c #122523",
"Z[.	c #08223E",
"`[.	c #274C6B",
" }.	c #0F1E2F",
".}.	c #16224D",
"+}.	c #303D58",
"@}.	c #050D13",
"#}.	c #1E2C5A",
"$}.	c #1B2046",
"%}.	c #051331",
"&}.	c #1C2842",
"*}.	c #050716",
"=}.	c #141726",
"-}.	c #0D0E1B",
";}.	c #0C010C",
">}.	c #120411",
",}.	c #0D000C",
"'}.	c #1B0313",
")}.	c #0C000A",
"!}.	c #150412",
"~}.	c #170211",
"{}.	c #0A0412",
"]}.	c #1B0D18",
"^}.	c #200D19",
"/}.	c #2A1520",
"(}.	c #090205",
"_}.	c #361F26",
":}.	c #41282E",
"<}.	c #100608",
"[}.	c #34161B",
"}}.	c #513538",
"|}.	c #261917",
"1}.	c #1A0D09",
"2}.	c #634C46",
"3}.	c #685450",
"4}.	c #1D1411",
"5}.	c #381B15",
"6}.	c #8A5E4D",
"7}.	c #846154",
"8}.	c #291918",
"9}.	c #22110F",
"0}.	c #8A5845",
"a}.	c #B17A6F",
"b}.	c #684644",
"c}.	c #3F281F",
"d}.	c #A67158",
"e}.	c #C78B77",
"f}.	c #9D685C",
"g}.	c #2D1815",
"h}.	c #0A0600",
"i}.	c #724C3E",
"j}.	c #CC827D",
"k}.	c #C37A79",
"l}.	c #563230",
"m}.	c #462425",
"n}.	c #A66268",
"o}.	c #B06872",
"p}.	c #5B3036",
"q}.	c #33114C",
"r}.	c #371B5A",
"s}.	c #412468",
"t}.	c #4B2F78",
"u}.	c #563F88",
"v}.	c #5F5096",
"w}.	c #635E99",
"x}.	c #65699A",
"y}.	c #666E9B",
"z}.	c #657398",
"A}.	c #637495",
"B}.	c #5E738E",
"C}.	c #576E83",
"D}.	c #506B77",
"E}.	c #4B676A",
"F}.	c #486161",
"G}.	c #3E5253",
"H}.	c #283439",
"I}.	c #0F1218",
"J}.	c #0D000B",
"K}.	c #170719",
"L}.	c #241024",
"M}.	c #2C132B",
"N}.	c #31122E",
"O}.	c #2C142D",
"P}.	c #2B132E",
"Q}.	c #2B1130",
"R}.	c #2A152F",
"S}.	c #1D0E22",
"T}.	c #1E0C1F",
"U}.	c #2B0E2C",
"V}.	c #2B0B2C",
"W}.	c #290E2C",
"X}.	c #200C25",
"Y}.	c #19081E",
"Z}.	c #260F2D",
"`}.	c #250C2E",
" |.	c #230A2A",
".|.	c #240D26",
"+|.	c #190C1A",
"@|.	c #140819",
"#|.	c #210F2A",
"$|.	c #230D2B",
"%|.	c #230E29",
"&|.	c #16091B",
"*|.	c #160C1E",
"=|.	c #1A1028",
"-|.	c #180F27",
";|.	c #0B0616",
">|.	c #170B1F",
",|.	c #1C0F27",
"'|.	c #0F0819",
")|.	c #070511",
"!|.	c #1A1224",
"~|.	c #070816",
"{|.	c #191D2A",
"]|.	c #171A25",
"^|.	c #020208",
"/|.	c #111E29",
"(|.	c #25303B",
"_|.	c #0C1218",
":|.	c #111C2C",
"<|.	c #2C3F50",
"[|.	c #101B21",
"}|.	c #0F2637",
"||.	c #284A63",
"1|.	c #081623",
"2|.	c #1A3247",
"3|.	c #223754",
"4|.	c #030115",
"5|.	c #040A1E",
"6|.	c #1C3551",
"7|.	c #0D182E",
"8|.	c #0C1C31",
"9|.	c #10233D",
"0|.	c #161927",
"a|.	c #070710",
"b|.	c #0D020D",
"c|.	c #0C000B",
"d|.	c #1D0314",
"e|.	c #160312",
"f|.	c #180312",
"g|.	c #0E000C",
"h|.	c #1E0214",
"i|.	c #17010E",
"j|.	c #1A0317",
"k|.	c #14010F",
"l|.	c #09060D",
"m|.	c #260E1C",
"n|.	c #170712",
"o|.	c #0E020B",
"p|.	c #331321",
"q|.	c #1E151B",
"r|.	c #140508",
"s|.	c #060308",
"t|.	c #382121",
"u|.	c #543236",
"v|.	c #221313",
"w|.	c #23100F",
"x|.	c #754A44",
"y|.	c #6A5248",
"z|.	c #1B1512",
"A|.	c #2C1B18",
"B|.	c #8C5B4A",
"C|.	c #8D5F55",
"D|.	c #332020",
"E|.	c #150B07",
"F|.	c #794E48",
"G|.	c #B57970",
"H|.	c #7A564C",
"I|.	c #180D0D",
"J|.	c #2B1613",
"K|.	c #986551",
"L|.	c #CA866A",
"M|.	c #AD7663",
"N|.	c #432523",
"O|.	c #673B31",
"P|.	c #BF8072",
"Q|.	c #C47F74",
"R|.	c #61322F",
"S|.	c #4E2932",
"T|.	c #A5646F",
"U|.	c #A06266",
"V|.	c #3D1E60",
"W|.	c #432D6E",
"X|.	c #4E3B7E",
"Y|.	c #58488E",
"Z|.	c #5D5496",
"`|.	c #63609B",
" 1.	c #65699C",
".1.	c #656F99",
"+1.	c #657297",
"@1.	c #5E718E",
"#1.	c #587087",
"$1.	c #546E80",
"%1.	c #4F6B75",
"&1.	c #4D666D",
"*1.	c #3F5257",
"=1.	c #283237",
"-1.	c #0E1217",
";1.	c #0D030D",
">1.	c #160717",
",1.	c #251126",
"'1.	c #271229",
")1.	c #2A132C",
"!1.	c #2D122E",
"~1.	c #2E122E",
"{1.	c #2D1330",
"]1.	c #2A1331",
"^1.	c #24142B",
"/1.	c #1C0A1D",
"(1.	c #2B0D2A",
"_1.	c #2C0A2C",
":1.	c #290D2B",
"<1.	c #270E2B",
"[1.	c #270F2A",
"}1.	c #160719",
"|1.	c #1A0920",
"11.	c #260E2B",
"21.	c #240929",
"31.	c #220828",
"41.	c #210A25",
"51.	c #18081B",
"61.	c #230C26",
"71.	c #240B2D",
"81.	c #250E2F",
"91.	c #1B0A19",
"01.	c #1B1227",
"a1.	c #1A1126",
"b1.	c #0F0915",
"c1.	c #100B1F",
"d1.	c #1A1027",
"e1.	c #13081D",
"f1.	c #05050B",
"g1.	c #13101C",
"h1.	c #080212",
"i1.	c #050510",
"j1.	c #171726",
"k1.	c #161624",
"l1.	c #161923",
"m1.	c #212A36",
"n1.	c #090F1B",
"o1.	c #101C29",
"p1.	c #273D4A",
"q1.	c #0F1517",
"r1.	c #142A3C",
"s1.	c #244257",
"t1.	c #070E11",
"u1.	c #000411",
"v1.	c #1E3753",
"w1.	c #192D44",
"x1.	c #041824",
"y1.	c #1E3253",
"z1.	c #00040C",
"A1.	c #102642",
"B1.	c #0D172D",
"C1.	c #0D0E1A",
"D1.	c #14121E",
"E1.	c #090110",
"F1.	c #0F0210",
"G1.	c #1C0716",
"H1.	c #16000E",
"I1.	c #1B0314",
"J1.	c #0D0008",
"K1.	c #16030E",
"L1.	c #0F010B",
"M1.	c #1C0315",
"N1.	c #12000C",
"O1.	c #0F080F",
"P1.	c #24111C",
"Q1.	c #13030D",
"R1.	c #1A050E",
"S1.	c #2F1C24",
"T1.	c #170F10",
"U1.	c #1B0C0C",
"V1.	c #381C23",
"W1.	c #050301",
"X1.	c #5A2F38",
"Y1.	c #230F12",
"Z1.	c #24110F",
"`1.	c #724C4B",
" 2.	c #725048",
".2.	c #1E1511",
"+2.	c #321411",
"@2.	c #83574F",
"#2.	c #8A675B",
"$2.	c #3E291D",
"%2.	c #6D403F",
"&2.	c #AA7871",
"*2.	c #8B6456",
"=2.	c #291810",
"-2.	c #1B0A06",
";2.	c #825649",
">2.	c #C18372",
",2.	c #C07866",
"'2.	c #592D2D",
")2.	c #573533",
"!2.	c #C47A72",
"~2.	c #C2776A",
"{2.	c #522E29",
"]2.	c #5F3840",
"^2.	c #AC646A",
"/2.	c #463372",
"(2.	c #4D417B",
"_2.	c #574E88",
":2.	c #5E5A91",
"<2.	c #606393",
"[2.	c #636A92",
"}2.	c #656E94",
"|2.	c #626F92",
"12.	c #60708D",
"22.	c #5C6F84",
"32.	c #566D7A",
"42.	c #4A616A",
"52.	c #384C51",
"62.	c #1E2D33",
"72.	c #070E13",
"82.	c #190C1E",
"92.	c #27152E",
"02.	c #29162F",
"a2.	c #29152F",
"b2.	c #2A1530",
"c2.	c #2B1430",
"d2.	c #2B142E",
"e2.	c #23132A",
"f2.	c #100615",
"g2.	c #1D0C1F",
"h2.	c #280B28",
"i2.	c #2B0A2B",
"j2.	c #290D2A",
"k2.	c #260D2B",
"l2.	c #260C2A",
"m2.	c #1E0A20",
"n2.	c #0D0013",
"o2.	c #1F0722",
"p2.	c #240828",
"q2.	c #230728",
"r2.	c #220727",
"s2.	c #1F0823",
"t2.	c #130415",
"u2.	c #220B28",
"v2.	c #23092A",
"w2.	c #230C25",
"x2.	c #1B091A",
"y2.	c #1A1023",
"z2.	c #130919",
"A2.	c #0E0B1B",
"B2.	c #180D27",
"C2.	c #130A20",
"D2.	c #130C20",
"E2.	c #160E22",
"F2.	c #06040C",
"G2.	c #151521",
"H2.	c #141323",
"I2.	c #121621",
"J2.	c #1E252F",
"K2.	c #090B13",
"L2.	c #131F29",
"M2.	c #28343D",
"N2.	c #091018",
"O2.	c #1A3041",
"P2.	c #233C47",
"Q2.	c #030A1F",
"R2.	c #183F4D",
"S2.	c #0D2434",
"T2.	c #0E1E34",
"U2.	c #192B52",
"V2.	c #050A11",
"W2.	c #17263F",
"X2.	c #070D1D",
"Y2.	c #13111F",
"Z2.	c #140615",
"`2.	c #190312",
" 3.	c #15010F",
".3.	c #190514",
"+3.	c #180110",
"@3.	c #0B0008",
"#3.	c #11030D",
"$3.	c #140212",
"%3.	c #1A0C15",
"&3.	c #220D19",
"*3.	c #200D15",
"=3.	c #341F25",
"-3.	c #19080A",
";3.	c #4C2E31",
">3.	c #361A1C",
",3.	c #0B0504",
"'3.	c #45252C",
")3.	c #593036",
"!3.	c #201512",
"~3.	c #6E4D46",
"{3.	c #754F4C",
"]3.	c #291615",
"^3.	c #1D140F",
"/3.	c #71534A",
"(3.	c #98655D",
"_3.	c #4D322D",
":3.	c #4E3933",
"<3.	c #A8746B",
"[3.	c #A16761",
"}3.	c #3C2120",
"|3.	c #6F4B41",
"13.	c #C27C6E",
"23.	c #BC7B71",
"33.	c #573732",
"43.	c #603633",
"53.	c #B97D70",
"63.	c #AF7469",
"73.	c #3D1B1A",
"83.	c #120708",
"93.	c #864B57",
"03.	c #48457D",
"a3.	c #515284",
"b3.	c #575B89",
"c3.	c #5D648C",
"d3.	c #5F6A8B",
"e3.	c #616F89",
"f3.	c #616F87",
"g3.	c #5C6B84",
"h3.	c #536174",
"i3.	c #42505C",
"j3.	c #29363A",
"k3.	c #101C1C",
"l3.	c #020508",
"m3.	c #1A0F24",
"n3.	c #22142F",
"o3.	c #251833",
"p3.	c #241832",
"q3.	c #261932",
"r3.	c #261831",
"s3.	c #281831",
"t3.	c #281830",
"u3.	c #241727",
"v3.	c #1A101D",
"w3.	c #040207",
"x3.	c #1E0C22",
"y3.	c #250B29",
"z3.	c #280B2B",
"A3.	c #270D2A",
"B3.	c #260D2A",
"C3.	c #260B2B",
"D3.	c #210C25",
"E3.	c #120415",
"F3.	c #140117",
"G3.	c #210723",
"H3.	c #250826",
"I3.	c #240625",
"J3.	c #200622",
"K3.	c #1A071A",
"L3.	c #120511",
"M3.	c #040205",
"N3.	c #140514",
"O3.	c #220A24",
"P3.	c #21072A",
"Q3.	c #240A2F",
"R3.	c #1B0920",
"S3.	c #090107",
"T3.	c #110818",
"U3.	c #1D0E29",
"V3.	c #1D0F2B",
"W3.	c #13091E",
"X3.	c #0C0B1D",
"Y3.	c #180E28",
"Z3.	c #140B20",
"`3.	c #0F0C1A",
" 4.	c #130C21",
".4.	c #130F23",
"+4.	c #121417",
"@4.	c #1D1D2B",
"#4.	c #090713",
"$4.	c #141E27",
"%4.	c #1F2F3B",
"&4.	c #050A16",
"*4.	c #00040B",
"=4.	c #1A3442",
"-4.	c #242D41",
";4.	c #021721",
">4.	c #1F3C4F",
",4.	c #0E1228",
"'4.	c #112A43",
")4.	c #132142",
"!4.	c #0D1223",
"~4.	c #1A1F35",
"{4.	c #010311",
"]4.	c #050411",
"^4.	c #16111D",
"/4.	c #0B040C",
"(4.	c #100513",
"_4.	c #0E0310",
":4.	c #100311",
"<4.	c #120413",
"[4.	c #170513",
"}4.	c #0B020C",
"|4.	c #1B0716",
"14.	c #13000C",
"24.	c #0C040C",
"34.	c #15030F",
"44.	c #0B0007",
"54.	c #18020F",
"64.	c #1E0D19",
"74.	c #1F0A17",
"84.	c #0A0005",
"94.	c #2B131C",
"04.	c #361D23",
"a4.	c #150406",
"b4.	c #281915",
"c4.	c #513034",
"d4.	c #0A0808",
"e4.	c #452B2A",
"f4.	c #5A3135",
"g4.	c #210E0E",
"h4.	c #1E1311",
"i4.	c #704645",
"j4.	c #775349",
"k4.	c #281C18",
"l4.	c #704845",
"m4.	c #99675D",
"n4.	c #543C33",
"o4.	c #4D2828",
"p4.	c #A96966",
"q4.	c #A57167",
"r4.	c #402C29",
"s4.	c #684340",
"t4.	c #B67D6B",
"u4.	c #BF7B6E",
"v4.	c #5B302D",
"w4.	c #654442",
"x4.	c #C17C75",
"y4.	c #A1575D",
"z4.	c #1B090A",
"A4.	c #3D212E",
"B4.	c #4A527C",
"C4.	c #525A85",
"D4.	c #576088",
"E4.	c #576181",
"F4.	c #525E77",
"G4.	c #475269",
"H4.	c #354152",
"I4.	c #222C36",
"J4.	c #0E151E",
"K4.	c #01060C",
"L4.	c #020107",
"M4.	c #1B1626",
"N4.	c #211B30",
"O4.	c #241C36",
"P4.	c #241E36",
"Q4.	c #231E33",
"R4.	c #231E32",
"S4.	c #231D30",
"T4.	c #221A2B",
"U4.	c #1C1525",
"V4.	c #08050A",
"W4.	c #080209",
"X4.	c #110813",
"Y4.	c #170A1D",
"Z4.	c #1E0B25",
"`4.	c #230C2A",
" 5.	c #250D2B",
".5.	c #250D2A",
"+5.	c #250E2A",
"@5.	c #250E2B",
"#5.	c #1D0A21",
"$5.	c #110415",
"%5.	c #050307",
"&5.	c #0F0012",
"*5.	c #180319",
"=5.	c #230625",
"-5.	c #200321",
";5.	c #1D051E",
">5.	c #160416",
",5.	c #21082B",
"'5.	c #220630",
")5.	c #200827",
"!5.	c #1C091A",
"~5.	c #1E0E2C",
"{5.	c #1C0D29",
"]5.	c #160A1B",
"^5.	c #060107",
"/5.	c #10071A",
"(5.	c #1B1025",
"_5.	c #04010C",
":5.	c #140F19",
"<5.	c #080609",
"[5.	c #110D19",
"}5.	c #13121F",
"|5.	c #1B1625",
"15.	c #121F29",
"25.	c #1D2832",
"35.	c #03030B",
"45.	c #010515",
"55.	c #1D3742",
"65.	c #142931",
"75.	c #0D1C2D",
"85.	c #1B384F",
"95.	c #030709",
"05.	c #182B4F",
"a5.	c #061A2E",
"b5.	c #151728",
"c5.	c #141828",
"d5.	c #140D16",
"e5.	c #130713",
"f5.	c #140210",
"g5.	c #1F0416",
"h5.	c #11010D",
"i5.	c #120412",
"j5.	c #1F0314",
"k5.	c #180210",
"l5.	c #13010E",
"m5.	c #1A0312",
"n5.	c #0E020D",
"o5.	c #260D1D",
"p5.	c #180914",
"q5.	c #120106",
"r5.	c #331C23",
"s5.	c #361D22",
"t5.	c #341A1B",
"u5.	c #573038",
"v5.	c #2E1418",
"w5.	c #0C0A06",
"x5.	c #4D292B",
"y5.	c #603035",
"z5.	c #1E0F0B",
"A5.	c #69483D",
"B5.	c #775454",
"C5.	c #371B20",
"D5.	c #0C0B06",
"E5.	c #624338",
"F5.	c #916963",
"G5.	c #604142",
"H5.	c #130405",
"I5.	c #34261C",
"J5.	c #906D5F",
"K5.	c #9E7573",
"L5.	c #4F2B2F",
"M5.	c #674535",
"N5.	c #BD766A",
"O5.	c #B1746C",
"P5.	c #3D2922",
"Q5.	c #8C5552",
"R5.	c #C6747C",
"S5.	c #633C3C",
"T5.	c #39435F",
"U5.	c #343D56",
"V5.	c #2A3246",
"W5.	c #1C2230",
"X5.	c #0F1420",
"Y5.	c #030715",
"Z5.	c #161523",
"`5.	c #212130",
" 6.	c #242434",
".6.	c #242433",
"+6.	c #232333",
"@6.	c #222432",
"#6.	c #232433",
"$6.	c #212230",
"%6.	c #1D1D29",
"&6.	c #14141D",
"*6.	c #0B0A11",
"=6.	c #0B020D",
"-6.	c #130616",
";6.	c #17091C",
">6.	c #23102B",
",6.	c #230E2D",
"'6.	c #240E2C",
")6.	c #200C24",
"!6.	c #17081D",
"~6.	c #120213",
"{6.	c #18031A",
"]6.	c #1F0524",
"^6.	c #200424",
"/6.	c #1D0421",
"(6.	c #19031D",
"_6.	c #130316",
":6.	c #18051D",
"<6.	c #200726",
"[6.	c #210826",
"}6.	c #200924",
"|6.	c #1E0C28",
"16.	c #1A0821",
"26.	c #0D0614",
"36.	c #1A0C24",
"46.	c #160920",
"56.	c #12091B",
"66.	c #120C1E",
"76.	c #150D1A",
"86.	c #05000B",
"96.	c #11101D",
"06.	c #191F2E",
"a6.	c #011015",
"b6.	c #1E3843",
"c6.	c #141629",
"d6.	c #102835",
"e6.	c #1C2E41",
"f6.	c #050F1F",
"g6.	c #1B2A4E",
"h6.	c #030C1B",
"i6.	c #00030B",
"j6.	c #181E2A",
"k6.	c #0C0E1A",
"l6.	c #110B19",
"m6.	c #100713",
"n6.	c #0E030D",
"o6.	c #120510",
"p6.	c #0E010B",
"q6.	c #1A0413",
"r6.	c #16010F",
"s6.	c #200516",
"t6.	c #1D0515",
"u6.	c #180410",
"v6.	c #140412",
"w6.	c #0D010F",
"x6.	c #0E010E",
"y6.	c #1E0215",
"z6.	c #10000E",
"A6.	c #2A0D1E",
"B6.	c #190712",
"C6.	c #11060A",
"D6.	c #3C1F27",
"E6.	c #37181F",
"F6.	c #3A1D21",
"G6.	c #573035",
"H6.	c #2B1313",
"I6.	c #120807",
"J6.	c #4C2A2B",
"K6.	c #5B3437",
"L6.	c #251214",
"M6.	c #1A0C0A",
"N6.	c #63443F",
"O6.	c #795550",
"P6.	c #38231F",
"Q6.	c #0C0504",
"R6.	c #5B3C39",
"S6.	c #966761",
"T6.	c #6C463F",
"U6.	c #110909",
"V6.	c #2E201B",
"W6.	c #92675E",
"X6.	c #A67067",
"Y6.	c #4B2D27",
"Z6.	c #0B0201",
"`6.	c #B57A70",
" 7.	c #A46B64",
".7.	c #291314",
"+7.	c #2B1616",
"@7.	c #A46B6E",
"#7.	c #9E6867",
"$7.	c #26110F",
"%7.	c #030716",
"&7.	c #06050C",
"*7.	c #14141E",
"=7.	c #22232F",
"-7.	c #272938",
";7.	c #262B39",
">7.	c #242B37",
",7.	c #252A35",
"'7.	c #242A35",
")7.	c #1D232E",
"!7.	c #151B22",
"~7.	c #0D1013",
"{7.	c #040608",
"]7.	c #130A1C",
"^7.	c #1C0F26",
"/7.	c #1F122C",
"(7.	c #22132D",
"_7.	c #21122E",
":7.	c #1F102C",
"<7.	c #08030E",
"[7.	c #100313",
"}7.	c #110316",
"|7.	c #1B0420",
"17.	c #150118",
"27.	c #100112",
"37.	c #160518",
"47.	c #1F0824",
"57.	c #1F0526",
"67.	c #200328",
"77.	c #1F082A",
"87.	c #090006",
"97.	c #180B22",
"07.	c #0A020C",
"a7.	c #0F091D",
"b7.	c #150E1F",
"c7.	c #160A1F",
"d7.	c #12081D",
"e7.	c #100F22",
"f7.	c #12111B",
"g7.	c #18171D",
"h7.	c #071221",
"i7.	c #223240",
"j7.	c #192B3F",
"k7.	c #112538",
"l7.	c #14162C",
"m7.	c #15273F",
"n7.	c #070B16",
"o7.	c #1B1C28",
"p7.	c #060410",
"q7.	c #10040E",
"r7.	c #18000F",
"s7.	c #110512",
"t7.	c #200416",
"u7.	c #1B0414",
"v7.	c #180413",
"w7.	c #1E0816",
"x7.	c #16010C",
"y7.	c #190415",
"z7.	c #210213",
"A7.	c #2B0F1E",
"B7.	c #11090F",
"C7.	c #1C070C",
"D7.	c #441F2B",
"E7.	c #2F1B23",
"F7.	c #060102",
"G7.	c #411F21",
"H7.	c #5D2F33",
"I7.	c #2D1113",
"J7.	c #0C0A05",
"K7.	c #4E2A2F",
"L7.	c #5E3639",
"M7.	c #241815",
"N7.	c #140C06",
"O7.	c #755753",
"P7.	c #402423",
"Q7.	c #54382E",
"R7.	c #8D695F",
"S7.	c #6D4C47",
"T7.	c #341E14",
"U7.	c #916956",
"V7.	c #9D7268",
"W7.	c #3F2222",
"X7.	c #0C0706",
"Y7.	c #835A54",
"Z7.	c #C17470",
"`7.	c #885553",
" 8.	c #0B0505",
".8.	c #5A3E3D",
"+8.	c #AF7676",
"@8.	c #653536",
"#8.	c #10111A",
"$8.	c #1E242E",
"%8.	c #262F39",
"&8.	c #25323C",
"*8.	c #25313B",
"=8.	c #24333B",
"-8.	c #24353D",
";8.	c #25333C",
">8.	c #222934",
",8.	c #191C29",
"'8.	c #0B0E17",
")8.	c #020406",
"!8.	c #15101F",
"~8.	c #1E182E",
"{8.	c #1D1830",
"]8.	c #1B1530",
"^8.	c #19132C",
"/8.	c #18132A",
"(8.	c #0F0A1F",
"_8.	c #0C071A",
":8.	c #060513",
"<8.	c #02040A",
"[8.	c #150418",
"}8.	c #160318",
"|8.	c #170419",
"18.	c #130215",
"28.	c #0E0110",
"38.	c #16051B",
"48.	c #1D0523",
"58.	c #220125",
"68.	c #1E0523",
"78.	c #140518",
"88.	c #1D0924",
"98.	c #1C0924",
"08.	c #17071F",
"a8.	c #0D0916",
"b8.	c #190C21",
"c8.	c #030207",
"d8.	c #180928",
"e8.	c #0F0618",
"f8.	c #110D1C",
"g8.	c #100C1B",
"h8.	c #1C1A25",
"i8.	c #0F101A",
"j8.	c #0F1821",
"k8.	c #1F2D37",
"l8.	c #01090E",
"m8.	c #040912",
"n8.	c #212D43",
"o8.	c #0C1922",
"p8.	c #191F34",
"q8.	c #131C2A",
"r8.	c #13101E",
"s8.	c #150918",
"t8.	c #0D010A",
"u8.	c #130513",
"v8.	c #11020E",
"w8.	c #1E0516",
"x8.	c #1A0110",
"y8.	c #11020F",
"z8.	c #250518",
"A8.	c #190112",
"B8.	c #160415",
"C8.	c #0C000C",
"D8.	c #230512",
"E8.	c #30101D",
"F8.	c #1E0B0F",
"G8.	c #46252C",
"H8.	c #36171C",
"I8.	c #442025",
"J8.	c #5E2F2E",
"K8.	c #261412",
"L8.	c #180409",
"M8.	c #573D32",
"N8.	c #251916",
"O8.	c #13080B",
"P8.	c #553D3C",
"Q8.	c #7B564F",
"R8.	c #3B2C23",
"S8.	c #070102",
"T8.	c #4B3635",
"U8.	c #8C665B",
"V8.	c #6F4A41",
"W8.	c #130A0B",
"X8.	c #3A2220",
"Y8.	c #986864",
"Z8.	c #986A5F",
"`8.	c #2D1A14",
" 9.	c #24191A",
".9.	c #9D6561",
"+9.	c #B1746F",
"@9.	c #4E3231",
"#9.	c #1A0E0F",
"$9.	c #956366",
"%9.	c #91575D",
"&9.	c #14050C",
"*9.	c #060D11",
"=9.	c #172327",
"-9.	c #243337",
";9.	c #25383C",
">9.	c #20383C",
",9.	c #203A3E",
"'9.	c #273E42",
")9.	c #263B3E",
"!9.	c #1E3234",
"~9.	c #111E20",
"{9.	c #050A0D",
"]9.	c #04060E",
"^9.	c #0C0F19",
"/9.	c #151925",
"(9.	c #1A1E2C",
"_9.	c #1D2131",
":9.	c #1E2132",
"<9.	c #1E1E31",
"[9.	c #1E1B2F",
"}9.	c #1E1A2E",
"|9.	c #1C172B",
"19.	c #171326",
"29.	c #120E1E",
"39.	c #0C0A16",
"49.	c #0C0416",
"59.	c #0E0418",
"69.	c #11061B",
"79.	c #140419",
"89.	c #100114",
"99.	c #1B0521",
"09.	c #200324",
"a9.	c #1C0420",
"b9.	c #14071A",
"c9.	c #1C0824",
"d9.	c #0F0616",
"e9.	c #130A1D",
"f9.	c #0A020F",
"g9.	c #0C0515",
"h9.	c #0D0A17",
"i9.	c #181722",
"j9.	c #0A0B16",
"k9.	c #131D27",
"l9.	c #192230",
"m9.	c #091215",
"n9.	c #212D3A",
"o9.	c #020510",
"p9.	c #1C252F",
"q9.	c #0A0E1A",
"r9.	c #171522",
"s9.	c #110615",
"t9.	c #0F020D",
"u9.	c #160614",
"v9.	c #0E010A",
"w9.	c #1A0213",
"x9.	c #180111",
"y9.	c #10010D",
"z9.	c #1A0414",
"A9.	c #0B000A",
"B9.	c #170313",
"C9.	c #150110",
"D9.	c #170514",
"E9.	c #1A0212",
"F9.	c #290715",
"G9.	c #3A0C1D",
"H9.	c #150309",
"I9.	c #290D10",
"J9.	c #4E252D",
"K9.	c #33161B",
"L9.	c #080303",
"M9.	c #442224",
"N9.	c #5B3435",
"O9.	c #281511",
"P9.	c #140605",
"Q9.	c #4F292A",
"R9.	c #603B38",
"S9.	c #251C17",
"T9.	c #0E0807",
"U9.	c #59383B",
"V9.	c #775650",
"W9.	c #3F2C25",
"X9.	c #4E3734",
"Y9.	c #896461",
"Z9.	c #664644",
"`9.	c #0A0606",
" 0.	c #482C2B",
".0.	c #996F67",
"+0.	c #815951",
"@0.	c #513132",
"#0.	c #AC726E",
"$0.	c #905F5D",
"%0.	c #170B0C",
"&0.	c #633A3D",
"*0.	c #A26B71",
"=0.	c #321D24",
"-0.	c #0A0107",
";0.	c #0B0308",
">0.	c #070107",
",0.	c #000809",
"'0.	c #0E1C1C",
")0.	c #1D3333",
"!0.	c #223E3D",
"~0.	c #233F3E",
"{0.	c #23403F",
"]0.	c #254442",
"^0.	c #244241",
"/0.	c #1F3133",
"(0.	c #0E1A1D",
"_0.	c #050B0F",
":0.	c #0D171C",
"<0.	c #18202B",
"[0.	c #1F2834",
"}0.	c #222B39",
"|0.	c #222C3B",
"10.	c #202C3A",
"20.	c #1E2939",
"30.	c #1D2636",
"40.	c #1B2131",
"50.	c #171A27",
"60.	c #060510",
"70.	c #0A0617",
"80.	c #0D091C",
"90.	c #110B20",
"00.	c #140B22",
"a0.	c #160C25",
"b0.	c #170C25",
"c0.	c #160C22",
"d0.	c #150B20",
"e0.	c #140A1C",
"f0.	c #100618",
"g0.	c #0E0416",
"h0.	c #1B0320",
"i0.	c #1A031E",
"j0.	c #150419",
"k0.	c #1D0624",
"l0.	c #1B062D",
"m0.	c #10061B",
"n0.	c #1A0B25",
"o0.	c #12091F",
"p0.	c #0A020E",
"q0.	c #130B1C",
"r0.	c #130D18",
"s0.	c #0C0713",
"t0.	c #090611",
"u0.	c #171622",
"v0.	c #050512",
"w0.	c #1A1D31",
"x0.	c #131924",
"y0.	c #121828",
"z0.	c #1D2340",
"A0.	c #080E15",
"B0.	c #1E2331",
"C0.	c #030610",
"D0.	c #04040F",
"E0.	c #181721",
"F0.	c #12060F",
"G0.	c #13020F",
"H0.	c #160613",
"I0.	c #12000B",
"J0.	c #150310",
"K0.	c #210416",
"L0.	c #200617",
"M0.	c #1D0414",
"N0.	c #1D0312",
"O0.	c #10030E",
"P0.	c #1A010F",
"Q0.	c #300919",
"R0.	c #360F1F",
"S0.	c #2B1014",
"T0.	c #4F2830",
"U0.	c #34171C",
"V0.	c #090303",
"W0.	c #4C2023",
"X0.	c #69312E",
"Y0.	c #2C170F",
"Z0.	c #4C2C25",
"`0.	c #593F3A",
" a.	c #2E1A19",
".a.	c #0D0607",
"+a.	c #573833",
"@a.	c #72564E",
"#a.	c #372B24",
"$a.	c #080102",
"%a.	c #573A3B",
"&a.	c #8D635E",
"*a.	c #4E3E40",
"=a.	c #5F3E3A",
"-a.	c #A3706B",
";a.	c #5B3B3B",
">a.	c #0F070B",
",a.	c #845554",
"'a.	c #AE6F6D",
")a.	c #513335",
"!a.	c #34181C",
"~a.	c #9B6A71",
"{a.	c #53333D",
"]a.	c #0F050D",
"^a.	c #160913",
"/a.	c #150814",
"(a.	c #0E050E",
"_a.	c #09050B",
":a.	c #031011",
"<a.	c #122927",
"[a.	c #203F3A",
"}a.	c #204340",
"|a.	c #234544",
"1a.	c #264543",
"2a.	c #27423F",
"3a.	c #1E3433",
"4a.	c #0B1C1B",
"5a.	c #020607",
"6a.	c #030B0D",
"7a.	c #0E191F",
"8a.	c #1E3137",
"9a.	c #21363B",
"0a.	c #24343D",
"aa.	c #23313A",
"ba.	c #212E38",
"ca.	c #1A2732",
"da.	c #141D28",
"ea.	c #0E131D",
"fa.	c #060A12",
"ga.	c #01030A",
"ha.	c #030408",
"ia.	c #05050E",
"ja.	c #0A0915",
"ka.	c #0E0B1C",
"la.	c #120D21",
"ma.	c #140F25",
"na.	c #151227",
"oa.	c #161129",
"pa.	c #151027",
"qa.	c #150F26",
"ra.	c #12091E",
"sa.	c #0F0719",
"ta.	c #0B0414",
"ua.	c #0A0512",
"va.	c #07040B",
"wa.	c #14011A",
"xa.	c #17041A",
"ya.	c #160418",
"za.	c #100215",
"Aa.	c #19071E",
"Ba.	c #1D0529",
"Ca.	c #1D0625",
"Da.	c #150315",
"Ea.	c #190B22",
"Fa.	c #17081E",
"Ga.	c #130C1A",
"Ha.	c #110B1A",
"Ia.	c #0B0410",
"Ja.	c #141120",
"Ka.	c #03010E",
"La.	c #1D1F2A",
"Ma.	c #0D0F13",
"Na.	c #191E31",
"Oa.	c #111B23",
"Pa.	c #111723",
"Qa.	c #171C27",
"Ra.	c #0C0B15",
"Sa.	c #140715",
"Ta.	c #180614",
"Ua.	c #0F010C",
"Va.	c #150513",
"Wa.	c #14010E",
"Xa.	c #25071A",
"Ya.	c #13010C",
"Za.	c #190713",
"`a.	c #10020B",
" b.	c #090005",
".b.	c #12020D",
"+b.	c #250215",
"@b.	c #13030F",
"#b.	c #340D1E",
"$b.	c #361420",
"%b.	c #0B0405",
"&b.	c #301318",
"*b.	c #542931",
"=b.	c #39151A",
"-b.	c #160101",
";b.	c #561F22",
">b.	c #5F3633",
",b.	c #251813",
"'b.	c #120804",
")b.	c #4D2A28",
"!b.	c #64393A",
"~b.	c #2F1919",
"{b.	c #533B36",
"]b.	c #6B554C",
"^b.	c #36241F",
"/b.	c #0F0504",
"(b.	c #60423F",
"_b.	c #826368",
":b.	c #3B2B30",
"<b.	c #160808",
"[b.	c #7C5252",
"}b.	c #946868",
"|b.	c #291719",
"1b.	c #402729",
"2b.	c #A86968",
"3b.	c #835457",
"4b.	c #090406",
"5b.	c #100205",
"6b.	c #81555D",
"7b.	c #6F4551",
"8b.	c #15141E",
"9b.	c #1A1722",
"0b.	c #221926",
"ab.	c #291A29",
"bb.	c #2B1828",
"cb.	c #2A1727",
"db.	c #291523",
"eb.	c #271221",
"fb.	c #240F1E",
"gb.	c #210C1B",
"hb.	c #130918",
"ib.	c #100914",
"jb.	c #0D0A11",
"kb.	c #06070B",
"lb.	c #0B1717",
"mb.	c #1E3533",
"nb.	c #234641",
"ob.	c #1D4942",
"pb.	c #1E4B45",
"qb.	c #224745",
"rb.	c #1A3735",
"sb.	c #0C1C1D",
"tb.	c #000608",
"ub.	c #01070C",
"vb.	c #08171C",
"wb.	c #122B2E",
"xb.	c #1C363B",
"yb.	c #213B45",
"zb.	c #213C47",
"Ab.	c #1F3C43",
"Bb.	c #1C3B3E",
"Cb.	c #1A3435",
"Db.	c #14292B",
"Eb.	c #0D1E21",
"Fb.	c #071115",
"Gb.	c #02060C",
"Hb.	c #04040B",
"Ib.	c #080711",
"Jb.	c #0D0C19",
"Kb.	c #141321",
"Lb.	c #151626",
"Mb.	c #15192B",
"Nb.	c #181A2E",
"Ob.	c #1A1A30",
"Pb.	c #191830",
"Qb.	c #18172F",
"Rb.	c #16132A",
"Sb.	c #151228",
"Tb.	c #120E24",
"Ub.	c #100B21",
"Vb.	c #0B0214",
"Wb.	c #010107",
"Xb.	c #19031A",
"Yb.	c #180219",
"Zb.	c #1C041E",
"`b.	c #1D0223",
" c.	c #1D0425",
".c.	c #110217",
"+c.	c #16061C",
"@c.	c #140A22",
"#c.	c #130B16",
"$c.	c #0B0313",
"%c.	c #130B19",
"&c.	c #100918",
"*c.	c #090811",
"=c.	c #1E1930",
"-c.	c #1A2533",
";c.	c #0C0F1E",
">c.	c #151C27",
",c.	c #0E121C",
"'c.	c #150C1A",
")c.	c #140817",
"!c.	c #140512",
"~c.	c #12010D",
"{c.	c #170412",
"]c.	c #0C0008",
"^c.	c #150714",
"/c.	c #1E0112",
"(c.	c #190414",
"_c.	c #250317",
":c.	c #1B0110",
"<c.	c #2A071B",
"[c.	c #14020E",
"}c.	c #200513",
"|c.	c #0F010A",
"1c.	c #0F010D",
"2c.	c #260417",
"3c.	c #1B000F",
"4c.	c #12010A",
"5c.	c #3B0E22",
"6c.	c #3C1324",
"7c.	c #070404",
"8c.	c #361314",
"9c.	c #5A2A2D",
"0c.	c #341519",
"ac.	c #472828",
"bc.	c #643632",
"cc.	c #2E1311",
"dc.	c #180504",
"ec.	c #594139",
"fc.	c #2A1817",
"gc.	c #130908",
"hc.	c #5E3D39",
"ic.	c #704E4A",
"jc.	c #2C1C19",
"kc.	c #150D0F",
"lc.	c #754A4F",
"mc.	c #7F5758",
"nc.	c #221514",
"oc.	c #351F23",
"pc.	c #986665",
"qc.	c #6B4541",
"rc.	c #0C0809",
"sc.	c #865252",
"tc.	c #A06668",
"uc.	c #241F24",
"vc.	c #643B44",
"wc.	c #82515E",
"xc.	c #39343F",
"yc.	c #392E3E",
"zc.	c #37293B",
"Ac.	c #362337",
"Bc.	c #361E34",
"Cc.	c #351930",
"Dc.	c #33142D",
"Ec.	c #2F1129",
"Fc.	c #2C1027",
"Gc.	c #260E23",
"Hc.	c #220D20",
"Ic.	c #1D0B1D",
"Jc.	c #180C1D",
"Kc.	c #0F1018",
"Lc.	c #070B10",
"Mc.	c #01080C",
"Nc.	c #132224",
"Oc.	c #243E3D",
"Pc.	c #234643",
"Qc.	c #214847",
"Rc.	c #234749",
"Sc.	c #1D3E3E",
"Tc.	c #0B2421",
"Uc.	c #00090A",
"Vc.	c #000401",
"Wc.	c #030F0E",
"Xc.	c #0D2322",
"Yc.	c #173536",
"Zc.	c #1D4143",
"`c.	c #1E454A",
" d.	c #1C434A",
".d.	c #1C3D45",
"+d.	c #193439",
"@d.	c #122628",
"#d.	c #091918",
"$d.	c #030D09",
"%d.	c #000502",
"&d.	c #070F17",
"*d.	c #0D1720",
"=d.	c #111E28",
"-d.	c #17232F",
";d.	c #1E2735",
">d.	c #202636",
",d.	c #23273A",
"'d.	c #202539",
")d.	c #1A2435",
"!d.	c #171F30",
"~d.	c #151A2C",
"{d.	c #111627",
"]d.	c #0E1222",
"^d.	c #0A0D19",
"/d.	c #070914",
"(d.	c #05060F",
"_d.	c #09020B",
":d.	c #0B030F",
"<d.	c #0F0215",
"[d.	c #110214",
"}d.	c #1B0623",
"|d.	c #1C0225",
"1d.	c #190522",
"2d.	c #14071B",
"3d.	c #1A0921",
"4d.	c #0D0214",
"5d.	c #180A20",
"6d.	c #0C0715",
"7d.	c #110A1C",
"8d.	c #0D0713",
"9d.	c #0F0B1B",
"0d.	c #181620",
"ad.	c #0A0B18",
"bd.	c #1B222B",
"cd.	c #01060E",
"dd.	c #03060F",
"ed.	c #1A1D26",
"fd.	c #070610",
"gd.	c #170F1A",
"hd.	c #190111",
"id.	c #1F0315",
"jd.	c #1A0211",
"kd.	c #13000E",
"ld.	c #240517",
"md.	c #15000D",
"nd.	c #2D061B",
"od.	c #1A020C",
"pd.	c #210312",
"qd.	c #12040D",
"rd.	c #290416",
"sd.	c #22000D",
"td.	c #401421",
"ud.	c #38171E",
"vd.	c #36161A",
"wd.	c #5E2B2E",
"xd.	c #311917",
"yd.	c #4F2826",
"zd.	c #683333",
"Ad.	c #0E0A07",
"Bd.	c #4F2E2F",
"Cd.	c #63393A",
"Dd.	c #190F0D",
"Ed.	c #5F4543",
"Fd.	c #654942",
"Gd.	c #1A110B",
"Hd.	c #2E1B1B",
"Id.	c #81575A",
"Jd.	c #674347",
"Kd.	c #0A0303",
"Ld.	c #654547",
"Md.	c #8F6363",
"Nd.	c #2A1514",
"Od.	c #4D3537",
"Pd.	c #A2696E",
"Qd.	c #4D393D",
"Rd.	c #402630",
"Sd.	c #845565",
"Td.	c #3A2939",
"Ud.	c #392337",
"Vd.	c #371F35",
"Wd.	c #371B33",
"Xd.	c #371931",
"Yd.	c #36152E",
"Zd.	c #35132D",
"`d.	c #32112D",
" e.	c #2B0F28",
".e.	c #230E23",
"+e.	c #1E1122",
"@e.	c #1E1524",
"#e.	c #1C1625",
"$e.	c #151520",
"%e.	c #090D14",
"&e.	c #04080A",
"*e.	c #030305",
"=e.	c #031112",
"-e.	c #172E33",
";e.	c #234546",
">e.	c #204946",
",e.	c #204A46",
"'e.	c #1F423F",
")e.	c #112828",
"!e.	c #020D0E",
"~e.	c #091617",
"{e.	c #102C2F",
"]e.	c #1A3D40",
"^e.	c #1E4646",
"/e.	c #1E4546",
"(e.	c #193E41",
"_e.	c #163034",
":e.	c #122124",
"<e.	c #071315",
"[e.	c #010608",
"}e.	c #02080E",
"|e.	c #081117",
"1e.	c #0D1C24",
"2e.	c #11252F",
"3e.	c #192E37",
"4e.	c #1D323B",
"5e.	c #213740",
"6e.	c #213742",
"7e.	c #1D373D",
"8e.	c #1B353B",
"9e.	c #152E35",
"0e.	c #132930",
"ae.	c #0D212A",
"be.	c #0C1A22",
"ce.	c #0C1018",
"de.	c #070B12",
"ee.	c #05080E",
"fe.	c #010206",
"ge.	c #0C0314",
"he.	c #110319",
"ie.	c #090210",
"je.	c #1D0423",
"ke.	c #1A0221",
"le.	c #0A0010",
"me.	c #1A0723",
"ne.	c #0E0817",
"oe.	c #05010D",
"pe.	c #0F0713",
"qe.	c #120B18",
"re.	c #070510",
"se.	c #110F1A",
"te.	c #0C1119",
"ue.	c #141B22",
"ve.	c #0B0A14",
"we.	c #1A1723",
"xe.	c #09040D",
"ye.	c #150C17",
"ze.	c #0A0006",
"Ae.	c #17010F",
"Be.	c #150210",
"Ce.	c #180311",
"De.	c #11000A",
"Ee.	c #270318",
"Fe.	c #2E051A",
"Ge.	c #170510",
"He.	c #230215",
"Ie.	c #0E0008",
"Je.	c #17030E",
"Ke.	c #18010D",
"Le.	c #160607",
"Me.	c #411821",
"Ne.	c #41141E",
"Oe.	c #361C1B",
"Pe.	c #602C32",
"Qe.	c #3A1317",
"Re.	c #0D0705",
"Se.	c #502D28",
"Te.	c #5D3830",
"Ue.	c #21120F",
"Ve.	c #1B080A",
"We.	c #523232",
"Xe.	c #5A3838",
"Ye.	c #190F0C",
"Ze.	c #261616",
"`e.	c #684A46",
" f.	c #513C39",
".f.	c #090607",
"+f.	c #4E3334",
"@f.	c #815C61",
"#f.	c #372426",
"$f.	c #2C191C",
"%f.	c #8A6366",
"&f.	c #593939",
"*f.	c #28181A",
"=f.	c #925F66",
"-f.	c #6A4C52",
";f.	c #291720",
">f.	c #805266",
",f.	c #3C1F36",
"'f.	c #3B1D34",
")f.	c #391B32",
"!f.	c #381930",
"~f.	c #38182F",
"{f.	c #35142C",
"]f.	c #32112A",
"^f.	c #2A0F27",
"/f.	c #1D1C28",
"(f.	c #1C202A",
"_f.	c #171C29",
":f.	c #0F131E",
"<f.	c #080C12",
"[f.	c #071C1B",
"}f.	c #183A3B",
"|f.	c #1F474B",
"1f.	c #1C4848",
"2f.	c #1D4745",
"3f.	c #143430",
"4f.	c #041411",
"5f.	c #00070A",
"6f.	c #051B1F",
"7f.	c #143138",
"8f.	c #213D48",
"9f.	c #21454E",
"0f.	c #1A3F44",
"af.	c #123235",
"bf.	c #0B2123",
"cf.	c #030E12",
"df.	c #01070F",
"ef.	c #07121A",
"ff.	c #091E24",
"gf.	c #112B2F",
"hf.	c #183537",
"if.	c #1B3C3D",
"jf.	c #1D4241",
"kf.	c #1E3F41",
"lf.	c #203940",
"mf.	c #1D353B",
"nf.	c #182C32",
"of.	c #13262A",
"pf.	c #0C1C20",
"qf.	c #0D1119",
"rf.	c #090B14",
"sf.	c #01050D",
"tf.	c #02020B",
"uf.	c #060411",
"vf.	c #0A0717",
"wf.	c #0C061A",
"xf.	c #0E061D",
"yf.	c #10071F",
"zf.	c #120721",
"Af.	c #120521",
"Bf.	c #11051F",
"Cf.	c #11051C",
"Df.	c #10051A",
"Ef.	c #0D0216",
"Ff.	c #0E0117",
"Gf.	c #0D0016",
"Hf.	c #1D0221",
"If.	c #1C0221",
"Jf.	c #130216",
"Kf.	c #1B0625",
"Lf.	c #110312",
"Mf.	c #0D0516",
"Nf.	c #100A15",
"Of.	c #0F071B",
"Pf.	c #0D0911",
"Qf.	c #0B070F",
"Rf.	c #07030C",
"Sf.	c #100A17",
"Tf.	c #15101C",
"Uf.	c #0B0713",
"Vf.	c #13151E",
"Wf.	c #0F0F19",
"Xf.	c #14111C",
"Yf.	c #130F1A",
"Zf.	c #0E0611",
"`f.	c #190212",
" g.	c #200214",
".g.	c #14000C",
"+g.	c #160413",
"@g.	c #200111",
"#g.	c #1F0516",
"$g.	c #2A0116",
"%g.	c #100009",
"&g.	c #270616",
"*g.	c #230213",
"=g.	c #240112",
"-g.	c #0D0007",
";g.	c #160510",
">g.	c #2A0617",
",g.	c #1C000A",
"'g.	c #1B070A",
")g.	c #4E1725",
"!g.	c #47111E",
"~g.	c #42191E",
"{g.	c #682C2D",
"]g.	c #31150F",
"^g.	c #0F0906",
"/g.	c #513129",
"(g.	c #623336",
"_g.	c #220B0B",
":g.	c #1B100F",
"<g.	c #593335",
"[g.	c #4C3431",
"}g.	c #3A2224",
"|g.	c #684B4F",
"1g.	c #382729",
"2g.	c #150D0B",
"3g.	c #654F50",
"4g.	c #674A4E",
"5g.	c #0D0606",
"6g.	c #694B4D",
"7g.	c #7A575B",
"8g.	c #0F0102",
"9g.	c #784E55",
"0g.	c #7B5962",
"ag.	c #16080D",
"bg.	c #794E64",
"cg.	c #3C1C33",
"dg.	c #3A1B31",
"eg.	c #37192E",
"fg.	c #32152B",
"gg.	c #2E1227",
"hg.	c #290D22",
"ig.	c #240C20",
"jg.	c #211627",
"kg.	c #20212D",
"lg.	c #1F292F",
"mg.	c #18262B",
"ng.	c #0A1219",
"og.	c #02060A",
"pg.	c #000506",
"qg.	c #0D2224",
"rg.	c #1C3E40",
"sg.	c #1F4649",
"tg.	c #20474B",
"ug.	c #0B1F23",
"vg.	c #00060A",
"wg.	c #0B181D",
"xg.	c #143234",
"yg.	c #194244",
"zg.	c #194248",
"Ag.	c #13343F",
"Bg.	c #102026",
"Cg.	c #051013",
"Dg.	c #041119",
"Eg.	c #0E212A",
"Fg.	c #162D38",
"Gg.	c #1D3844",
"Hg.	c #1F3D49",
"Ig.	c #1D3D43",
"Jg.	c #1B383D",
"Kg.	c #172E35",
"Lg.	c #14252D",
"Mg.	c #060F18",
"Ng.	c #030912",
"Og.	c #070D14",
"Pg.	c #0A1115",
"Qg.	c #0D171F",
"Rg.	c #0F1D28",
"Sg.	c #12202A",
"Tg.	c #14212B",
"Ug.	c #16232B",
"Vg.	c #18252D",
"Wg.	c #17272E",
"Xg.	c #172730",
"Yg.	c #182632",
"Zg.	c #182433",
"`g.	c #172331",
" h.	c #162031",
".h.	c #171F31",
"+h.	c #161D32",
"@h.	c #151C30",
"#h.	c #18182E",
"$h.	c #18152E",
"%h.	c #18142E",
"&h.	c #16122E",
"*h.	c #16102F",
"=h.	c #150F2B",
"-h.	c #141026",
";h.	c #130A25",
">h.	c #130925",
",h.	c #140825",
"'h.	c #120720",
")h.	c #11071E",
"!h.	c #10061D",
"~h.	c #0E051A",
"{h.	c #0D0417",
"]h.	c #0E0319",
"^h.	c #0E0118",
"/h.	c #0B0211",
"(h.	c #1B031F",
"_h.	c #1D0121",
":h.	c #19041D",
"<h.	c #1D0526",
"[h.	c #18061F",
"}h.	c #0F0A1B",
"|h.	c #0A0612",
"1h.	c #0F0B15",
"2h.	c #0C0612",
"3h.	c #140E1A",
"4h.	c #04020D",
"5h.	c #191722",
"6h.	c #0A0812",
"7h.	c #18131E",
"8h.	c #0D0710",
"9h.	c #0F030F",
"0h.	c #180211",
"ah.	c #0C0610",
"bh.	c #1A000F",
"ch.	c #1C0314",
"dh.	c #190211",
"eh.	c #1C0515",
"fh.	c #280117",
"gh.	c #0F0109",
"hh.	c #340319",
"ih.	c #2A0417",
"jh.	c #210512",
"kh.	c #1D0511",
"lh.	c #230313",
"mh.	c #340417",
"nh.	c #1B0109",
"oh.	c #1E090D",
"ph.	c #4C2029",
"qh.	c #3B151C",
"rh.	c #050201",
"sh.	c #44211C",
"th.	c #6B2D2F",
"uh.	c #310F10",
"vh.	c #200907",
"wh.	c #612F31",
"xh.	c #52312E",
"yh.	c #0E0A06",
"zh.	c #301516",
"Ah.	c #593B3B",
"Bh.	c #3A2826",
"Ch.	c #050100",
"Dh.	c #4D353A",
"Eh.	c #5E4647",
"Fh.	c #190E0E",
"Gh.	c #342B2A",
"Hh.	c #78585E",
"Ih.	c #352326",
"Jh.	c #3E2A2C",
"Kh.	c #835F66",
"Lh.	c #2E181D",
"Mh.	c #563940",
"Nh.	c #865D69",
"Oh.	c #26121B",
"Ph.	c #6F4760",
"Qh.	c #230C1D",
"Rh.	c #250C1E",
"Sh.	c #210A1C",
"Th.	c #1D091A",
"Uh.	c #1B0C1B",
"Vh.	c #1A0D1B",
"Wh.	c #1C1321",
"Xh.	c #201C2A",
"Yh.	c #242530",
"Zh.	c #252D35",
"`h.	c #1E2C30",
" i.	c #112424",
".i.	c #0C1B1A",
"+i.	c #020A0B",
"@i.	c #01080B",
"#i.	c #0F282C",
"$i.	c #1F4145",
"%i.	c #1E4549",
"&i.	c #214146",
"*i.	c #162D31",
"=i.	c #030F10",
"-i.	c #01020B",
";i.	c #173038",
">i.	c #1D3F48",
",i.	c #1B3B44",
"'i.	c #122D34",
")i.	c #06181F",
"!i.	c #00070D",
"~i.	c #01090F",
"{i.	c #06161F",
"]i.	c #162633",
"^i.	c #1D3442",
"/i.	c #1C3C49",
"(i.	c #1D3945",
"_i.	c #19313C",
":i.	c #12252F",
"<i.	c #091821",
"[i.	c #070B14",
"}i.	c #02030C",
"|i.	c #020B18",
"1i.	c #091421",
"2i.	c #0E1B29",
"3i.	c #152231",
"4i.	c #1B2A39",
"5i.	c #183142",
"6i.	c #183443",
"7i.	c #1A3642",
"8i.	c #1C3640",
"9i.	c #1C353B",
"0i.	c #1C333C",
"ai.	c #1E2F3E",
"bi.	c #1B2C39",
"ci.	c #1B2B37",
"di.	c #1B2934",
"ei.	c #192731",
"fi.	c #16232F",
"gi.	c #17222E",
"hi.	c #17212C",
"ii.	c #16202B",
"ji.	c #171F2B",
"ki.	c #171E2C",
"li.	c #171C2C",
"mi.	c #161B2D",
"ni.	c #191B2C",
"oi.	c #18192B",
"pi.	c #19172B",
"qi.	c #18152B",
"ri.	c #17142B",
"si.	c #161224",
"ti.	c #140F23",
"ui.	c #130A22",
"vi.	c #120821",
"wi.	c #0A0115",
"xi.	c #09030C",
"yi.	c #190320",
"zi.	c #14021B",
"Ai.	c #19031F",
"Bi.	c #0B0010",
"Ci.	c #160618",
"Di.	c #15091A",
"Ei.	c #0B0312",
"Fi.	c #0E0714",
"Gi.	c #120C18",
"Hi.	c #17121E",
"Ii.	c #09040E",
"Ji.	c #08020C",
"Ki.	c #150614",
"Li.	c #170614",
"Mi.	c #12020E",
"Ni.	c #160412",
"Oi.	c #13000B",
"Pi.	c #1C0414",
"Qi.	c #0E000B",
"Ri.	c #220618",
"Si.	c #19020F",
"Ti.	c #350620",
"Ui.	c #240515",
"Vi.	c #200110",
"Wi.	c #0A0004",
"Xi.	c #280515",
"Yi.	c #320818",
"Zi.	c #140106",
"`i.	c #220E0F",
" j.	c #53232A",
".j.	c #3A151A",
"+j.	c #0D0401",
"@j.	c #502327",
"#j.	c #642F31",
"$j.	c #250D0B",
"%j.	c #26100D",
"&j.	c #5C3A32",
"*j.	c #472A25",
"=j.	c #391E21",
"-j.	c #5A393B",
";j.	c #261A17",
">j.	c #1E1212",
",j.	c #5E4442",
"'j.	c #443031",
")j.	c #0D0909",
"!j.	c #67494E",
"~j.	c #5B4046",
"{j.	c #1A0D10",
"]j.	c #7A5561",
"^j.	c #483136",
"/j.	c #3D2630",
"(j.	c #8A5A69",
"_j.	c #331C25",
":j.	c #643F5A",
"<j.	c #130312",
"[j.	c #170C1A",
"}j.	c #18131F",
"|j.	c #222630",
"1j.	c #273137",
"2j.	c #233336",
"3j.	c #1A2C2F",
"4j.	c #0F2125",
"5j.	c #030C0D",
"6j.	c #020B11",
"7j.	c #182B33",
"8j.	c #224249",
"9j.	c #1C464C",
"0j.	c #153E43",
"aj.	c #0A1E25",
"bj.	c #04101D",
"cj.	c #122B3B",
"dj.	c #1A404D",
"ej.	c #143F4D",
"fj.	c #0C2B3A",
"gj.	c #04121B",
"hj.	c #06111B",
"ij.	c #183742",
"jj.	c #183E4D",
"kj.	c #113A4D",
"lj.	c #0C2939",
"mj.	c #091A22",
"nj.	c #010C12",
"oj.	c #000307",
"pj.	c #000609",
"qj.	c #020F14",
"rj.	c #0A1B23",
"sj.	c #0D2531",
"tj.	c #112E3C",
"uj.	c #183243",
"vj.	c #1D3245",
"wj.	c #1B3145",
"xj.	c #182E43",
"yj.	c #12293E",
"zj.	c #0C2238",
"Aj.	c #0B1B2C",
"Bj.	c #081424",
"Cj.	c #050E1E",
"Dj.	c #010513",
"Ej.	c #05030D",
"Fj.	c #08030F",
"Gj.	c #080210",
"Hj.	c #0C0113",
"Ij.	c #17031F",
"Jj.	c #090109",
"Kj.	c #17021B",
"Lj.	c #1E0126",
"Mj.	c #170120",
"Nj.	c #15071B",
"Oj.	c #13071E",
"Pj.	c #05000D",
"Qj.	c #14091B",
"Rj.	c #0E0415",
"Sj.	c #110714",
"Tj.	c #110816",
"Uj.	c #140C1A",
"Vj.	c #0F0712",
"Wj.	c #11000B",
"Xj.	c #170210",
"Yj.	c #220315",
"Zj.	c #230315",
"`j.	c #1C0111",
" k.	c #12000D",
".k.	c #2D0217",
"+k.	c #19000C",
"@k.	c #300B1E",
"#k.	c #23020F",
"$k.	c #18000A",
"%k.	c #2F0316",
"&k.	c #1C030E",
"*k.	c #0E0107",
"=k.	c #2D0817",
"-k.	c #380B1A",
";k.	c #130105",
">k.	c #2F0F11",
",k.	c #5D2329",
"'k.	c #381116",
")k.	c #100808",
"!k.	c #532D29",
"~k.	c #602E2E",
"{k.	c #17090A",
"]k.	c #321915",
"^k.	c #643736",
"/k.	c #381D18",
"(k.	c #0F0203",
"_k.	c #49292C",
":k.	c #4A3535",
"<k.	c #3B2825",
"[k.	c #5D4347",
"}k.	c #1D1214",
"|k.	c #422D2F",
"1k.	c #6C4F57",
"2k.	c #1B1013",
"3k.	c #63424E",
"4k.	c #5F414A",
"5k.	c #291820",
"6k.	c #825466",
"7k.	c #3F2531",
"8k.	c #5B3A56",
"9k.	c #090409",
"0k.	c #140815",
"ak.	c #160516",
"bk.	c #190D1C",
"ck.	c #1B1B27",
"dk.	c #20252F",
"ek.	c #293338",
"fk.	c #263B3C",
"gk.	c #1D3637",
"hk.	c #172B2F",
"ik.	c #050F17",
"jk.	c #030E11",
"kk.	c #18303B",
"lk.	c #1E4050",
"mk.	c #1C424E",
"nk.	c #133239",
"ok.	c #021417",
"pk.	c #010910",
"qk.	c #0E2332",
"rk.	c #1C3C52",
"sk.	c #1C3D53",
"tk.	c #0F2A3A",
"uk.	c #02101C",
"vk.	c #00090F",
"wk.	c #091F2E",
"xk.	c #15334D",
"yk.	c #1C3C56",
"zk.	c #17384D",
"Ak.	c #0F2939",
"Bk.	c #061621",
"Ck.	c #00050E",
"Dk.	c #081124",
"Ek.	c #0E1D36",
"Fk.	c #142844",
"Gk.	c #162F51",
"Hk.	c #173152",
"Ik.	c #172E4B",
"Jk.	c #142742",
"Kk.	c #0D1E37",
"Lk.	c #0A1527",
"Mk.	c #020411",
"Nk.	c #040715",
"Ok.	c #070A19",
"Pk.	c #080C20",
"Qk.	c #0A0D27",
"Rk.	c #0C102A",
"Sk.	c #0E122C",
"Tk.	c #0F142A",
"Uk.	c #10162A",
"Vk.	c #10162B",
"Wk.	c #0E1328",
"Xk.	c #0D1227",
"Yk.	c #0C1026",
"Zk.	c #0C0E22",
"`k.	c #0B0D1E",
" l.	c #080C18",
".l.	c #050913",
"+l.	c #03080E",
"@l.	c #020407",
"#l.	c #010305",
"$l.	c #0B0212",
"%l.	c #0C0012",
"&l.	c #0F0016",
"*l.	c #170322",
"=l.	c #170321",
"-l.	c #0C010F",
";l.	c #14071E",
">l.	c #080012",
",l.	c #160A19",
"'l.	c #160915",
")l.	c #110310",
"!l.	c #1D0512",
"~l.	c #10010A",
"{l.	c #1A0411",
"]l.	c #1F0312",
"^l.	c #280516",
"/l.	c #18020E",
"(l.	c #280417",
"_l.	c #18000B",
":l.	c #1A0512",
"<l.	c #3F041D",
"[l.	c #1C010D",
"}l.	c #19010A",
"|l.	c #2A0512",
"1l.	c #1F030A",
"2l.	c #38081A",
"3l.	c #350F1A",
"4l.	c #0E0103",
"5l.	c #3B1414",
"6l.	c #602831",
"7l.	c #2F0D16",
"8l.	c #1C0B0B",
"9l.	c #632F2E",
"0l.	c #542A25",
"al.	c #0B0403",
"bl.	c #442322",
"cl.	c #5F392C",
"dl.	c #20130C",
"el.	c #1C110E",
"fl.	c #523438",
"gl.	c #372324",
"hl.	c #130C0A",
"il.	c #583D40",
"jl.	c #3E2B2D",
"kl.	c #654C56",
"ll.	c #3E2731",
"ml.	c #463139",
"nl.	c #704856",
"ol.	c #090103",
"pl.	c #180B12",
"ql.	c #745166",
"rl.	c #412A36",
"sl.	c #553955",
"tl.	c #100A12",
"ul.	c #0F070F",
"vl.	c #140A15",
"wl.	c #19151F",
"xl.	c #1C222A",
"yl.	c #253439",
"zl.	c #2A3E44",
"Al.	c #263A44",
"Bl.	c #1D2E39",
"Cl.	c #0A1318",
"Dl.	c #02121D",
"El.	c #173544",
"Fl.	c #244151",
"Gl.	c #184250",
"Hl.	c #052B36",
"Il.	c #031C22",
"Jl.	c #0F3B4C",
"Kl.	c #1C4456",
"Ll.	c #18303E",
"Ml.	c #0A111E",
"Nl.	c #0D2B3E",
"Ol.	c #163F5A",
"Pl.	c #1C3E56",
"Ql.	c #182C3E",
"Rl.	c #0A1721",
"Sl.	c #000510",
"Tl.	c #040E1D",
"Ul.	c #0E1B33",
"Vl.	c #172747",
"Wl.	c #1C2F4F",
"Xl.	c #1B2E4F",
"Yl.	c #162A4B",
"Zl.	c #0D1E3F",
"`l.	c #020821",
" m.	c #000315",
".m.	c #090D2C",
"+m.	c #0D1031",
"@m.	c #101435",
"#m.	c #15183B",
"$m.	c #161C43",
"%m.	c #151D44",
"&m.	c #161D45",
"*m.	c #171D47",
"=m.	c #161D47",
"-m.	c #161C44",
";m.	c #151C41",
">m.	c #151C42",
",m.	c #151C40",
"'m.	c #161D40",
")m.	c #171E41",
"!m.	c #181F42",
"~m.	c #192044",
"{m.	c #1C2244",
"]m.	c #1E2344",
"^m.	c #1F2444",
"/m.	c #1F2344",
"(m.	c #1D2243",
"_m.	c #1D2143",
":m.	c #1B1F45",
"<m.	c #1A1D40",
"[m.	c #181B38",
"}m.	c #15172E",
"|m.	c #111325",
"1m.	c #0D1020",
"2m.	c #060815",
"3m.	c #06040F",
"4m.	c #0C0212",
"5m.	c #0E0115",
"6m.	c #150417",
"7m.	c #10011A",
"8m.	c #170320",
"9m.	c #13081B",
"0m.	c #0D0310",
"am.	c #160A18",
"bm.	c #0D020C",
"cm.	c #160514",
"dm.	c #150512",
"em.	c #11040E",
"fm.	c #1B0815",
"gm.	c #120008",
"hm.	c #1A0814",
"im.	c #1A020F",
"jm.	c #230717",
"km.	c #090004",
"lm.	c #170310",
"mm.	c #250616",
"nm.	c #15000A",
"om.	c #220615",
"pm.	c #39061E",
"qm.	c #23000E",
"rm.	c #2D0617",
"sm.	c #12050D",
"tm.	c #1C0008",
"um.	c #440C1E",
"vm.	c #3A0D17",
"wm.	c #48161E",
"xm.	c #64272F",
"ym.	c #1B0F0A",
"zm.	c #30120F",
"Am.	c #623932",
"Bm.	c #422222",
"Cm.	c #50332B",
"Dm.	c #4D2D2B",
"Em.	c #110302",
"Fm.	c #322121",
"Gm.	c #4B3638",
"Hm.	c #3C2729",
"Im.	c #4F3D40",
"Jm.	c #100709",
"Km.	c #090102",
"Lm.	c #523E46",
"Mm.	c #2F1D26",
"Nm.	c #734D5C",
"Om.	c #160B0F",
"Pm.	c #0F030A",
"Qm.	c #6C4A5F",
"Rm.	c #422B39",
"Sm.	c #4F3552",
"Tm.	c #0B070B",
"Um.	c #0A070B",
"Vm.	c #121117",
"Wm.	c #151C23",
"Xm.	c #213036",
"Ym.	c #294146",
"Zm.	c #243F48",
"`m.	c #223544",
" n.	c #0E1827",
".n.	c #05141F",
"+n.	c #17394F",
"@n.	c #1D435B",
"#n.	c #1B3C4D",
"$n.	c #081B26",
"%n.	c #030C10",
"&n.	c #152C3B",
"*n.	c #21445D",
"=n.	c #1C3A50",
"-n.	c #081A2A",
";n.	c #061120",
">n.	c #132E45",
",n.	c #1B435F",
"'n.	c #1D3A51",
")n.	c #0F2231",
"!n.	c #0B111C",
"~n.	c #162437",
"{n.	c #1B324C",
"]n.	c #183454",
"^n.	c #162C4C",
"/n.	c #0F1E39",
"(n.	c #000509",
"_n.	c #030A13",
":n.	c #09101F",
"<n.	c #10152C",
"[n.	c #151839",
"}n.	c #191942",
"|n.	c #191C3F",
"1n.	c #161D35",
"2n.	c #131934",
"3n.	c #101532",
"4n.	c #0D0F30",
"5n.	c #090B2D",
"6n.	c #080920",
"7n.	c #06071C",
"8n.	c #030419",
"9n.	c #020317",
"0n.	c #020110",
"an.	c #040516",
"bn.	c #03061B",
"cn.	c #070920",
"dn.	c #0B0C26",
"en.	c #0E102C",
"fn.	c #111331",
"gn.	c #14163C",
"hn.	c #181A42",
"in.	c #1B1D47",
"jn.	c #1D1F4A",
"kn.	c #1E1F4D",
"ln.	c #1F214A",
"mn.	c #1E2142",
"nn.	c #1D1E3F",
"on.	c #1B1B3B",
"pn.	c #181733",
"qn.	c #17142F",
"rn.	c #141127",
"sn.	c #0F0C20",
"tn.	c #0D091B",
"un.	c #0A0516",
"vn.	c #060310",
"wn.	c #060311",
"xn.	c #080211",
"yn.	c #090312",
"zn.	c #100116",
"An.	c #15041D",
"Bn.	c #1A011F",
"Cn.	c #160218",
"Dn.	c #120417",
"En.	c #130817",
"Fn.	c #0F0412",
"Gn.	c #130914",
"Hn.	c #170714",
"In.	c #0E030E",
"Jn.	c #180411",
"Kn.	c #1F0313",
"Ln.	c #0D0006",
"Mn.	c #0D020A",
"Nn.	c #280315",
"On.	c #220312",
"Pn.	c #290417",
"Qn.	c #210413",
"Rn.	c #270415",
"Sn.	c #100007",
"Tn.	c #2F041B",
"Un.	c #31071E",
"Vn.	c #10000B",
"Wn.	c #210211",
"Xn.	c #2F0518",
"Yn.	c #19010C",
"Zn.	c #200109",
"`n.	c #471320",
" o.	c #301216",
".o.	c #160103",
"+o.	c #54221F",
"@o.	c #592B27",
"#o.	c #130706",
"$o.	c #401D19",
"%o.	c #69383A",
"&o.	c #2B1512",
"*o.	c #251313",
"=o.	c #5D3436",
"-o.	c #371918",
";o.	c #110B08",
">o.	c #443235",
",o.	c #332024",
"'o.	c #1D0E10",
")o.	c #523D43",
"!o.	c #2B1C20",
"~o.	c #382930",
"{o.	c #5E424E",
"]o.	c #1A0F17",
"^o.	c #6C4A5B",
"/o.	c #634057",
"(o.	c #412B3A",
"_o.	c #4C3150",
":o.	c #080513",
"<o.	c #0B0B10",
"[o.	c #0E151C",
"}o.	c #182930",
"|o.	c #284147",
"1o.	c #26424F",
"2o.	c #253C4C",
"3o.	c #051521",
"4o.	c #1E394C",
"5o.	c #23455D",
"6o.	c #17354B",
"7o.	c #031320",
"8o.	c #091C24",
"9o.	c #1D4350",
"0o.	c #23445C",
"ao.	c #132544",
"bo.	c #040417",
"co.	c #050E20",
"do.	c #193043",
"eo.	c #234459",
"fo.	c #1B3A4E",
"go.	c #0C1A29",
"ho.	c #040D24",
"io.	c #0D2849",
"jo.	c #12365C",
"ko.	c #173458",
"lo.	c #142543",
"mo.	c #0B122B",
"no.	c #090C23",
"oo.	c #1A1642",
"po.	c #1E184B",
"qo.	c #151B44",
"ro.	c #0C1032",
"so.	c #090A29",
"to.	c #050521",
"uo.	c #030219",
"vo.	c #040114",
"wo.	c #060117",
"xo.	c #09021A",
"yo.	c #0C031D",
"zo.	c #100320",
"Ao.	c #120322",
"Bo.	c #140523",
"Co.	c #160723",
"Do.	c #190823",
"Eo.	c #1A0924",
"Fo.	c #1A0A24",
"Go.	c #190923",
"Ho.	c #160622",
"Io.	c #140521",
"Jo.	c #02000D",
"Ko.	c #050713",
"Lo.	c #0B0B1C",
"Mo.	c #101129",
"No.	c #141436",
"Oo.	c #191738",
"Po.	c #1D1A3B",
"Qo.	c #201C3E",
"Ro.	c #211B3E",
"So.	c #211C3D",
"To.	c #201B3B",
"Uo.	c #20193A",
"Vo.	c #1E1636",
"Wo.	c #1D1333",
"Xo.	c #1A112D",
"Yo.	c #180E27",
"Zo.	c #140A21",
"`o.	c #12061B",
" p.	c #0D0319",
".p.	c #0C0218",
"+p.	c #0C0217",
"@p.	c #0E0215",
"#p.	c #0F0216",
"$p.	c #100216",
"%p.	c #17001D",
"&p.	c #1B0120",
"*p.	c #120115",
"=p.	c #15081A",
"-p.	c #0F0413",
";p.	c #130512",
">p.	c #160513",
",p.	c #160714",
"'p.	c #0B0108",
")p.	c #1C0412",
"!p.	c #0B0004",
"~p.	c #1C000D",
"{p.	c #1C0815",
"]p.	c #120007",
"^p.	c #220314",
"/p.	c #1E0514",
"(p.	c #230415",
"_p.	c #210414",
":p.	c #0F000A",
"<p.	c #37031B",
"[p.	c #330319",
"}p.	c #310012",
"|p.	c #340418",
"1p.	c #0B0207",
"2p.	c #26070C",
"3p.	c #511B27",
"4p.	c #340C14",
"5p.	c #1A0905",
"6p.	c #65282C",
"7p.	c #4E2625",
"8p.	c #130202",
"9p.	c #532C28",
"0p.	c #57372F",
"ap.	c #140704",
"bp.	c #3F2220",
"cp.	c #543130",
"dp.	c #180807",
"ep.	c #2A1E1F",
"fp.	c #442F35",
"gp.	c #0F0707",
"hp.	c #422E35",
"ip.	c #412B34",
"jp.	c #1F181B",
"kp.	c #644651",
"lp.	c #0B060E",
"mp.	c #644659",
"np.	c #281824",
"op.	c #5C3B52",
"pp.	c #3E2938",
"qp.	c #462D4C",
"rp.	c #02050F",
"sp.	c #07040C",
"tp.	c #0D0E17",
"up.	c #131F28",
"vp.	c #243B45",
"wp.	c #274751",
"xp.	c #264156",
"yp.	c #122139",
"zp.	c #000508",
"Ap.	c #0B162B",
"Bp.	c #1C3C5B",
"Cp.	c #264663",
"Dp.	c #172E45",
"Ep.	c #000912",
"Fp.	c #112F42",
"Gp.	c #284968",
"Hp.	c #1B3657",
"Ip.	c #051025",
"Jp.	c #000A17",
"Kp.	c #162D44",
"Lp.	c #274462",
"Mp.	c #203753",
"Np.	c #0C1A36",
"Op.	c #1B2F55",
"Pp.	c #21365A",
"Qp.	c #152847",
"Rp.	c #05142A",
"Sp.	c #00031A",
"Tp.	c #000019",
"Up.	c #040622",
"Vp.	c #0C1530",
"Wp.	c #141C3E",
"Xp.	c #171D44",
"Yp.	c #13193C",
"Zp.	c #0F1231",
"`p.	c #090925",
" q.	c #080217",
".q.	c #0D031B",
"+q.	c #170927",
"@q.	c #1B092C",
"#q.	c #1B092B",
"$q.	c #1B0828",
"%q.	c #1A0726",
"&q.	c #160624",
"*q.	c #140422",
"=q.	c #13041F",
"-q.	c #10031B",
";q.	c #100419",
">q.	c #12061F",
",q.	c #140721",
"'q.	c #160A24",
")q.	c #180C25",
"!q.	c #1B0B28",
"~q.	c #1F0A2C",
"{q.	c #200B2C",
"]q.	c #200B2D",
"^q.	c #1E092B",
"/q.	c #1F092B",
"(q.	c #180627",
"_q.	c #120420",
":q.	c #08000E",
"<q.	c #040210",
"[q.	c #0A0718",
"}q.	c #141028",
"|q.	c #1B1532",
"1q.	c #1F1637",
"2q.	c #201538",
"3q.	c #201539",
"4q.	c #211437",
"5q.	c #211235",
"6q.	c #201030",
"7q.	c #1D0E2C",
"8q.	c #1A0928",
"9q.	c #190726",
"0q.	c #13041E",
"aq.	c #100115",
"bq.	c #110018",
"cq.	c #1D0023",
"dq.	c #1D0022",
"eq.	c #140618",
"fq.	c #11030E",
"gq.	c #1B0411",
"hq.	c #0C0006",
"iq.	c #0D0009",
"jq.	c #1E0815",
"kq.	c #1A010D",
"lq.	c #1C0310",
"mq.	c #2A0316",
"nq.	c #250213",
"oq.	c #290618",
"pq.	c #220212",
"qq.	c #1C0009",
"rq.	c #3D0419",
"sq.	c #300514",
"tq.	c #0E0003",
"uq.	c #310213",
"vq.	c #310616",
"wq.	c #120105",
"xq.	c #370C15",
"yq.	c #5B1D26",
"zq.	c #220D0D",
"Aq.	c #300E11",
"Bq.	c #6D3332",
"Cq.	c #3E1817",
"Dq.	c #200E08",
"Eq.	c #653A31",
"Fq.	c #4A2421",
"Gq.	c #150B06",
"Hq.	c #51322E",
"Iq.	c #371E1E",
"Jq.	c #100A0C",
"Kq.	c #412E35",
"Lq.	c #23191A",
"Mq.	c #301B23",
"Nq.	c #4D333E",
"Oq.	c #080508",
"Pq.	c #0C090A",
"Qq.	c #5F3E4A",
"Rq.	c #241920",
"Sq.	c #5A3E52",
"Tq.	c #2E1C2B",
"Uq.	c #56374F",
"Vq.	c #3A2636",
"Wq.	c #412948",
"Xq.	c #0C131C",
"Yq.	c #1E3341",
"Zq.	c #284659",
"`q.	c #25445D",
" r.	c #142A43",
".r.	c #0B192A",
"+r.	c #21405E",
"@r.	c #254664",
"#r.	c #132742",
"$r.	c #091425",
"%r.	c #1F4161",
"&r.	c #214C68",
"*r.	c #132138",
"=r.	c #102535",
"-r.	c #254460",
";r.	c #243E5B",
">r.	c #0A192D",
",r.	c #020419",
"'r.	c #141F42",
")r.	c #1C355C",
"!r.	c #1C325A",
"~r.	c #0C1B3C",
"{r.	c #010619",
"]r.	c #111630",
"^r.	c #1A1D3A",
"/r.	c #181C3D",
"(r.	c #0D1336",
"_r.	c #050A2A",
":r.	c #01011D",
"<r.	c #010018",
"[r.	c #170A24",
"}r.	c #11031B",
"|r.	c #0F0009",
"1r.	c #0F0108",
"2r.	c #100209",
"3r.	c #10020D",
"4r.	c #11020D",
"5r.	c #160628",
"6r.	c #1A092E",
"7r.	c #1E0C31",
"8r.	c #1E0D32",
"9r.	c #1C0C30",
"0r.	c #1D092E",
"ar.	c #1C052C",
"br.	c #0A0118",
"cr.	c #0C0816",
"dr.	c #100D20",
"er.	c #120F29",
"fr.	c #17122C",
"gr.	c #1B112C",
"hr.	c #1F0F2A",
"ir.	c #210D2D",
"jr.	c #1E0A2B",
"kr.	c #1C0A28",
"lr.	c #160721",
"mr.	c #0E0014",
"nr.	c #1A0020",
"or.	c #150518",
"pr.	c #130019",
"qr.	c #16061B",
"rr.	c #0B040D",
"sr.	c #150519",
"tr.	c #130315",
"ur.	c #0F0612",
"vr.	c #130613",
"wr.	c #180612",
"xr.	c #1C0210",
"yr.	c #0E030C",
"zr.	c #270516",
"Ar.	c #0E0006",
"Br.	c #2D0618",
"Cr.	c #13050E",
"Dr.	c #19010D",
"Er.	c #280617",
"Fr.	c #230008",
"Gr.	c #420418",
"Hr.	c #2B0312",
"Ir.	c #100008",
"Jr.	c #340618",
"Kr.	c #330816",
"Lr.	c #120001",
"Mr.	c #401717",
"Nr.	c #582422",
"Or.	c #1F0403",
"Pr.	c #431F1C",
"Qr.	c #6C362C",
"Rr.	c #200E09",
"Sr.	c #421E1C",
"Tr.	c #693A36",
"Ur.	c #200E0E",
"Vr.	c #331F19",
"Wr.	c #4A2E2A",
"Xr.	c #150604",
"Yr.	c #352529",
"Zr.	c #4B323D",
"`r.	c #180E15",
" s.	c #4D3845",
".s.	c #32202D",
"+s.	c #4E394B",
"@s.	c #321E33",
"#s.	c #4E3547",
"$s.	c #342231",
"%s.	c #3A2645",
"&s.	c #040305",
"*s.	c #172836",
"=s.	c #25455A",
"-s.	c #26465D",
";s.	c #193147",
">s.	c #020914",
",s.	c #0F1B33",
"'s.	c #274362",
")s.	c #234667",
"!s.	c #111F34",
"~s.	c #14243D",
"{s.	c #2D4C68",
"]s.	c #223A55",
"^s.	c #050C22",
"/s.	c #061C1F",
"(s.	c #263F56",
"_s.	c #2C406A",
":s.	c #111E38",
"<s.	c #000208",
"[s.	c #010616",
"}s.	c #162149",
"|s.	c #233860",
"1s.	c #1C2F49",
"2s.	c #081326",
"3s.	c #000419",
"4s.	c #0C1134",
"5s.	c #141948",
"6s.	c #141B45",
"7s.	c #0C1036",
"8s.	c #030523",
"9s.	c #020017",
"0s.	c #120A1C",
"as.	c #160B1F",
"bs.	c #16091F",
"cs.	c #15061E",
"ds.	c #0C0013",
"es.	c #0F040B",
"fs.	c #14050E",
"gs.	c #16040F",
"hs.	c #19030F",
"is.	c #1A030F",
"js.	c #150311",
"ks.	c #130310",
"ls.	c #140310",
"ms.	c #1C0313",
"ns.	c #180412",
"os.	c #12050F",
"ps.	c #0F030E",
"qs.	c #0D010B",
"rs.	c #0B0011",
"ss.	c #100218",
"ts.	c #140520",
"us.	c #180926",
"vs.	c #1C0C2A",
"ws.	c #1F0D2D",
"xs.	c #200C2C",
"ys.	c #1E092A",
"zs.	c #190622",
"As.	c #11021A",
"Bs.	c #0B0615",
"Cs.	c #0F081A",
"Ds.	c #14081C",
"Es.	c #16081E",
"Fs.	c #16091D",
"Gs.	c #14071C",
"Hs.	c #13061A",
"Is.	c #1A0220",
"Js.	c #140519",
"Ks.	c #17061A",
"Ls.	c #0E0510",
"Ms.	c #0E040F",
"Ns.	c #140614",
"Os.	c #10000C",
"Ps.	c #190515",
"Qs.	c #1B0512",
"Rs.	c #17020E",
"Ss.	c #1F0513",
"Ts.	c #2C0215",
"Us.	c #1D010F",
"Vs.	c #17010B",
"Ws.	c #2C0417",
"Xs.	c #180009",
"Ys.	c #1B040A",
"Zs.	c #3A0A1D",
"`s.	c #230010",
" t.	c #1E0009",
".t.	c #3F0719",
"+t.	c #350913",
"@t.	c #130402",
"#t.	c #562422",
"$t.	c #4F211E",
"%t.	c #5F3327",
"&t.	c #582F24",
"*t.	c #150405",
"=t.	c #5A352F",
"-t.	c #4D2C27",
";t.	c #160705",
">t.	c #4A3029",
",t.	c #2E1815",
"'t.	c #3B2A30",
")t.	c #0A0909",
"!t.	c #261921",
"~t.	c #3D2D3B",
"{t.	c #3A2635",
"]t.	c #473445",
"^t.	c #301D35",
"/t.	c #4A3444",
"(t.	c #2B1A29",
"_t.	c #33223E",
":t.	c #02060D",
"<t.	c #0C1E2B",
"[t.	c #213F56",
"}t.	c #234965",
"|t.	c #1A394F",
"1t.	c #030F18",
"2t.	c #0D2238",
"3t.	c #26486B",
"4t.	c #254263",
"5t.	c #0B182E",
"6t.	c #030C12",
"7t.	c #233750",
"8t.	c #324A76",
"9t.	c #122A43",
"0t.	c #1A324A",
"at.	c #264C6B",
"bt.	c #162D4B",
"ct.	c #00031B",
"dt.	c #161F47",
"et.	c #273267",
"ft.	c #06061F",
"gt.	c #131637",
"ht.	c #15193F",
"it.	c #0D1232",
"jt.	c #02071D",
"kt.	c #040111",
"lt.	c #0D0619",
"mt.	c #140921",
"nt.	c #170924",
"ot.	c #14020F",
"pt.	c #150411",
"qt.	c #07030A",
"rt.	c #0F000B",
"st.	c #10010C",
"tt.	c #16070C",
"ut.	c #14060B",
"vt.	c #12050B",
"wt.	c #0F0112",
"xt.	c #16021D",
"yt.	c #1F0528",
"zt.	c #240734",
"At.	c #250A35",
"Bt.	c #220A30",
"Ct.	c #1D0B29",
"Dt.	c #160821",
"Et.	c #0A0611",
"Ft.	c #0D000F",
"Gt.	c #100013",
"Ht.	c #19031E",
"It.	c #16031C",
"Jt.	c #16001B",
"Kt.	c #110314",
"Lt.	c #130816",
"Mt.	c #100612",
"Nt.	c #140713",
"Ot.	c #140612",
"Pt.	c #220113",
"Qt.	c #0B0006",
"Rt.	c #0B010A",
"St.	c #240315",
"Tt.	c #200312",
"Ut.	c #150610",
"Vt.	c #1C000B",
"Wt.	c #290617",
"Xt.	c #0B030A",
"Yt.	c #2B0010",
"Zt.	c #2C0518",
"`t.	c #22010F",
" u.	c #2C0414",
".u.	c #0F0004",
"+u.	c #250512",
"@u.	c #41031B",
"#u.	c #1D000A",
"$u.	c #26010A",
"%u.	c #46101D",
"&u.	c #290B0E",
"*u.	c #2A0B0B",
"=u.	c #62312D",
"-u.	c #3D1715",
";u.	c #2F130C",
">u.	c #753E32",
",u.	c #351A1A",
"'u.	c #301B14",
")u.	c #673D32",
"!u.	c #270F0E",
"~u.	c #35201B",
"{u.	c #3D2724",
"]u.	c #0B0101",
"^u.	c #0C0205",
"/u.	c #34242A",
"(u.	c #1A1416",
"_u.	c #30202B",
":u.	c #332433",
"<u.	c #3A2938",
"[u.	c #422F42",
"}u.	c #2F1B33",
"|u.	c #473245",
"1u.	c #201023",
"2u.	c #2A1B36",
"3u.	c #031120",
"4u.	c #1A374F",
"5u.	c #274864",
"6u.	c #1F3E59",
"7u.	c #041428",
"8u.	c #0F243A",
"9u.	c #2A4C6B",
"0u.	c #204062",
"au.	c #061027",
"bu.	c #081721",
"cu.	c #2F456B",
"du.	c #2E416C",
"eu.	c #091629",
"fu.	c #0F1B35",
"gu.	c #2B4566",
"hu.	c #283B51",
"iu.	c #050F20",
"ju.	c #121B38",
"ku.	c #223562",
"lu.	c #1C2D50",
"mu.	c #05111D",
"nu.	c #00030C",
"ou.	c #0B072B",
"pu.	c #151548",
"qu.	c #13193F",
"ru.	c #0A0D26",
"su.	c #160A22",
"tu.	c #0D0004",
"uu.	c #0E0109",
"vu.	c #0F0110",
"wu.	c #140510",
"xu.	c #11020A",
"yu.	c #100107",
"zu.	c #0F0006",
"Au.	c #11010C",
"Bu.	c #160110",
"Cu.	c #17020F",
"Du.	c #12030F",
"Eu.	c #130411",
"Fu.	c #190311",
"Gu.	c #13040F",
"Hu.	c #180315",
"Iu.	c #180013",
"Ju.	c #0D0118",
"Ku.	c #170422",
"Lu.	c #22072F",
"Mu.	c #2B0837",
"Nu.	c #280837",
"Ou.	c #200A33",
"Pu.	c #190828",
"Qu.	c #120216",
"Ru.	c #18021D",
"Su.	c #120215",
"Tu.	c #16001A",
"Uu.	c #1A011E",
"Vu.	c #130716",
"Wu.	c #0E0410",
"Xu.	c #0C030D",
"Yu.	c #1C0415",
"Zu.	c #0A0008",
"`u.	c #210111",
" v.	c #16030F",
".v.	c #260315",
"+v.	c #270414",
"@v.	c #1B000D",
"#v.	c #19020E",
"$v.	c #0D0109",
"%v.	c #2A0214",
"&v.	c #2E0215",
"*v.	c #270310",
"=v.	c #2E0314",
"-v.	c #0F0005",
";v.	c #360314",
">v.	c #3F0318",
",v.	c #2E070E",
"'v.	c #541723",
")v.	c #1F080B",
"!v.	c #461C1B",
"~v.	c #673530",
"{v.	c #210906",
"]v.	c #5B2921",
"^v.	c #653A36",
"/v.	c #120403",
"(v.	c #0D0402",
"_v.	c #5C352B",
":v.	c #4B2627",
"<v.	c #1B0D0B",
"[v.	c #432B2A",
"}v.	c #1A0A0A",
"|v.	c #2B1C22",
"1v.	c #291922",
"2v.	c #221921",
"3v.	c #35242F",
"4v.	c #291C2B",
"5v.	c #3B2A3B",
"6v.	c #3C2B3F",
"7v.	c #2A1831",
"8v.	c #453044",
"9v.	c #190A20",
"0v.	c #20132C",
"av.	c #132D45",
"bv.	c #234869",
"cv.	c #27415F",
"dv.	c #0C162E",
"ev.	c #13253F",
"fv.	c #324D75",
"gv.	c #253953",
"hv.	c #030A1B",
"iv.	c #182239",
"jv.	c #354E6D",
"kv.	c #223659",
"lv.	c #00041B",
"mv.	c #233148",
"nv.	c #31466E",
"ov.	c #0F2042",
"pv.	c #09101C",
"qv.	c #243149",
"rv.	c #212E52",
"sv.	c #081227",
"tv.	c #070D25",
"uv.	c #141747",
"vv.	c #171140",
"wv.	c #09081C",
"xv.	c #01010C",
"yv.	c #070318",
"zv.	c #110823",
"Av.	c #140920",
"Bv.	c #0C0004",
"Cv.	c #140115",
"Dv.	c #10040D",
"Ev.	c #0F030C",
"Fv.	c #0D010C",
"Gv.	c #130211",
"Hv.	c #170311",
"Iv.	c #170511",
"Jv.	c #16050E",
"Kv.	c #12030A",
"Lv.	c #0F0017",
"Mv.	c #160222",
"Nv.	c #1E082F",
"Ov.	c #230C32",
"Pv.	c #240C30",
"Qv.	c #220A2B",
"Rv.	c #1E0525",
"Sv.	c #120318",
"Tv.	c #0A0110",
"Uv.	c #18011C",
"Vv.	c #1B0021",
"Wv.	c #160619",
"Xv.	c #130814",
"Yv.	c #1E0311",
"Zv.	c #1A000B",
"`v.	c #290315",
" w.	c #280112",
".w.	c #250414",
"+w.	c #2F0317",
"@w.	c #220413",
"#w.	c #100005",
"$w.	c #2A0113",
"%w.	c #0C0001",
"&w.	c #130004",
"*w.	c #3C0516",
"=w.	c #330813",
"-w.	c #0D0001",
";w.	c #481118",
">w.	c #4E1D1D",
",w.	c #100201",
"'w.	c #180303",
")w.	c #66312B",
"!w.	c #5C2C23",
"~w.	c #260B09",
"{w.	c #7E3F38",
"]w.	c #431F19",
"^w.	c #371D1B",
"/w.	c #603737",
"(w.	c #160806",
"_w.	c #3C2024",
":w.	c #2A151A",
"<w.	c #1F1019",
"[w.	c #321C28",
"}w.	c #151119",
"|w.	c #372331",
"1w.	c #231728",
"2w.	c #38283A",
"3w.	c #3A2A3F",
"4w.	c #24142C",
"5w.	c #402B42",
"6w.	c #11041D",
"7w.	c #1E1630",
"8w.	c #160B23",
"9w.	c #244467",
"0w.	c #25476D",
"aw.	c #0E1C34",
"bw.	c #162944",
"cw.	c #345078",
"dw.	c #243253",
"ew.	c #1D314C",
"fw.	c #364F76",
"gw.	c #152247",
"hw.	c #0E1522",
"iw.	c #343F65",
"jw.	c #24395F",
"kw.	c #010C15",
"lw.	c #1A2652",
"mw.	c #1F3264",
"nw.	c #0B1839",
"ow.	c #0A071E",
"pw.	c #19153C",
"qw.	c #101239",
"rw.	c #04071D",
"sw.	c #01010E",
"tw.	c #17061E",
"uw.	c #130410",
"vw.	c #12030D",
"ww.	c #0C020B",
"xw.	c #0D020B",
"yw.	c #110110",
"zw.	c #100110",
"Aw.	c #100210",
"Bw.	c #0E020E",
"Cw.	c #0D010D",
"Dw.	c #11010E",
"Ew.	c #10020C",
"Fw.	c #13030E",
"Gw.	c #0E0308",
"Hw.	c #190114",
"Iw.	c #1A0214",
"Jw.	c #190513",
"Kw.	c #120113",
"Lw.	c #22062D",
"Mw.	c #280936",
"Nw.	c #290C35",
"Ow.	c #260D31",
"Pw.	c #1C0825",
"Qw.	c #110418",
"Rw.	c #150119",
"Sw.	c #1C0120",
"Tw.	c #19021C",
"Uw.	c #100113",
"Vw.	c #17021C",
"Ww.	c #140019",
"Xw.	c #130614",
"Yw.	c #130611",
"Zw.	c #190110",
"`w.	c #11010B",
" x.	c #260113",
".x.	c #18000D",
"+x.	c #240414",
"@x.	c #110007",
"#x.	c #260414",
"$x.	c #1B0410",
"%x.	c #320317",
"&x.	c #26000D",
"*x.	c #2E0417",
"=x.	c #27010F",
"-x.	c #190007",
";x.	c #4A0419",
">x.	c #35030E",
",x.	c #1C0505",
"'x.	c #5D251E",
")x.	c #3A150E",
"!x.	c #804035",
"~x.	c #331710",
"{x.	c #66271F",
"]x.	c #753B2F",
"^x.	c #0D0203",
"/x.	c #5D3431",
"(x.	c #332019",
"_x.	c #2B1418",
":x.	c #341D23",
"<x.	c #12070E",
"[x.	c #321B29",
"}x.	c #0E0A12",
"|x.	c #372132",
"1x.	c #1E1423",
"2x.	c #362838",
"3x.	c #37283D",
"4x.	c #39273E",
"5x.	c #0C0019",
"6x.	c #211933",
"7x.	c #0C031A",
"8x.	c #2F4970",
"9x.	c #16233E",
"0x.	c #1D2A46",
"ax.	c #36537C",
"bx.	c #1B334C",
"cx.	c #010820",
"dx.	c #2A3C63",
"ex.	c #344C6D",
"fx.	c #0B1427",
"gx.	c #334568",
"hx.	c #162240",
"ix.	c #0E1633",
"jx.	c #203354",
"kx.	c #14223A",
"lx.	c #00041D",
"mx.	c #040525",
"nx.	c #131434",
"ox.	c #130719",
"px.	c #10020F",
"qx.	c #0B010B",
"rx.	c #10030F",
"sx.	c #190413",
"tx.	c #190410",
"ux.	c #1C0429",
"vx.	c #250832",
"wx.	c #2A0B36",
"xx.	c #2C0B36",
"yx.	c #2B0935",
"zx.	c #210729",
"Ax.	c #120519",
"Bx.	c #010302",
"Cx.	c #170118",
"Dx.	c #190319",
"Ex.	c #17021D",
"Fx.	c #110012",
"Gx.	c #100613",
"Hx.	c #130514",
"Ix.	c #0E0007",
"Jx.	c #150510",
"Kx.	c #170415",
"Lx.	c #1E010F",
"Mx.	c #190412",
"Nx.	c #13000A",
"Ox.	c #260214",
"Px.	c #240313",
"Qx.	c #280716",
"Rx.	c #18040C",
"Sx.	c #1C030A",
"Tx.	c #350517",
"Ux.	c #16010A",
"Vx.	c #1E020D",
"Wx.	c #350317",
"Xx.	c #1B000A",
"Yx.	c #2C010C",
"Zx.	c #480D1C",
"`x.	c #2A040C",
" y.	c #3B160E",
".y.	c #732C29",
"+y.	c #220A05",
"@y.	c #080200",
"#y.	c #6D302A",
"$y.	c #713A2A",
"%y.	c #090200",
"&y.	c #300C07",
"*y.	c #874331",
"=y.	c #371B1A",
"-y.	c #48241D",
";y.	c #492E27",
">y.	c #14090A",
",y.	c #352124",
"'y.	c #2B192A",
")y.	c #18101D",
"!y.	c #312636",
"~y.	c #35283A",
"{y.	c #1A0D1C",
"]y.	c #2E2136",
"^y.	c #221A32",
"/y.	c #060216",
"(y.	c #1B2B41",
"_y.	c #153058",
":y.	c #345184",
"<y.	c #1E2B41",
"[y.	c #2C4A74",
"}y.	c #2F3D5C",
"|y.	c #010726",
"1y.	c #293A5E",
"2y.	c #2C3D5E",
"3y.	c #040D20",
"4y.	c #1C2749",
"5y.	c #1F2958",
"6y.	c #050E2A",
"7y.	c #000219",
"8y.	c #0F1131",
"9y.	c #131636",
"0y.	c #070819",
"ay.	c #0B0418",
"by.	c #0B050C",
"cy.	c #0C030C",
"dy.	c #14020D",
"ey.	c #180813",
"fy.	c #180713",
"gy.	c #140311",
"hy.	c #200628",
"iy.	c #2C0937",
"jy.	c #340B3A",
"ky.	c #340B33",
"ly.	c #2D0A2E",
"my.	c #220A27",
"ny.	c #0F0010",
"oy.	c #150116",
"py.	c #15031A",
"qy.	c #150216",
"ry.	c #0E010F",
"sy.	c #150715",
"ty.	c #10010B",
"uy.	c #160511",
"vy.	c #190615",
"wy.	c #1B010F",
"xy.	c #100006",
"yy.	c #1F0614",
"zy.	c #14030D",
"Ay.	c #270614",
"By.	c #1B0006",
"Cy.	c #20040F",
"Dy.	c #2D0716",
"Ey.	c #160005",
"Fy.	c #0C0003",
"Gy.	c #240411",
"Hy.	c #330515",
"Iy.	c #180002",
"Jy.	c #390A17",
"Ky.	c #491320",
"Ly.	c #110100",
"My.	c #6B2D23",
"Ny.	c #5A2A1F",
"Oy.	c #37100D",
"Py.	c #8B4E37",
"Qy.	c #3E1B13",
"Ry.	c #6A3A26",
"Sy.	c #633C2A",
"Ty.	c #280E0C",
"Uy.	c #50352F",
"Vy.	c #160908",
"Wy.	c #311E20",
"Xy.	c #18090A",
"Yy.	c #281525",
"Zy.	c #321C32",
"`y.	c #160E1A",
" z.	c #2D2231",
".z.	c #35273A",
"+z.	c #1D101F",
"@z.	c #25192D",
"#z.	c #0E051B",
"$z.	c #1F172F",
"%z.	c #0A061A",
"&z.	c #000303",
"*z.	c #1D2B55",
"=z.	c #3A5083",
"-z.	c #13263D",
";z.	c #10163D",
">z.	c #3A4B75",
",z.	c #1F3242",
"'z.	c #0D162E",
")z.	c #363E6E",
"!z.	c #1C2952",
"~z.	c #212C56",
"{z.	c #121939",
"]z.	c #0B0C2B",
"^z.	c #15153C",
"/z.	c #090117",
"(z.	c #100718",
"_z.	c #12030C",
":z.	c #0B030D",
"<z.	c #11020B",
"[z.	c #190512",
"}z.	c #1C0416",
"|z.	c #10030B",
"1z.	c #1C0321",
"2z.	c #2B0631",
"3z.	c #300B35",
"4z.	c #310B36",
"5z.	c #340C36",
"6z.	c #310833",
"7z.	c #270828",
"8z.	c #1F0420",
"9z.	c #18011A",
"0z.	c #130115",
"az.	c #0F010F",
"bz.	c #130111",
"cz.	c #130014",
"dz.	c #18011D",
"ez.	c #120414",
"fz.	c #180419",
"gz.	c #100211",
"hz.	c #140410",
"iz.	c #18000E",
"jz.	c #1B0714",
"kz.	c #280215",
"lz.	c #20010F",
"mz.	c #23010E",
"nz.	c #2D0211",
"oz.	c #310413",
"pz.	c #2D0311",
"qz.	c #100004",
"rz.	c #380413",
"sz.	c #30040E",
"tz.	c #1D0004",
"uz.	c #4E1721",
"vz.	c #3E1416",
"wz.	c #411308",
"xz.	c #864336",
"yz.	c #321016",
"zz.	c #793E26",
"Az.	c #7B3E31",
"Bz.	c #3B1E0E",
"Cz.	c #7E4C2F",
"Dz.	c #1F0B0B",
"Ez.	c #0D0102",
"Fz.	c #4A302D",
"Gz.	c #2B1817",
"Hz.	c #29181A",
"Iz.	c #220F12",
"Jz.	c #241121",
"Kz.	c #170F1B",
"Lz.	c #2A1F2E",
"Mz.	c #0B010F",
"Nz.	c #1C1024",
"Oz.	c #19112A",
"Pz.	c #120D25",
"Qz.	c #1C3548",
"Rz.	c #3E4D7B",
"Sz.	c #181A3A",
"Tz.	c #17233F",
"Uz.	c #354D7C",
"Vz.	c #16233A",
"Wz.	c #17284E",
"Xz.	c #2A436A",
"Yz.	c #131422",
"Zz.	c #162148",
"`z.	c #1D2453",
" A.	c #060826",
".A.	c #12142E",
"+A.	c #111027",
"@A.	c #04020C",
"#A.	c #0D020E",
"$A.	c #08010A",
"%A.	c #0A030D",
"&A.	c #140511",
"*A.	c #15010E",
"=A.	c #1D0319",
"-A.	c #1B0218",
";A.	c #080011",
">A.	c #15031B",
",A.	c #250626",
"'A.	c #330930",
")A.	c #390934",
"!A.	c #340C34",
"~A.	c #300B30",
"{A.	c #2C082C",
"]A.	c #260726",
"^A.	c #1F0621",
"/A.	c #1A031C",
"(A.	c #160117",
"_A.	c #150215",
":A.	c #130214",
"<A.	c #19011D",
"[A.	c #160217",
"}A.	c #140415",
"|A.	c #130414",
"1A.	c #160615",
"2A.	c #0D0005",
"3A.	c #120710",
"4A.	c #1C0513",
"5A.	c #14020B",
"6A.	c #1C020E",
"7A.	c #120004",
"8A.	c #250610",
"9A.	c #1C040C",
"0A.	c #1C0006",
"aA.	c #310614",
"bA.	c #1F020A",
"cA.	c #210006",
"dA.	c #390B15",
"eA.	c #21060B",
"fA.	c #310B0B",
"gA.	c #5D2424",
"hA.	c #23090C",
"iA.	c #79382E",
"jA.	c #743532",
"kA.	c #451B0C",
"lA.	c #9E5841",
"mA.	c #2C120E",
"nA.	c #130300",
"oA.	c #7B482F",
"pA.	c #46241D",
"qA.	c #3A2222",
"rA.	c #3C2021",
"sA.	c #1F0F13",
"tA.	c #261116",
"uA.	c #210D1D",
"vA.	c #1A0D18",
"wA.	c #2B192D",
"xA.	c #170F1C",
"yA.	c #261B2A",
"zA.	c #2E2033",
"AA.	c #27182F",
"BA.	c #190F25",
"CA.	c #110922",
"DA.	c #1A1431",
"EA.	c #242F52",
"FA.	c #394B7A",
"GA.	c #101C2A",
"HA.	c #202B4F",
"IA.	c #39476F",
"JA.	c #0A1424",
"KA.	c #213557",
"LA.	c #253557",
"MA.	c #02081F",
"NA.	c #030E22",
"OA.	c #1A2A4A",
"PA.	c #101836",
"QA.	c #0D0D1C",
"RA.	c #12132D",
"SA.	c #07061B",
"TA.	c #0F0218",
"UA.	c #10040C",
"VA.	c #10030A",
"WA.	c #0D0209",
"XA.	c #0E040E",
"YA.	c #110210",
"ZA.	c #15040F",
"`A.	c #140111",
" B.	c #1A0416",
".B.	c #1B0415",
"+B.	c #140214",
"@B.	c #200821",
"#B.	c #2E0830",
"$B.	c #350A35",
"%B.	c #340932",
"&B.	c #330932",
"*B.	c #2D082F",
"=B.	c #27082B",
"-B.	c #210726",
";B.	c #1B071D",
">B.	c #150115",
",B.	c #160016",
"'B.	c #170116",
")B.	c #160118",
"!B.	c #19061A",
"~B.	c #0F0011",
"{B.	c #120211",
"]B.	c #150413",
"^B.	c #170611",
"/B.	c #0F0007",
"(B.	c #210313",
"_B.	c #210112",
":B.	c #1A040F",
"<B.	c #140209",
"[B.	c #290412",
"}B.	c #120006",
"|B.	c #080003",
"1B.	c #1E0410",
"2B.	c #0E0307",
"3B.	c #2F0412",
"4B.	c #180207",
"5B.	c #24010A",
"6B.	c #390213",
"7B.	c #1B0005",
"8B.	c #2A0509",
"9B.	c #3E0E1A",
"0B.	c #170406",
"aB.	c #5F1F1C",
"bB.	c #582523",
"cB.	c #4E1711",
"dB.	c #A34E38",
"eB.	c #331508",
"fB.	c #955134",
"gB.	c #683927",
"hB.	c #603424",
"iB.	c #693C2E",
"jB.	c #271113",
"kB.	c #452527",
"lB.	c #16070A",
"mB.	c #2A1118",
"nB.	c #1D0818",
"oB.	c #1C0E19",
"pB.	c #28182B",
"qB.	c #0E0413",
"rB.	c #19111D",
"sB.	c #221726",
"tB.	c #2B1D2F",
"uB.	c #2A1A34",
"vB.	c #0D061F",
"wB.	c #1D1737",
"xB.	c #364A76",
"yB.	c #28334D",
"zB.	c #2D4068",
"AB.	c #030922",
"BB.	c #060A1E",
"CB.	c #273956",
"DB.	c #142646",
"EB.	c #0C172D",
"FB.	c #162748",
"GB.	c #12121F",
"HB.	c #100C1E",
"IB.	c #060014",
"JB.	c #0A0207",
"KB.	c #10050C",
"LB.	c #0B030E",
"MB.	c #0A040D",
"NB.	c #14040F",
"OB.	c #12010C",
"PB.	c #1C0316",
"QB.	c #200319",
"RB.	c #21061E",
"SB.	c #2E0B27",
"TB.	c #320B2F",
"UB.	c #310936",
"VB.	c #2D0733",
"WB.	c #2B082B",
"XB.	c #210720",
"YB.	c #1C041B",
"ZB.	c #170015",
"`B.	c #160014",
" C.	c #1B0419",
".C.	c #1B0219",
"+C.	c #10010F",
"@C.	c #150318",
"#C.	c #110710",
"$C.	c #160611",
"%C.	c #12040F",
"&C.	c #1D0513",
"*C.	c #240413",
"=C.	c #220110",
"-C.	c #210210",
";C.	c #0F0008",
">C.	c #2A0413",
",C.	c #160109",
"'C.	c #20010A",
")C.	c #300210",
"!C.	c #2F040F",
"~C.	c #340510",
"{C.	c #420F15",
"]C.	c #3E0D0D",
"^C.	c #34090B",
"/C.	c #7E352E",
"(C.	c #2C130B",
"_C.	c #160100",
":C.	c #9F4535",
"<C.	c #7D3C2B",
"[C.	c #66321C",
"}C.	c #9A5C35",
"|C.	c #3D161D",
"1C.	c #7D4C33",
"2C.	c #160C00",
"3C.	c #100407",
"4C.	c #442629",
"5C.	c #110904",
"6C.	c #0C0505",
"7C.	c #2C101B",
"8C.	c #170713",
"9C.	c #1C0F1C",
"0C.	c #25172C",
"aC.	c #1D1322",
"bC.	c #1D1225",
"cC.	c #23192A",
"dC.	c #100315",
"eC.	c #291830",
"fC.	c #100617",
"gC.	c #1C1527",
"hC.	c #100C21",
"iC.	c #1D1433",
"jC.	c #061224",
"kC.	c #22375F",
"lC.	c #263857",
"mC.	c #000215",
"nC.	c #0B132D",
"oC.	c #233A58",
"pC.	c #0D1834",
"qC.	c #000418",
"rC.	c #14203E",
"sC.	c #121C3E",
"tC.	c #0A0A1A",
"uC.	c #070415",
"vC.	c #0C050D",
"wC.	c #0C050F",
"xC.	c #0C010A",
"yC.	c #150111",
"zC.	c #1D0316",
"AC.	c #1C0618",
"BC.	c #1E051B",
"CC.	c #2E072A",
"DC.	c #31082D",
"EC.	c #2D0828",
"FC.	c #2A0827",
"GC.	c #260725",
"HC.	c #200521",
"IC.	c #1B021C",
"JC.	c #180116",
"KC.	c #130112",
"LC.	c #160112",
"MC.	c #1E011B",
"NC.	c #1A0218",
"OC.	c #16041A",
"PC.	c #180418",
"QC.	c #1C0312",
"RC.	c #1A0515",
"SC.	c #18030F",
"TC.	c #1C020F",
"UC.	c #1E0613",
"VC.	c #17020D",
"WC.	c #1A010A",
"XC.	c #230610",
"YC.	c #120003",
"ZC.	c #0E0001",
"`C.	c #29020D",
" D.	c #24060E",
".D.	c #360B14",
"+D.	c #29030B",
"@D.	c #270404",
"#D.	c #521919",
"$D.	c #240C07",
"%D.	c #6F3025",
"&D.	c #6B3327",
"*D.	c #672A1E",
"=D.	c #B45D44",
"-D.	c #1C0C05",
";D.	c #320F06",
">D.	c #AF6841",
",D.	c #3A1D0E",
"'D.	c #1A0208",
")D.	c #794B34",
"!D.	c #311E0D",
"~D.	c #190F0B",
"{D.	c #040101",
"]D.	c #2A0F1A",
"^D.	c #1B0E1E",
"/D.	c #24182D",
"(D.	c #170C22",
"_D.	c #1C1126",
":D.	c #16091A",
"<D.	c #221026",
"[D.	c #150B1C",
"}D.	c #171223",
"|D.	c #181329",
"1D.	c #020515",
"2D.	c #243852",
"3D.	c #1D2A4E",
"4D.	c #0D1C3C",
"5D.	c #203053",
"6D.	c #040C1B",
"7D.	c #020922",
"8D.	c #162040",
"9D.	c #0F0C26",
"0D.	c #0D0510",
"aD.	c #140711",
"bD.	c #1B0514",
"cD.	c #200419",
"dD.	c #1E0314",
"eD.	c #24061E",
"fD.	c #260A23",
"gD.	c #240824",
"hD.	c #210624",
"iD.	c #1E0322",
"jD.	c #180318",
"kD.	c #1C041A",
"lD.	c #1E021C",
"mD.	c #170016",
"nD.	c #160517",
"oD.	c #0E000F",
"pD.	c #100310",
"qD.	c #130612",
"rD.	c #180513",
"sD.	c #130210",
"tD.	c #14000E",
"uD.	c #1E0414",
"vD.	c #1C0612",
"wD.	c #1F0110",
"xD.	c #1F0210",
"yD.	c #270313",
"zD.	c #110006",
"AD.	c #21050E",
"BD.	c #25010A",
"CD.	c #110004",
"DD.	c #2C0611",
"ED.	c #200107",
"FD.	c #210308",
"GD.	c #3F0A17",
"HD.	c #411719",
"ID.	c #4E2021",
"JD.	c #3C160B",
"KD.	c #9D4A38",
"LD.	c #260B0B",
"MD.	c #200C02",
"ND.	c #BC633D",
"OD.	c #612F1E",
"PD.	c #9F553D",
"QD.	c #714028",
"RD.	c #623C31",
"SD.	c #4D2F22",
"TD.	c #2F171C",
"UD.	c #221412",
"VD.	c #240D17",
"WD.	c #1B0E1F",
"XD.	c #22182D",
"YD.	c #221A2A",
"ZD.	c #10081C",
"`D.	c #150A1A",
" E.	c #1D1021",
".E.	c #1B0C20",
"+E.	c #1B1225",
"@E.	c #201830",
"#E.	c #180D29",
"$E.	c #293161",
"%E.	c #132248",
"&E.	c #14203F",
"*E.	c #000518",
"=E.	c #090C2C",
"-E.	c #141C31",
";E.	c #040915",
">E.	c #060318",
",E.	c #110A23",
"'E.	c #0C0108",
")E.	c #12020B",
"!E.	c #0F020C",
"~E.	c #0E0713",
"{E.	c #0D0511",
"]E.	c #10030D",
"^E.	c #0B0209",
"/E.	c #160612",
"(E.	c #1B0111",
"_E.	c #24031A",
":E.	c #16020F",
"<E.	c #1C081B",
"[E.	c #1E0821",
"}E.	c #1D0520",
"|E.	c #170418",
"1E.	c #160315",
"2E.	c #1F031D",
"3E.	c #20001D",
"4E.	c #150217",
"5E.	c #11010A",
"6E.	c #230412",
"7E.	c #150007",
"8E.	c #250413",
"9E.	c #230110",
"0E.	c #1D050F",
"aE.	c #140004",
"bE.	c #29030E",
"cE.	c #150106",
"dE.	c #200008",
"eE.	c #2D0811",
"fE.	c #100102",
"gE.	c #3C0913",
"hE.	c #360C13",
"iE.	c #240807",
"jE.	c #63292A",
"kE.	c #2C110B",
"lE.	c #120100",
"mE.	c #9B4336",
"nE.	c #66332B",
"oE.	c #954A2B",
"pE.	c #A7583C",
"qE.	c #6E3527",
"rE.	c #9F5A3A",
"sE.	c #432722",
"tE.	c #62392E",
"uE.	c #241016",
"vE.	c #271617",
"wE.	c #200D16",
"xE.	c #190F20",
"yE.	c #060011",
"zE.	c #21182F",
"AE.	c #080311",
"BE.	c #241D2C",
"CE.	c #231626",
"DE.	c #1E1528",
"EE.	c #1F132D",
"FE.	c #10193C",
"GE.	c #00011C",
"HE.	c #0F253F",
"IE.	c #0E1F3C",
"JE.	c #01010A",
"KE.	c #0C142F",
"LE.	c #0A051E",
"ME.	c #070106",
"NE.	c #0C0711",
"OE.	c #0B060F",
"PE.	c #0A050E",
"QE.	c #0B050B",
"RE.	c #12050E",
"SE.	c #12020C",
"TE.	c #1F0114",
"UE.	c #27041C",
"VE.	c #20031A",
"WE.	c #110010",
"XE.	c #140515",
"YE.	c #1C031B",
"ZE.	c #23001D",
"`E.	c #190315",
" F.	c #19041B",
".F.	c #1B0519",
"+F.	c #1B020E",
"@F.	c #16040E",
"#F.	c #18010C",
"$F.	c #230613",
"%F.	c #19030C",
"&F.	c #190409",
"*F.	c #28060F",
"=F.	c #110002",
"-F.	c #27090F",
";F.	c #29070D",
">F.	c #220304",
",F.	c #491518",
"'F.	c #200909",
")F.	c #5B1F1C",
"!F.	c #5F2F20",
"~F.	c #6B2823",
"{F.	c #AB583D",
"]F.	c #4F2217",
"^F.	c #D07146",
"/F.	c #301107",
"(F.	c #31150C",
"_F.	c #B66442",
":F.	c #200C06",
"<F.	c #24110B",
"[F.	c #6E3E2F",
"}F.	c #0E0501",
"|F.	c #18080E",
"1F.	c #2A1619",
"2F.	c #080115",
"3F.	c #201730",
"4F.	c #090513",
"5F.	c #251F2E",
"6F.	c #0F071C",
"7F.	c #271A30",
"8F.	c #251726",
"9F.	c #1C1328",
"0F.	c #1A132C",
"aF.	c #1E142F",
"bF.	c #2A1B35",
"cF.	c #000714",
"dF.	c #10213A",
"eF.	c #0C152A",
"fF.	c #090D24",
"gF.	c #0B0206",
"hF.	c #0C0410",
"iF.	c #0E0711",
"jF.	c #0F0813",
"kF.	c #110A15",
"lF.	c #110916",
"mF.	c #110917",
"nF.	c #100813",
"oF.	c #100712",
"pF.	c #0E050F",
"qF.	c #110211",
"rF.	c #140611",
"sF.	c #170012",
"tF.	c #27001D",
"uF.	c #2A021F",
"vF.	c #1C031A",
"wF.	c #080002",
"xF.	c #0E020F",
"yF.	c #25021E",
"zF.	c #22031D",
"AF.	c #170516",
"BF.	c #150410",
"CF.	c #16000C",
"DF.	c #1D0411",
"EF.	c #1E0512",
"FF.	c #230211",
"GF.	c #130107",
"HF.	c #280612",
"IF.	c #28030F",
"JF.	c #25040C",
"KF.	c #140105",
"LF.	c #3A0915",
"MF.	c #250207",
"NF.	c #420F10",
"OF.	c #471917",
"PF.	c #390908",
"QF.	c #83412C",
"RF.	c #221105",
"SF.	c #2F0707",
"TF.	c #C4673E",
"UF.	c #502010",
"VF.	c #160303",
"WF.	c #CE6F40",
"XF.	c #6D3722",
"YF.	c #AA6042",
"ZF.	c #4C2519",
"`F.	c #683B2F",
" G.	c #200F09",
".G.	c #29131A",
"+G.	c #180C13",
"@G.	c #0F0614",
"#G.	c #0A0417",
"$G.	c #1F172C",
"%G.	c #221D2D",
"&G.	c #110A1D",
"*G.	c #22182A",
"=G.	c #211222",
"-G.	c #180F1E",
";G.	c #181025",
">G.	c #201731",
",G.	c #2D1C36",
"'G.	c #131C35",
")G.	c #060D23",
"!G.	c #101426",
"~G.	c #070717",
"{G.	c #0D040D",
"]G.	c #090108",
"^G.	c #0C030A",
"/G.	c #110712",
"(G.	c #120812",
"_G.	c #100611",
":G.	c #06030B",
"<G.	c #0F0610",
"[G.	c #0D050F",
"}G.	c #1C0217",
"|G.	c #250420",
"1G.	c #22031E",
"2G.	c #160214",
"3G.	c #030203",
"4G.	c #24021F",
"5G.	c #26001E",
"6G.	c #210117",
"7G.	c #200417",
"8G.	c #0A0003",
"9G.	c #19040E",
"0G.	c #10000A",
"aG.	c #1E0513",
"bG.	c #260513",
"cG.	c #1A0007",
"dG.	c #1E040B",
"eG.	c #29010F",
"fG.	c #140009",
"gG.	c #2F0610",
"hG.	c #200106",
"iG.	c #2E040E",
"jG.	c #400B11",
"kG.	c #260404",
"lG.	c #632016",
"mG.	c #7D3922",
"nG.	c #61361D",
"oG.	c #9F592F",
"pG.	c #964D31",
"qG.	c #9E5232",
"rG.	c #AD5B3A",
"sG.	c #7D5136",
"tG.	c #793E22",
"uG.	c #54352F",
"vG.	c #321410",
"wG.	c #060204",
"xG.	c #27121D",
"yG.	c #170B0F",
"zG.	c #1B1524",
"AG.	c #120C21",
"BG.	c #14121F",
"CG.	c #1C1421",
"DG.	c #201021",
"EG.	c #1E0D1F",
"FG.	c #1D1525",
"GG.	c #251933",
"HG.	c #281732",
"IG.	c #301B35",
"JG.	c #040515",
"KG.	c #0C030B",
"LG.	c #0C0710",
"MG.	c #120A14",
"NG.	c #120A13",
"OG.	c #180010",
"PG.	c #25021C",
"QG.	c #210521",
"RG.	c #1F021A",
"SG.	c #050205",
"TG.	c #20041B",
"UG.	c #29021B",
"VG.	c #15000E",
"WG.	c #180212",
"XG.	c #190214",
"YG.	c #170212",
"ZG.	c #13010D",
"`G.	c #1F010F",
" H.	c #15040C",
".H.	c #260510",
"+H.	c #2B0612",
"@H.	c #1A020B",
"#H.	c #0B0003",
"$H.	c #23050B",
"%H.	c #350611",
"&H.	c #150001",
"*H.	c #140101",
"=H.	c #3F1315",
"-H.	c #2A080D",
";H.	c #4F1D12",
">H.	c #54261F",
",H.	c #522016",
"'H.	c #935437",
")H.	c #1D0000",
"!H.	c #643018",
"~H.	c #C4734C",
"{H.	c #1A0400",
"]H.	c #602B1D",
"^H.	c #C9734F",
"/H.	c #1B0300",
"(H.	c #5B321D",
"_H.	c #8A5133",
":H.	c #442723",
"<H.	c #391D1A",
"[H.	c #26101C",
"}H.	c #060105",
"|H.	c #160A11",
"1H.	c #120E20",
"2H.	c #131022",
"3H.	c #181322",
"4H.	c #1C1725",
"5H.	c #170E1A",
"6H.	c #261626",
"7H.	c #1B0B1C",
"8H.	c #1F1727",
"9H.	c #1E152A",
"0H.	c #251932",
"aH.	c #301E38",
"bH.	c #331A34",
"cH.	c #070518",
"dH.	c #0D0A1A",
"eH.	c #110713",
"fH.	c #160B17",
"gH.	c #120A15",
"hH.	c #0B0412",
"iH.	c #1E011D",
"jH.	c #2A011F",
"kH.	c #2C031D",
"lH.	c #1A0115",
"mH.	c #2B041E",
"nH.	c #220115",
"oH.	c #180417",
"pH.	c #1B0212",
"qH.	c #16020E",
"rH.	c #210412",
"sH.	c #2A0212",
"tH.	c #0D0105",
"uH.	c #26050F",
"vH.	c #21020A",
"wH.	c #1D0108",
"xH.	c #2F0612",
"yH.	c #0E0002",
"zH.	c #380713",
"AH.	c #2D050A",
"BH.	c #2D0B0B",
"CH.	c #501520",
"DH.	c #100002",
"EH.	c #2B0A04",
"FH.	c #723428",
"GH.	c #2C0F06",
"HH.	c #230505",
"IH.	c #A65A3D",
"JH.	c #4C1D16",
"KH.	c #290904",
"LH.	c #CF794C",
"MH.	c #512710",
"NH.	c #270807",
"OH.	c #C7744F",
"PH.	c #441C0E",
"QH.	c #38160B",
"RH.	c #8E593B",
"SH.	c #120300",
"TH.	c #331B19",
"UH.	c #3D2322",
"VH.	c #250D1A",
"WH.	c #150E20",
"XH.	c #100D21",
"YH.	c #171527",
"ZH.	c #141121",
"`H.	c #1D192D",
" I.	c #150F22",
".I.	c #241A28",
"+I.	c #180C18",
"@I.	c #261523",
"#I.	c #1D0D1E",
"$I.	c #211727",
"%I.	c #24192F",
"&I.	c #271831",
"*I.	c #361F38",
"=I.	c #391C33",
"-I.	c #0F010E",
";I.	c #0C040E",
">I.	c #110913",
",I.	c #100812",
"'I.	c #140C17",
")I.	c #140B17",
"!I.	c #130B15",
"~I.	c #100911",
"{I.	c #120A18",
"]I.	c #250113",
"^I.	c #1E0110",
"/I.	c #1D0014",
"(I.	c #29011C",
"_I.	c #26041F",
":I.	c #1D041E",
"<I.	c #25051A",
"[I.	c #31011E",
"}I.	c #2E031E",
"|I.	c #150211",
"1I.	c #160313",
"2I.	c #250219",
"3I.	c #120011",
"4I.	c #1C0614",
"5I.	c #210311",
"6I.	c #16020B",
"7I.	c #1E030C",
"8I.	c #1E050D",
"9I.	c #2B0511",
"0I.	c #140002",
"aI.	c #2E050E",
"bI.	c #22040A",
"cI.	c #25050A",
"dI.	c #400F13",
"eI.	c #130201",
"fI.	c #160201",
"gI.	c #581D20",
"hI.	c #2E0E0B",
"iI.	c #693223",
"jI.	c #5F2C1A",
"kI.	c #8C4930",
"lI.	c #8E4B38",
"mI.	c #B2643D",
"nI.	c #92532A",
"oI.	c #AB6541",
"pI.	c #6C3C21",
"qI.	c #1C0301",
"rI.	c #85543E",
"sI.	c #230F0F",
"tI.	c #3B2425",
"uI.	c #230A17",
"vI.	c #0B0110",
"wI.	c #171125",
"xI.	c #0D0B20",
"yI.	c #1C1B2E",
"zI.	c #110F1F",
"AI.	c #211E31",
"BI.	c #261827",
"CI.	c #251320",
"DI.	c #281B30",
"EI.	c #2F1D35",
"FI.	c #381F36",
"GI.	c #401F35",
"HI.	c #0C050C",
"II.	c #140A16",
"JI.	c #150C18",
"KI.	c #150E19",
"LI.	c #170C17",
"MI.	c #150C19",
"NI.	c #110814",
"OI.	c #180011",
"PI.	c #26011F",
"QI.	c #2D0027",
"RI.	c #290123",
"SI.	c #1B0118",
"TI.	c #070105",
"UI.	c #090405",
"VI.	c #320220",
"WI.	c #32011F",
"XI.	c #210619",
"YI.	c #2F0015",
"ZI.	c #240216",
"`I.	c #1A0111",
" J.	c #1C0211",
".J.	c #2D0112",
"+J.	c #2C030F",
"@J.	c #1E0007",
"#J.	c #27020E",
"$J.	c #2D020E",
"%J.	c #1F0004",
"&J.	c #3A0912",
"*J.	c #110305",
"=J.	c #410E11",
"-J.	c #360E0D",
";J.	c #44170E",
">J.	c #572517",
",J.	c #421D0E",
"'J.	c #8E432F",
")J.	c #190302",
"!J.	c #562617",
"~J.	c #BF6D4C",
"{J.	c #130301",
"]J.	c #7E3D23",
"^J.	c #C67644",
"/J.	c #7E4626",
"(J.	c #895733",
"_J.	c #754738",
":J.	c #301912",
"<J.	c #180609",
"[J.	c #382325",
"}J.	c #210715",
"|J.	c #150C1C",
"1J.	c #1A152A",
"2J.	c #0B0A1F",
"3J.	c #1F1F33",
"4J.	c #121021",
"5J.	c #221F31",
"6J.	c #181121",
"7J.	c #25121E",
"8J.	c #23101D",
"9J.	c #2B1D32",
"0J.	c #342138",
"aJ.	c #3B1F35",
"bJ.	c #431F33",
"cJ.	c #100912",
"dJ.	c #0B090D",
"eJ.	c #070709",
"fJ.	c #050407",
"gJ.	c #150E1B",
"hJ.	c #140D1B",
"iJ.	c #150E1C",
"jJ.	c #0B090E",
"kJ.	c #130C14",
"lJ.	c #140C16",
"mJ.	c #1D0413",
"nJ.	c #14010C",
"oJ.	c #10000F",
"pJ.	c #22021A",
"qJ.	c #2D0023",
"rJ.	c #2B0126",
"sJ.	c #1D011C",
"tJ.	c #0A0205",
"uJ.	c #18010E",
"vJ.	c #360021",
"wJ.	c #2E0421",
"xJ.	c #1E0011",
"yJ.	c #19000E",
"zJ.	c #15020E",
"AJ.	c #290216",
"BJ.	c #280213",
"CJ.	c #16000A",
"DJ.	c #20030F",
"EJ.	c #220310",
"FJ.	c #1B0008",
"GJ.	c #2E030F",
"HJ.	c #300714",
"IJ.	c #1D0007",
"JJ.	c #380611",
"KJ.	c #36090E",
"LJ.	c #2D0608",
"MJ.	c #521915",
"NJ.	c #150400",
"OJ.	c #200702",
"PJ.	c #712E22",
"QJ.	c #2E090C",
"RJ.	c #150700",
"SJ.	c #964A2E",
"TJ.	c #482013",
"UJ.	c #210602",
"VJ.	c #C9724B",
"WJ.	c #472112",
"XJ.	c #40140B",
"YJ.	c #D2864F",
"ZJ.	c #2E0E05",
"`J.	c #4A2518",
" K.	c #A16440",
".K.	c #59392E",
"+K.	c #3E2114",
"@K.	c #100305",
"#K.	c #332223",
"$K.	c #0B0202",
"%K.	c #190B12",
"&K.	c #0A0214",
"*K.	c #1D1A2D",
"=K.	c #0D0E20",
"-K.	c #202133",
";K.	c #161429",
">K.	c #1E1C2D",
",K.	c #1F1625",
"'K.	c #2A1522",
")K.	c #23111F",
"!K.	c #261828",
"~K.	c #281B2C",
"{K.	c #2F1E32",
"]K.	c #3A2339",
"^K.	c #412236",
"/K.	c #431F30",
"(K.	c #0B0610",
"_K.	c #140C19",
":K.	c #160F1C",
"<K.	c #110A17",
"[K.	c #120311",
"}K.	c #1E0315",
"|K.	c #1F011A",
"1K.	c #290323",
"2K.	c #2A0326",
"3K.	c #240322",
"4K.	c #150014",
"5K.	c #14030B",
"6K.	c #280419",
"7K.	c #360124",
"8K.	c #350325",
"9K.	c #24061B",
"0K.	c #270218",
"aK.	c #290317",
"bK.	c #1F0010",
"cK.	c #280214",
"dK.	c #280012",
"eK.	c #19010F",
"fK.	c #270412",
"gK.	c #100106",
"hK.	c #2C040F",
"iK.	c #20020A",
"jK.	c #20060D",
"kK.	c #330712",
"lK.	c #1E0206",
"mK.	c #451417",
"nK.	c #1C0606",
"oK.	c #501E16",
"pK.	c #3A1510",
"qK.	c #632922",
"rK.	c #5F2B21",
"sK.	c #763924",
"tK.	c #834B32",
"uK.	c #A95C37",
"vK.	c #884C2F",
"wK.	c #C3794A",
"xK.	c #5C3019",
"yK.	c #9F6343",
"zK.	c #422921",
"AK.	c #49281C",
"BK.	c #0D0103",
"CK.	c #2D1F20",
"DK.	c #140B10",
"EK.	c #170E1E",
"FK.	c #0A0518",
"GK.	c #1E1C2F",
"HK.	c #121425",
"IK.	c #1F2031",
"JK.	c #1D1C2D",
"KK.	c #1D1B29",
"LK.	c #23111D",
"MK.	c #271525",
"NK.	c #271A2A",
"OK.	c #2D202F",
"PK.	c #3F2439",
"QK.	c #462537",
"RK.	c #441E2D",
"SK.	c #180918",
"TK.	c #1A0819",
"UK.	c #190819",
"VK.	c #1A091A",
"WK.	c #1A0A1A",
"XK.	c #170B1A",
"YK.	c #180B1A",
"ZK.	c #180B1B",
"`K.	c #190B1C",
" L.	c #180B1C",
".L.	c #150D1B",
"+L.	c #1B0B21",
"@L.	c #1B0B1F",
"#L.	c #120716",
"$L.	c #170B1B",
"%L.	c #190E1D",
"&L.	c #190D1D",
"*L.	c #140C15",
"=L.	c #0C060E",
"-L.	c #10000D",
";L.	c #290220",
">L.	c #2D0227",
",L.	c #28022A",
"'L.	c #19001E",
")L.	c #120409",
"!L.	c #230615",
"~L.	c #340624",
"{L.	c #340324",
"]L.	c #2F0623",
"^L.	c #2E051D",
"/L.	c #12010B",
"(L.	c #280211",
"_L.	c #1C020D",
":L.	c #25010F",
"<L.	c #230510",
"[L.	c #1C0007",
"}L.	c #330612",
"|L.	c #120002",
"1L.	c #380C15",
"2L.	c #2B0309",
"3L.	c #371413",
"4L.	c #421216",
"5L.	c #36140D",
"6L.	c #612725",
"7L.	c #37140E",
"8L.	c #80442B",
"9L.	c #220600",
"0L.	c #411A14",
"aL.	c #AB6442",
"bL.	c #200602",
"cL.	c #6F371A",
"dL.	c #BE7049",
"eL.	c #9E5537",
"fL.	c #8C4F2D",
"gL.	c #885940",
"hL.	c #2F150C",
"iL.	c #331916",
"jL.	c #4C2B24",
"kL.	c #0C0002",
"lL.	c #27191D",
"mL.	c #160F21",
"nL.	c #0E0A1D",
"oL.	c #1B1B2D",
"pL.	c #171A2A",
"qL.	c #1D1F2E",
"rL.	c #232130",
"sL.	c #1E1926",
"tL.	c #281C27",
"uL.	c #281520",
"vL.	c #28131F",
"wL.	c #2A1929",
"xL.	c #2B1E2E",
"yL.	c #302231",
"zL.	c #3B2538",
"AL.	c #432639",
"BL.	c #4A2435",
"CL.	c #461C29",
"DL.	c #110915",
"EL.	c #0D050C",
"FL.	c #090208",
"GL.	c #070207",
"HL.	c #120618",
"IL.	c #190A1C",
"JL.	c #1A0F1D",
"KL.	c #180F1A",
"LL.	c #161118",
"ML.	c #180F18",
"NL.	c #170C16",
"OL.	c #130A13",
"PL.	c #0F060E",
"QL.	c #130D14",
"RL.	c #170F19",
"SL.	c #130B17",
"TL.	c #1E0116",
"UL.	c #290121",
"VL.	c #2C012C",
"WL.	c #29032A",
"XL.	c #1F031B",
"YL.	c #180015",
"ZL.	c #130010",
"`L.	c #12040C",
" M.	c #1F0514",
".M.	c #320922",
"+M.	c #390726",
"@M.	c #380627",
"#M.	c #27041A",
"$M.	c #2B041A",
"%M.	c #2F011C",
"&M.	c #1A020E",
"*M.	c #280615",
"=M.	c #260314",
"-M.	c #240312",
";M.	c #1A000A",
">M.	c #290413",
",M.	c #140006",
"'M.	c #2C0715",
")M.	c #160208",
"!M.	c #310610",
"~M.	c #26060A",
"{M.	c #2A060A",
"]M.	c #440C14",
"^M.	c #1F0606",
"/M.	c #541D1E",
"(M.	c #200703",
"_M.	c #1B0402",
":M.	c #6A2D28",
"<M.	c #3B120F",
"[M.	c #150100",
"}M.	c #84482B",
"|M.	c #502013",
"1M.	c #AE6542",
"2M.	c #512618",
"3M.	c #371205",
"4M.	c #D38156",
"5M.	c #210C07",
"6M.	c #6D301F",
"7M.	c #AA653F",
"8M.	c #6A4738",
"9M.	c #3F2016",
"0M.	c #230E0E",
"aM.	c #452A26",
"bM.	c #21151B",
"cM.	c #0C0307",
"dM.	c #130B14",
"eM.	c #0D0615",
"fM.	c #140F21",
"gM.	c #111223",
"hM.	c #181B2B",
"iM.	c #1D222F",
"jM.	c #1C1F2B",
"kM.	c #24232F",
"lM.	c #221B24",
"mM.	c #2B1620",
"nM.	c #2B1521",
"oM.	c #2D1C2B",
"pM.	c #2D2030",
"qM.	c #362635",
"rM.	c #3E2639",
"sM.	c #49283B",
"tM.	c #4C2130",
"uM.	c #4B1A24",
"vM.	c #09030B",
"wM.	c #160B18",
"xM.	c #1A0E1C",
"yM.	c #1C101E",
"zM.	c #1D111F",
"AM.	c #19101A",
"BM.	c #130F14",
"CM.	c #0E090F",
"DM.	c #080309",
"EM.	c #180F1D",
"FM.	c #160213",
"GM.	c #280120",
"HM.	c #310127",
"IM.	c #2F0327",
"JM.	c #1D0016",
"KM.	c #200517",
"LM.	c #2F091F",
"MM.	c #380A24",
"NM.	c #3A0625",
"OM.	c #360521",
"PM.	c #33021D",
"QM.	c #260111",
"RM.	c #2B0514",
"SM.	c #230310",
"TM.	c #280413",
"UM.	c #24000F",
"VM.	c #23020E",
"WM.	c #300412",
"XM.	c #0B0001",
"YM.	c #1A0104",
"ZM.	c #3B0910",
"`M.	c #170203",
" N.	c #491116",
".N.	c #2D090B",
"+N.	c #491D17",
"@N.	c #481B15",
"#N.	c #4F2318",
"$N.	c #6A2E23",
"%N.	c #64331E",
"&N.	c #87422F",
"*N.	c #8A4D2E",
"=N.	c #8D4D2F",
"-N.	c #BF7A4F",
";N.	c #572B1A",
">N.	c #37130E",
",N.	c #B06C4A",
"'N.	c #1E0601",
")N.	c #49271B",
"!N.	c #17090B",
"~N.	c #3A2825",
"{N.	c #0C0106",
"]N.	c #1E121B",
"^N.	c #0E0919",
"/N.	c #131024",
"(N.	c #161A2C",
"_N.	c #151A28",
":N.	c #212833",
"<N.	c #1B1F29",
"[N.	c #24242C",
"}N.	c #251C24",
"|N.	c #29181F",
"1N.	c #2C151D",
"2N.	c #2D1823",
"3N.	c #2F1F2F",
"4N.	c #302334",
"5N.	c #3A2836",
"6N.	c #452B3C",
"7N.	c #4E293B",
"8N.	c #4E1F2C",
"9N.	c #4D1820",
"0N.	c #100815",
"aN.	c #110A14",
"bN.	c #110D14",
"cN.	c #0D0910",
"dN.	c #0F0414",
"eN.	c #15041A",
"fN.	c #150319",
"gN.	c #08030B",
"hN.	c #160C18",
"iN.	c #1B0F1C",
"jN.	c #1E1120",
"kN.	c #1C0E1E",
"lN.	c #170F1D",
"mN.	c #170E1C",
"nN.	c #100714",
"oN.	c #1D0215",
"pN.	c #1A0011",
"qN.	c #2B0120",
"rN.	c #320029",
"sN.	c #310128",
"tN.	c #2B0021",
"uN.	c #22011A",
"vN.	c #1A0013",
"wN.	c #190216",
"xN.	c #210419",
"yN.	c #2D081F",
"zN.	c #390C23",
"AN.	c #3C0823",
"BN.	c #3F0725",
"CN.	c #280318",
"DN.	c #300318",
"EN.	c #390318",
"FN.	c #22000C",
"GN.	c #300516",
"HN.	c #270112",
"IN.	c #2D0113",
"JN.	c #380216",
"KN.	c #0B0106",
"LN.	c #3B0615",
"MN.	c #38070F",
"NN.	c #35090C",
"ON.	c #330A0D",
"PN.	c #53171A",
"QN.	c #280F07",
"RN.	c #6C2C24",
"SN.	c #210303",
"TN.	c #270F05",
"UN.	c #8C422F",
"VN.	c #270905",
"WN.	c #361107",
"XN.	c #A65A3F",
"YN.	c #260905",
"ZN.	c #542412",
"`N.	c #BA6A42",
" O.	c #905B3A",
".O.	c #8B4A31",
"+O.	c #A0634D",
"@O.	c #35140C",
"#O.	c #351F1B",
"$O.	c #4B2B22",
"%O.	c #110607",
"&O.	c #342424",
"*O.	c #1B1019",
"=O.	c #100B15",
"-O.	c #110E1F",
";O.	c #121025",
">O.	c #1A1F30",
",O.	c #161E2C",
"'O.	c #252C37",
")O.	c #20222C",
"!O.	c #26232B",
"~O.	c #291D23",
"{O.	c #2B181F",
"]O.	c #2E161F",
"^O.	c #311A26",
"/O.	c #332232",
"(O.	c #352838",
"_O.	c #3E2D3A",
":O.	c #492D3D",
"<O.	c #502738",
"[O.	c #501D28",
"}O.	c #511A1F",
"|O.	c #0F0A14",
"1O.	c #130D17",
"2O.	c #16041C",
"3O.	c #17051D",
"4O.	c #18061E",
"5O.	c #18061D",
"6O.	c #14051D",
"7O.	c #17041D",
"8O.	c #1A041D",
"9O.	c #1B031E",
"0O.	c #13051D",
"aO.	c #130714",
"bO.	c #050207",
"cO.	c #0D070F",
"dO.	c #140B16",
"eO.	c #1B0F1D",
"fO.	c #1F1220",
"gO.	c #1E131F",
"hO.	c #190E1B",
"iO.	c #1B0D20",
"jO.	c #150A15",
"kO.	c #160B1B",
"lO.	c #0D0410",
"mO.	c #0F030D",
"nO.	c #1F011B",
"oO.	c #1A0216",
"pO.	c #160216",
"qO.	c #2A0126",
"rO.	c #31002B",
"sO.	c #33002B",
"tO.	c #2D0026",
"uO.	c #23011E",
"vO.	c #1C0116",
"wO.	c #210218",
"xO.	c #2E071E",
"yO.	c #3B0C25",
"zO.	c #3F0B24",
"AO.	c #3F0A25",
"BO.	c #350A22",
"CO.	c #24020E",
"DO.	c #40021C",
"EO.	c #240412",
"FO.	c #2F0517",
"GO.	c #130109",
"HO.	c #370416",
"IO.	c #150107",
"JO.	c #330212",
"KO.	c #24030A",
"LO.	c #3D0612",
"MO.	c #1A0107",
"NO.	c #4C0E10",
"OO.	c #150302",
"PO.	c #5B1D19",
"QO.	c #310B08",
"RO.	c #6C2B1F",
"SO.	c #491D14",
"TO.	c #853D28",
"UO.	c #582A1C",
"VO.	c #9C5739",
"WO.	c #622A20",
"XO.	c #280501",
"YO.	c #C37048",
"ZO.	c #331407",
"`O.	c #5F3227",
" P.	c #AA633F",
".P.	c #844F44",
"+P.	c #4C2418",
"@P.	c #211212",
"#P.	c #472C2D",
"$P.	c #110301",
"%P.	c #321D1F",
"&P.	c #13010A",
"*P.	c #1A0E17",
"=P.	c #0E0B15",
"-P.	c #111222",
";P.	c #101325",
">P.	c #1F2535",
",P.	c #1A2131",
"'P.	c #282B3B",
")P.	c #272430",
"!P.	c #2A2128",
"~P.	c #2B1B21",
"{P.	c #2B171E",
"]P.	c #2F1520",
"^P.	c #361F2C",
"/P.	c #382433",
"(P.	c #392A37",
"_P.	c #412F3A",
":P.	c #4E303F",
"<P.	c #512533",
"[P.	c #4F1920",
"}P.	c #541818",
"|P.	c #19051D",
"1P.	c #19061C",
"2P.	c #140617",
"3P.	c #180421",
"4P.	c #190520",
"5P.	c #19061D",
"6P.	c #18081D",
"7P.	c #18091C",
"8P.	c #17091B",
"9P.	c #0B080C",
"0P.	c #120E14",
"aP.	c #1A121E",
"bP.	c #19101E",
"cP.	c #0C0311",
"dP.	c #140B15",
"eP.	c #150C16",
"fP.	c #1A0517",
"gP.	c #180215",
"hP.	c #1A0017",
"iP.	c #280222",
"jP.	c #340029",
"kP.	c #320127",
"lP.	c #28021C",
"mP.	c #300520",
"nP.	c #390A24",
"oP.	c #410F28",
"pP.	c #3F0B26",
"qP.	c #3C0D26",
"rP.	c #220513",
"sP.	c #360318",
"tP.	c #380618",
"uP.	c #1D020D",
"vP.	c #3B0219",
"wP.	c #140008",
"xP.	c #2F0311",
"yP.	c #190106",
"zP.	c #370815",
"AP.	c #170004",
"BP.	c #22060D",
"CP.	c #3F0F12",
"DP.	c #3B0F15",
"EP.	c #401511",
"FP.	c #5B2217",
"GP.	c #461914",
"HP.	c #703927",
"IP.	c #130100",
"JP.	c #592415",
"KP.	c #864B36",
"LP.	c #763C26",
"MP.	c #915136",
"NP.	c #A46040",
"OP.	c #603623",
"PP.	c #38120B",
"QP.	c #AB6C49",
"RP.	c #623730",
"SP.	c #563024",
"TP.	c #412629",
"UP.	c #110402",
"VP.	c #29171A",
"WP.	c #180D17",
"XP.	c #0F0911",
"YP.	c #0F0C18",
"ZP.	c #161829",
"`P.	c #131729",
" Q.	c #232937",
".Q.	c #222735",
"+Q.	c #292A38",
"@Q.	c #2C2731",
"#Q.	c #2A1E25",
"$Q.	c #2E1B20",
"%Q.	c #2E181E",
"&Q.	c #311924",
"*Q.	c #3B2935",
"=Q.	c #3F2D3A",
"-Q.	c #47313C",
";Q.	c #522F3C",
">Q.	c #52212D",
",Q.	c #521A20",
"'Q.	c #531718",
")Q.	c #16071C",
"!Q.	c #18011E",
"~Q.	c #18021E",
"{Q.	c #1B0622",
"]Q.	c #1C0822",
"^Q.	c #1C0B20",
"/Q.	c #190C1B",
"(Q.	c #170D19",
"_Q.	c #120C15",
":Q.	c #0F0A12",
"<Q.	c #130A18",
"[Q.	c #1C0F22",
"}Q.	c #1C1223",
"|Q.	c #160F1D",
"1Q.	c #1B101C",
"2Q.	c #0E0514",
"3Q.	c #0F000E",
"4Q.	c #1F021D",
"5Q.	c #1A0217",
"6Q.	c #190213",
"7Q.	c #290320",
"8Q.	c #340028",
"9Q.	c #3B002D",
"0Q.	c #320126",
"aQ.	c #2E0020",
"bQ.	c #330222",
"cQ.	c #390825",
"dQ.	c #41102A",
"eQ.	c #420D29",
"fQ.	c #410C27",
"gQ.	c #330C1D",
"hQ.	c #230410",
"iQ.	c #43031B",
"jQ.	c #2C0312",
"kQ.	c #3B0116",
"lQ.	c #290512",
"mQ.	c #1D0006",
"nQ.	c #3B0614",
"oQ.	c #180205",
"pQ.	c #310611",
"qQ.	c #32050E",
"rQ.	c #26080C",
"sQ.	c #410F1A",
"tQ.	c #230508",
"uQ.	c #561A24",
"vQ.	c #1B0303",
"wQ.	c #1D0603",
"xQ.	c #702D1E",
"yQ.	c #2D0B09",
"zQ.	c #7F412A",
"AQ.	c #3C160A",
"BQ.	c #260701",
"CQ.	c #9A563B",
"DQ.	c #321210",
"EQ.	c #40180D",
"FQ.	c #AE683E",
"GQ.	c #1C0400",
"HQ.	c #72402C",
"IQ.	c #8D563D",
"JQ.	c #1E0100",
"KQ.	c #986547",
"LQ.	c #2D150D",
"MQ.	c #40201C",
"NQ.	c #593728",
"OQ.	c #130605",
"PQ.	c #3B1F26",
"QQ.	c #23151A",
"RQ.	c #150B14",
"SQ.	c #100B17",
"TQ.	c #0F0E1D",
"UQ.	c #1A1E2F",
"VQ.	c #181E2F",
"WQ.	c #252A38",
"XQ.	c #2A2D38",
"YQ.	c #2B2B34",
"ZQ.	c #302830",
"`Q.	c #2E1E26",
" R.	c #31191D",
".R.	c #32171F",
"+R.	c #3B2633",
"@R.	c #3E2B37",
"#R.	c #45323B",
"$R.	c #4F343D",
"%R.	c #552C36",
"&R.	c #541D27",
"*R.	c #541A1F",
"=R.	c #4E1617",
"-R.	c #0F0111",
";R.	c #1A0520",
">R.	c #1A0620",
",R.	c #1A081E",
"'R.	c #1A0A1E",
")R.	c #1B0B1D",
"!R.	c #1C0F1F",
"~R.	c #190F1C",
"{R.	c #0A060D",
"]R.	c #140E19",
"^R.	c #17131E",
"/R.	c #120815",
"(R.	c #0A040A",
"_R.	c #1C0517",
":R.	c #1A0415",
"<R.	c #2B0223",
"[R.	c #36002B",
"}R.	c #35002A",
"|R.	c #340127",
"1R.	c #350124",
"2R.	c #390424",
"3R.	c #420B29",
"4R.	c #450E2C",
"5R.	c #450D2A",
"6R.	c #410F24",
"7R.	c #1E040E",
"8R.	c #3D0217",
"9R.	c #3D031B",
"0R.	c #0D030A",
"aR.	c #27020D",
"bR.	c #3B0919",
"cR.	c #330610",
"dR.	c #330912",
"eR.	c #1F0207",
"fR.	c #420C18",
"gR.	c #170103",
"hR.	c #4A1319",
"iR.	c #2A0809",
"jR.	c #4E1A1D",
"kR.	c #421413",
"lR.	c #5C251B",
"mR.	c #5A261E",
"nR.	c #6A3222",
"oR.	c #713625",
"pR.	c #8B4A2E",
"qR.	c #6C3625",
"rR.	c #A76539",
"sR.	c #461F0E",
"tR.	c #411E14",
"uR.	c #A5654A",
"vR.	c #7A5139",
"wR.	c #44241C",
"xR.	c #28100C",
"yR.	c #55362A",
"zR.	c #351A23",
"AR.	c #0F0505",
"BR.	c #1C1318",
"CR.	c #140F1E",
"DR.	c #121224",
"ER.	c #1C2131",
"FR.	c #212636",
"GR.	c #272A37",
"HR.	c #2E3038",
"IR.	c #2C2A2E",
"JR.	c #302429",
"KR.	c #311C25",
"LR.	c #35161B",
"MR.	c #35181E",
"NR.	c #3D2936",
"OR.	c #412D37",
"PR.	c #49343B",
"QR.	c #55343C",
"RR.	c #56262E",
"SR.	c #581C22",
"TR.	c #561A1E",
"UR.	c #4E1619",
"VR.	c #110A12",
"WR.	c #120817",
"XR.	c #0B020A",
"YR.	c #1A081D",
"ZR.	c #1B081D",
"`R.	c #1D0920",
" S.	c #1E0923",
".S.	c #1E0B23",
"+S.	c #1D0C21",
"@S.	c #1C0E20",
"#S.	c #1E1021",
"$S.	c #1D0F22",
"%S.	c #190D1F",
"&S.	c #160B1A",
"*S.	c #110912",
"=S.	c #0A050A",
"-S.	c #1B0F20",
";S.	c #150B18",
">S.	c #0E0715",
",S.	c #13030B",
"'S.	c #220318",
")S.	c #1E031A",
"!S.	c #2D0127",
"~S.	c #33002C",
"{S.	c #36022C",
"]S.	c #360025",
"^S.	c #3C0124",
"/S.	c #430526",
"(S.	c #480D2C",
"_S.	c #480E2B",
":S.	c #490F26",
"<S.	c #320E1B",
"[S.	c #2C0111",
"}S.	c #470421",
"|S.	c #2A0416",
"1S.	c #0B0102",
"2S.	c #400718",
"3S.	c #360312",
"4S.	c #1D0105",
"5S.	c #460817",
"6S.	c #1C0206",
"7S.	c #3F0914",
"8S.	c #310B10",
"9S.	c #3B0B0B",
"0S.	c #4E1517",
"aS.	c #2D0D09",
"bS.	c #68231F",
"cS.	c #320D0B",
"dS.	c #7B3926",
"eS.	c #170902",
"fS.	c #3E120E",
"gS.	c #974A36",
"hS.	c #100602",
"iS.	c #5E280F",
"jS.	c #A25433",
"kS.	c #834A24",
"lS.	c #7B4127",
"mS.	c #1B0401",
"nS.	c #A36046",
"oS.	c #1E0B06",
"pS.	c #5A3724",
"qS.	c #593126",
"rS.	c #1A0402",
"sS.	c #4C3125",
"tS.	c #110508",
"uS.	c #2E131F",
"vS.	c #0F0709",
"wS.	c #150F15",
"xS.	c #161022",
"yS.	c #17172B",
"zS.	c #1B2132",
"AS.	c #272D3D",
"BS.	c #282C37",
"CS.	c #2E3236",
"DS.	c #2E2A2C",
"ES.	c #302225",
"FS.	c #341C25",
"GS.	c #381619",
"HS.	c #3B1C21",
"IS.	c #3F2835",
"JS.	c #45333A",
"KS.	c #4D363B",
"LS.	c #563138",
"MS.	c #562128",
"NS.	c #5A1A1E",
"OS.	c #56191B",
"PS.	c #4C1518",
"QS.	c #0E060F",
"RS.	c #150617",
"SS.	c #140116",
"TS.	c #190117",
"US.	c #1C0118",
"VS.	c #1E0118",
"WS.	c #1E0318",
"XS.	c #1E0418",
"YS.	c #1E0519",
"ZS.	c #1D0517",
"`S.	c #1A0514",
" T.	c #160410",
".T.	c #120616",
"+T.	c #190C1D",
"@T.	c #1E0F23",
"#T.	c #1E0F24",
"$T.	c #1F1023",
"%T.	c #201123",
"&T.	c #1A0D1D",
"*T.	c #0F0910",
"=T.	c #1A111C",
"-T.	c #170A1B",
";T.	c #0B0413",
">T.	c #07030E",
",T.	c #0E0916",
"'T.	c #25031C",
")T.	c #2D0222",
"!T.	c #310027",
"~T.	c #38002C",
"{T.	c #3C012A",
"]T.	c #410426",
"^T.	c #450A28",
"/T.	c #4A0D2B",
"(T.	c #4D0C28",
"_T.	c #440F26",
":T.	c #1B020D",
"<T.	c #18010A",
"[T.	c #42061D",
"}T.	c #41051A",
"|T.	c #130005",
"1T.	c #2E0310",
"2T.	c #490818",
"3T.	c #120202",
"4T.	c #400714",
"5T.	c #41080C",
"6T.	c #26030B",
"7T.	c #4F1216",
"8T.	c #150201",
"9T.	c #160200",
"0T.	c #5E1A14",
"aT.	c #2D0709",
"bT.	c #672518",
"cT.	c #3D1510",
"dT.	c #7A3420",
"eT.	c #51200F",
"fT.	c #8E483A",
"gT.	c #422210",
"hT.	c #260800",
"iT.	c #AF6036",
"jT.	c #230C0D",
"kT.	c #512513",
"lT.	c #9B5936",
"mT.	c #854F40",
"nT.	c #351C13",
"oT.	c #372117",
"pT.	c #623726",
"qT.	c #0C0303",
"rT.	c #422928",
"sT.	c #170407",
"tT.	c #251017",
"uT.	c #11060B",
"vT.	c #131423",
"wT.	c #1B1E2E",
"xT.	c #202432",
"yT.	c #2D303D",
"zT.	c #2B2E39",
"AT.	c #312F34",
"BT.	c #342A2B",
"CT.	c #351F22",
"DT.	c #381820",
"ET.	c #3A151B",
"FT.	c #3F2127",
"GT.	c #3E2B35",
"HT.	c #402E38",
"IT.	c #4B333B",
"JT.	c #55363C",
"KT.	c #572D35",
"LT.	c #571F25",
"MT.	c #5B191E",
"NT.	c #55161A",
"OT.	c #491417",
"PT.	c #180217",
"QT.	c #1D021B",
"RT.	c #1E031C",
"ST.	c #21031C",
"TT.	c #24041C",
"UT.	c #26051C",
"VT.	c #28071D",
"WT.	c #26081E",
"XT.	c #25081C",
"YT.	c #25081B",
"ZT.	c #240718",
"`T.	c #220516",
" U.	c #1D0514",
".U.	c #1D0714",
"+U.	c #1A0610",
"@U.	c #19050F",
"#U.	c #11030A",
"$U.	c #1A0C1C",
"%U.	c #1F1022",
"&U.	c #201024",
"*U.	c #1F1123",
"=U.	c #1B1020",
"-U.	c #1C1221",
";U.	c #190E1E",
">U.	c #0F0916",
",U.	c #110B17",
"'U.	c #11060F",
")U.	c #1A0314",
"!U.	c #1E0416",
"~U.	c #15000C",
"{U.	c #25011B",
"]U.	c #2E0125",
"^U.	c #36002E",
"/U.	c #3C002D",
"(U.	c #3E0228",
"_U.	c #450728",
":U.	c #4C0B2B",
"<U.	c #500A2B",
"[U.	c #4C112B",
"}U.	c #2E0D1C",
"|U.	c #330514",
"1U.	c #470B1E",
"2U.	c #26060F",
"3U.	c #4A0919",
"4U.	c #2F0A0E",
"5U.	c #240308",
"6U.	c #511214",
"7U.	c #190504",
"8U.	c #0F0001",
"9U.	c #4D1415",
"0U.	c #360F0D",
"aU.	c #49140D",
"bU.	c #551C19",
"cU.	c #47160F",
"dU.	c #662C22",
"eU.	c #511F16",
"fU.	c #803D24",
"gU.	c #653027",
"hU.	c #7A4427",
"iU.	c #925130",
"jU.	c #552B1E",
"kU.	c #270804",
"lU.	c #9D603F",
"mU.	c #210801",
"nU.	c #613830",
"oU.	c #210E0A",
"pU.	c #613728",
"qU.	c #080204",
"rU.	c #351E22",
"sU.	c #190608",
"tU.	c #1D0D12",
"uU.	c #13060D",
"vU.	c #120810",
"wU.	c #242A37",
"xU.	c #2F333F",
"yU.	c #33333C",
"zU.	c #352F34",
"AU.	c #381C20",
"BU.	c #39151D",
"CU.	c #3E171F",
"DU.	c #42252C",
"EU.	c #412F37",
"FU.	c #433139",
"GU.	c #51343C",
"HU.	c #5A353C",
"IU.	c #55292F",
"JU.	c #581F25",
"KU.	c #5A191E",
"LU.	c #53151A",
"MU.	c #440F13",
"NU.	c #110812",
"OU.	c #1E0319",
"PU.	c #23031C",
"QU.	c #28041D",
"RU.	c #29051E",
"SU.	c #29081D",
"TU.	c #28091C",
"UU.	c #26091B",
"VU.	c #230819",
"WU.	c #220617",
"XU.	c #220515",
"YU.	c #230513",
"ZU.	c #220614",
"`U.	c #240716",
" V.	c #240815",
".V.	c #230813",
"+V.	c #220A12",
"@V.	c #220B13",
"#V.	c #220C11",
"$V.	c #1D0B0F",
"%V.	c #16090D",
"&V.	c #10060A",
"*V.	c #040303",
"=V.	c #130A17",
"-V.	c #211325",
";V.	c #120916",
">V.	c #1E1123",
",V.	c #100A18",
"'V.	c #10060E",
")V.	c #210319",
"!V.	c #1A0015",
"~V.	c #3D002A",
"{V.	c #43032A",
"]V.	c #4B052B",
"^V.	c #4F072C",
"/V.	c #4D0F2B",
"(V.	c #3B1426",
"_V.	c #15040E",
":V.	c #3F0D1D",
"<V.	c #0C0203",
"[V.	c #380610",
"}V.	c #480F1A",
"|V.	c #1A0102",
"1V.	c #411213",
"2V.	c #3E0D13",
"3V.	c #2F0D0C",
"4V.	c #541B1C",
"5V.	c #250705",
"6V.	c #65291B",
"7V.	c #200806",
"8V.	c #200404",
"9V.	c #773626",
"0V.	c #300C04",
"aV.	c #1D0607",
"bV.	c #85482D",
"cV.	c #321104",
"dV.	c #310E09",
"eV.	c #985732",
"fV.	c #1D0300",
"gV.	c #5E3121",
"hV.	c #82492E",
"iV.	c #845139",
"jV.	c #381B0C",
"kV.	c #40201D",
"lV.	c #553A2B",
"mV.	c #180503",
"nV.	c #5A3029",
"oV.	c #2A181B",
"pV.	c #18090C",
"qV.	c #170911",
"rV.	c #11060E",
"sV.	c #181126",
"tV.	c #1A1C30",
"uV.	c #212839",
"vV.	c #27313E",
"wV.	c #2F353E",
"xV.	c #36343A",
"yV.	c #372C30",
"zV.	c #3A2326",
"AV.	c #391A1E",
"BV.	c #38151C",
"CV.	c #3F1C23",
"DV.	c #452A31",
"EV.	c #433037",
"FV.	c #4A343B",
"GV.	c #57373D",
"HV.	c #5B3237",
"IV.	c #57272B",
"JV.	c #571E21",
"KV.	c #57181B",
"LV.	c #4E1417",
"MV.	c #410F13",
"NV.	c #120913",
"OV.	c #180416",
"PV.	c #1D061A",
"QV.	c #22051B",
"RV.	c #26061E",
"SV.	c #29071F",
"TV.	c #2B081E",
"UV.	c #29081B",
"VV.	c #27081A",
"WV.	c #1D0410",
"XV.	c #1D030F",
"YV.	c #21040F",
"ZV.	c #23060F",
"`V.	c #280912",
" W.	c #2B0C14",
".W.	c #2F0C16",
"+W.	c #330E17",
"@W.	c #341319",
"#W.	c #33171A",
"$W.	c #311719",
"%W.	c #2C1316",
"&W.	c #241011",
"*W.	c #0B0507",
"=W.	c #040304",
"-W.	c #1C0D20",
";W.	c #221325",
">W.	c #1A0D1E",
",W.	c #150A1B",
"'W.	c #0F050F",
")W.	c #1F0517",
"!W.	c #1E011A",
"~W.	c #2B0123",
"{W.	c #340027",
"]W.	c #3B002C",
"^W.	c #40002C",
"/W.	c #47012C",
"(W.	c #4E062E",
"_W.	c #4E0C2E",
":W.	c #47152C",
"<W.	c #2B0A19",
"[W.	c #330D16",
"}W.	c #47121F",
"|W.	c #24070E",
"1W.	c #1D0205",
"2W.	c #4D121E",
"3W.	c #35070E",
"4W.	c #290A0A",
"5W.	c #53171C",
"6W.	c #190201",
"7W.	c #571D1E",
"8W.	c #320C0C",
"9W.	c #5A2415",
"0W.	c #632B1B",
"aW.	c #612815",
"bW.	c #6C3C22",
"cW.	c #622D1B",
"dW.	c #90502F",
"eW.	c #411C0F",
"fW.	c #2E120B",
"gW.	c #955533",
"hW.	c #60372A",
"iW.	c #4D2C1A",
"jW.	c #260F10",
"kW.	c #563A2B",
"lW.	c #160403",
"mW.	c #4A2628",
"nW.	c #211318",
"oW.	c #120712",
"pW.	c #130916",
"qW.	c #140C1D",
"rW.	c #1A172B",
"sW.	c #1E2235",
"tW.	c #262E3D",
"uW.	c #2E3841",
"vW.	c #31363B",
"wW.	c #3A3335",
"xW.	c #3A292B",
"yW.	c #3D2022",
"zW.	c #3B181C",
"AW.	c #3B181E",
"BW.	c #422128",
"CW.	c #472D35",
"DW.	c #443137",
"EW.	c #4F373C",
"FW.	c #5D383D",
"GW.	c #5C2D31",
"HW.	c #582325",
"IW.	c #561B1D",
"JW.	c #551919",
"KW.	c #491213",
"LW.	c #3F0E12",
"MW.	c #0C060D",
"NW.	c #0E000D",
"OW.	c #140211",
"PW.	c #1D0618",
"QW.	c #21071C",
"RW.	c #26081C",
"SW.	c #1E0614",
"TW.	c #1A0410",
"UW.	c #16010D",
"VW.	c #15020B",
"WW.	c #13020A",
"XW.	c #160309",
"YW.	c #1B040C",
"ZW.	c #260910",
"`W.	c #2A0C13",
" X.	c #2F1016",
".X.	c #351517",
"+X.	c #3D171A",
"@X.	c #481D20",
"#X.	c #492222",
"$X.	c #42241F",
"%X.	c #381F1A",
"&X.	c #321A18",
"*X.	c #271412",
"=X.	c #1B0E0D",
"-X.	c #0D0807",
";X.	c #050303",
">X.	c #221327",
",X.	c #1C0D22",
"'X.	c #1A0E23",
")X.	c #140818",
"!X.	c #1A0D1F",
"~X.	c #160B1C",
"{X.	c #13081A",
"]X.	c #0F050E",
"^X.	c #140714",
"/X.	c #200316",
"(X.	c #2E0121",
"_X.	c #350028",
":X.	c #3B002B",
"<X.	c #43002E",
"[X.	c #49022C",
"}X.	c #4E072C",
"|X.	c #4E102D",
"1X.	c #420F24",
"2X.	c #110003",
"3X.	c #21050A",
"4X.	c #48111E",
"5X.	c #400D1A",
"6X.	c #390E14",
"7X.	c #50101E",
"8X.	c #501A1A",
"9X.	c #3D0F0E",
"0X.	c #3D1811",
"aX.	c #5D1F19",
"bX.	c #36100A",
"cX.	c #702F20",
"dX.	c #0F0501",
"eX.	c #351009",
"fX.	c #803D25",
"gX.	c #130500",
"hX.	c #3D1C11",
"iX.	c #864530",
"jX.	c #673523",
"kX.	c #6B3A25",
"lX.	c #8B5130",
"mX.	c #331309",
"nX.	c #3C1C17",
"oX.	c #5C3725",
"pX.	c #1A060A",
"qX.	c #533526",
"rX.	c #130505",
"sX.	c #3B2128",
"tX.	c #130813",
"uX.	c #141220",
"vX.	c #1C202E",
"wX.	c #2B333C",
"xX.	c #323A3E",
"yX.	c #353738",
"zX.	c #3A3131",
"AX.	c #3B2625",
"BX.	c #3E1C1D",
"CX.	c #3D1719",
"DX.	c #3E1B20",
"EX.	c #45272D",
"FX.	c #472F36",
"GX.	c #48343A",
"HX.	c #543B3F",
"IX.	c #5F363A",
"JX.	c #5D292C",
"KX.	c #591F20",
"LX.	c #551A19",
"MX.	c #511715",
"NX.	c #451010",
"OX.	c #3D0E11",
"PX.	c #0D070E",
"QX.	c #0F0810",
"RX.	c #110611",
"SX.	c #180715",
"TX.	c #1C0819",
"UX.	c #20071B",
"VX.	c #1F0618",
"WX.	c #1F0717",
"XX.	c #1D0415",
"YX.	c #0F0206",
"ZX.	c #130308",
"`X.	c #16040B",
" Y.	c #19080E",
".Y.	c #220B11",
"+Y.	c #2C1015",
"@Y.	c #331316",
"#Y.	c #3C191B",
"$Y.	c #492620",
"%Y.	c #593029",
"&Y.	c #5F312B",
"*Y.	c #582E26",
"=Y.	c #4D2C22",
"-Y.	c #40251D",
";Y.	c #341D1A",
">Y.	c #271713",
",Y.	c #160D0B",
"'Y.	c #070302",
")Y.	c #190B1B",
"!Y.	c #241229",
"~Y.	c #150E17",
"{Y.	c #1E1022",
"]Y.	c #1A0F1F",
"^Y.	c #0C0312",
"/Y.	c #0F0516",
"(Y.	c #1C0213",
"_Y.	c #1C0514",
":Y.	c #26011A",
"<Y.	c #2E0123",
"[Y.	c #3D002E",
"}Y.	c #43002D",
"|Y.	c #4A032C",
"1Y.	c #4C082A",
"2Y.	c #4C0F2A",
"3Y.	c #240612",
"4Y.	c #3F0F1A",
"5Y.	c #4F1122",
"6Y.	c #20050C",
"7Y.	c #210508",
"8Y.	c #561522",
"9Y.	c #2C090D",
"0Y.	c #38100C",
"aY.	c #5C1C1B",
"bY.	c #1A0802",
"cY.	c #70241C",
"dY.	c #220906",
"eY.	c #732F1A",
"fY.	c #36190E",
"gY.	c #7A3D27",
"hY.	c #3E1D0C",
"iY.	c #874634",
"jY.	c #2C1606",
"kY.	c #361410",
"lY.	c #834A2F",
"mY.	c #673D26",
"nY.	c #502715",
"oY.	c #220B09",
"pY.	c #5D382D",
"qY.	c #190307",
"rY.	c #462B21",
"sY.	c #170809",
"tY.	c #2D1820",
"uY.	c #15080A",
"vY.	c #150B13",
"wY.	c #150D1D",
"xY.	c #151824",
"yY.	c #1C2530",
"zY.	c #28323C",
"AY.	c #30383F",
"BY.	c #383B3C",
"CY.	c #393634",
"DY.	c #3B2E2C",
"EY.	c #3F2323",
"FY.	c #40191B",
"GY.	c #3D1619",
"HY.	c #411E22",
"IY.	c #492B32",
"JY.	c #483137",
"KY.	c #4D383C",
"LY.	c #573C3F",
"MY.	c #5F3336",
"NY.	c #5F272A",
"OY.	c #5A1D1D",
"PY.	c #561B19",
"QY.	c #491312",
"RY.	c #400F10",
"SY.	c #3A0D0F",
"TY.	c #120611",
"UY.	c #1B0211",
"VY.	c #110308",
"WY.	c #0E0104",
"XY.	c #0B0107",
"YY.	c #160308",
"ZY.	c #19080F",
"`Y.	c #1B1015",
" Z.	c #271415",
".Z.	c #361715",
"+Z.	c #4C221B",
"@Z.	c #643429",
"#Z.	c #764233",
"$Z.	c #774230",
"%Z.	c #703D2A",
"&Z.	c #653827",
"*Z.	c #583326",
"=Z.	c #492B24",
"-Z.	c #351E1D",
";Z.	c #1E110E",
">Z.	c #211329",
",Z.	c #201029",
"'Z.	c #110518",
")Z.	c #1F1024",
"!Z.	c #0C0514",
"~Z.	c #0D0515",
"{Z.	c #110311",
"]Z.	c #1C0112",
"^Z.	c #1B0013",
"/Z.	c #280221",
"(Z.	c #300126",
"_Z.	c #38002B",
":Z.	c #3F002E",
"<Z.	c #44012E",
"[Z.	c #46042B",
"}Z.	c #4B0C2C",
"|Z.	c #330C21",
"1Z.	c #290B11",
"2Z.	c #4D1624",
"3Z.	c #370F17",
"4Z.	c #45161A",
"5Z.	c #451516",
"6Z.	c #1D0502",
"7Z.	c #5E211A",
"8Z.	c #290E08",
"9Z.	c #5C1F19",
"0Z.	c #4C1E16",
"aZ.	c #4E210F",
"bZ.	c #6B291C",
"cZ.	c #502B1F",
"dZ.	c #6E351B",
"eZ.	c #673626",
"fZ.	c #573213",
"gZ.	c #140204",
"hZ.	c #7E472F",
"iZ.	c #270A03",
"jZ.	c #3C2418",
"kZ.	c #5F351E",
"lZ.	c #523332",
"mZ.	c #1C0503",
"nZ.	c #322220",
"oZ.	c #1D080A",
"pZ.	c #251117",
"qZ.	c #13070D",
"rZ.	c #130A1A",
"sZ.	c #1C1E2B",
"tZ.	c #232B38",
"uZ.	c #2B3742",
"vZ.	c #343B42",
"wZ.	c #3D3A3B",
"xZ.	c #3E3431",
"yZ.	c #3B2A27",
"zZ.	c #402023",
"AZ.	c #43171E",
"BZ.	c #3E141A",
"CZ.	c #462327",
"DZ.	c #4B2F34",
"EZ.	c #493335",
"FZ.	c #523B3B",
"GZ.	c #5B3A3C",
"HZ.	c #5F2F34",
"IZ.	c #5D2226",
"JZ.	c #591D1A",
"KZ.	c #4F1816",
"LZ.	c #431112",
"MZ.	c #3B0C10",
"NZ.	c #390C11",
"OZ.	c #100610",
"PZ.	c #0E0412",
"QZ.	c #120512",
"RZ.	c #0E0809",
"SZ.	c #1D0D0B",
"TZ.	c #2D110C",
"UZ.	c #452117",
"VZ.	c #693826",
"WZ.	c #894D36",
"XZ.	c #98563A",
"YZ.	c #975034",
"ZZ.	c #8D492E",
"`Z.	c #80472E",
" `.	c #6E422D",
".`.	c #593929",
"+`.	c #402A21",
"@`.	c #1F110F",
"#`.	c #090301",
"$`.	c #09050D",
"%`.	c #22132A",
"&`.	c #190E20",
"*`.	c #0E0515",
"=`.	c #160C1D",
"-`.	c #16091C",
";`.	c #0A010F",
">`.	c #0D0513",
",`.	c #16010E",
"'`.	c #1E0018",
")`.	c #2B0020",
"!`.	c #330025",
"~`.	c #3B0029",
"{`.	c #42002B",
"]`.	c #450129",
"^`.	c #49072A",
"/`.	c #3F0E28",
"(`.	c #17010C",
"_`.	c #170408",
":`.	c #441420",
"<`.	c #4A1722",
"[`.	c #140606",
"}`.	c #300C0E",
"|`.	c #561E23",
"1`.	c #1F060A",
"2`.	c #481B18",
"3`.	c #511E1C",
"4`.	c #2E100B",
"5`.	c #672D22",
"6`.	c #180301",
"7`.	c #200B04",
"8`.	c #793627",
"9`.	c #210804",
"0`.	c #260D06",
"a`.	c #80432C",
"b`.	c #160803",
"c`.	c #40190C",
"d`.	c #764328",
"e`.	c #653826",
"f`.	c #402115",
"g`.	c #240D07",
"h`.	c #613B28",
"i`.	c #452829",
"j`.	c #261818",
"k`.	c #1B080B",
"l`.	c #1F0D14",
"m`.	c #130711",
"n`.	c #1C1829",
"o`.	c #212333",
"p`.	c #29313D",
"q`.	c #303841",
"r`.	c #3A3D40",
"s`.	c #3F3934",
"t`.	c #3F312C",
"u`.	c #3D2725",
"v`.	c #401C1E",
"w`.	c #44171C",
"x`.	c #42171C",
"y`.	c #4B2A2C",
"z`.	c #4D3336",
"A`.	c #4D3538",
"B`.	c #573C3E",
"C`.	c #5D3738",
"D`.	c #5E2A2E",
"E`.	c #5B1F23",
"F`.	c #4A1213",
"G`.	c #410C10",
"H`.	c #3D0A10",
"I`.	c #3B0C14",
"J`.	c #0E0710",
"K`.	c #17050C",
"L`.	c #18050D",
"M`.	c #19050E",
"N`.	c #18030E",
"O`.	c #17050D",
"P`.	c #13030A",
"Q`.	c #04040A",
"R`.	c #0B0406",
"S`.	c #160605",
"T`.	c #260E0C",
"U`.	c #472115",
"V`.	c #733E25",
"W`.	c #97593B",
"X`.	c #AF6641",
"Y`.	c #B5653C",
"Z`.	c #B26035",
"``.	c #AC5A33",
"  +	c #9D5332",
". +	c #874E33",
"+ +	c #68432F",
"@ +	c #432C1D",
"# +	c #1C0E07",
"$ +	c #170D1A",
"% +	c #23122E",
"& +	c #210C2C",
"* +	c #1E0F22",
"= +	c #1B0E21",
"- +	c #0F0514",
"; +	c #0E0615",
"> +	c #1C0413",
", +	c #240018",
"' +	c #2D001E",
") +	c #350025",
"! +	c #3E0028",
"~ +	c #430029",
"{ +	c #47042A",
"] +	c #460B2A",
"^ +	c #270515",
"/ +	c #351019",
"( +	c #521A25",
"_ +	c #2D1014",
": +	c #541B20",
"< +	c #3C1417",
"[ +	c #250C0B",
"} +	c #672327",
"| +	c #250504",
"1 +	c #662C1F",
"2 +	c #3E190B",
"3 +	c #692D22",
"4 +	c #4D1F19",
"5 +	c #72392B",
"6 +	c #361F17",
"7 +	c #783F2D",
"8 +	c #1D0704",
"9 +	c #402117",
"0 +	c #543428",
"a +	c #1A0502",
"b +	c #341A1D",
"c +	c #200D0D",
"d +	c #1A080E",
"e +	c #1A0A14",
"f +	c #110C19",
"g +	c #141221",
"h +	c #1E1F2F",
"i +	c #252B3B",
"j +	c #2F3642",
"k +	c #383C41",
"l +	c #413D3A",
"m +	c #43362E",
"n +	c #412D26",
"o +	c #3E2222",
"p +	c #42191C",
"q +	c #44141A",
"r +	c #471C21",
"s +	c #4E2E2E",
"t +	c #4C3334",
"u +	c #523939",
"v +	c #5C3B3B",
"w +	c #5E3234",
"x +	c #5F2629",
"y +	c #5A1D20",
"z +	c #501818",
"A +	c #480F13",
"B +	c #410910",
"C +	c #3D0C14",
"D +	c #350A13",
"E +	c #0D0912",
"F +	c #11030C",
"G +	c #15050E",
"H +	c #1D0811",
"I +	c #230913",
"J +	c #2A0C16",
"K +	c #2F1514",
"L +	c #341415",
"M +	c #351313",
"N +	c #351210",
"O +	c #361412",
"P +	c #301612",
"Q +	c #2A1310",
"R +	c #200D0E",
"S +	c #1A090B",
"T +	c #140608",
"U +	c #1E0A00",
"V +	c #391807",
"W +	c #613018",
"X +	c #8F4C33",
"Y +	c #B36643",
"Z +	c #C97647",
"` +	c #D27745",
" .+	c #D0723D",
"..+	c #CA6E3B",
"+.+	c #C16B3C",
"@.+	c #B06640",
"#.+	c #96593B",
"$.+	c #6B412C",
"%.+	c #382014",
"&.+	c #130802",
"*.+	c #0A050F",
"=.+	c #1B0D1E",
"-.+	c #1C0E1F",
";.+	c #170D1D",
">.+	c #24132C",
",.+	c #241626",
"'.+	c #1F0E22",
").+	c #201124",
"!.+	c #080110",
"~.+	c #230017",
"{.+	c #2C001F",
"].+	c #370026",
"^.+	c #3F0029",
"/.+	c #430229",
"(.+	c #470628",
"_.+	c #33091D",
":.+	c #20090D",
"<.+	c #4D1A21",
"[.+	c #481721",
"}.+	c #0E0102",
"|.+	c #3D1114",
"1.+	c #5D221F",
"2.+	c #461713",
"3.+	c #481D14",
"4.+	c #5E2D1E",
"5.+	c #411A16",
"6.+	c #6B3525",
"7.+	c #4C211B",
"8.+	c #5F322B",
"9.+	c #5E3326",
"0.+	c #361A10",
"a.+	c #5C3625",
"b.+	c #432822",
"c.+	c #210A04",
"d.+	c #281116",
"e.+	c #180E10",
"f.+	c #16070F",
"g.+	c #160713",
"h.+	c #12101E",
"i.+	c #181A29",
"j.+	c #202536",
"k.+	c #2A333E",
"l.+	c #353B41",
"m.+	c #3F3F3E",
"n.+	c #463C36",
"o.+	c #45322B",
"p.+	c #412722",
"q.+	c #421F1F",
"r.+	c #44161A",
"s.+	c #451318",
"t.+	c #4A2123",
"u.+	c #503230",
"v.+	c #4C3432",
"w.+	c #573B3A",
"x.+	c #603A39",
"y.+	c #623031",
"z.+	c #602224",
"A.+	c #591B1D",
"B.+	c #430B10",
"C.+	c #3D0912",
"D.+	c #391119",
"E.+	c #22050C",
"F.+	c #110A11",
"G.+	c #090309",
"H.+	c #17050F",
"I.+	c #271119",
"J.+	c #33161C",
"K.+	c #3C191C",
"L.+	c #471F20",
"M.+	c #4D2725",
"N.+	c #522B27",
"O.+	c #5D302B",
"P.+	c #64332A",
"Q.+	c #653528",
"R.+	c #663827",
"S.+	c #663621",
"T.+	c #62331E",
"U.+	c #592D1B",
"V.+	c #4A2114",
"W.+	c #411C10",
"X.+	c #3A1B0F",
"Y.+	c #381A0E",
"Z.+	c #3E1D11",
"`.+	c #492414",
" ++	c #5C301C",
".++	c #7F3E21",
"+++	c #9C552F",
"@++	c #BA6D3D",
"#++	c #D77E42",
"$++	c #E9843F",
"%++	c #ED8341",
"&++	c #EB8042",
"*++	c #EA7C3B",
"=++	c #E47B3C",
"-++	c #D67741",
";++	c #C06C3F",
">++	c #915535",
",++	c #5D321C",
"'++	c #2B1006",
")++	c #140616",
"!++	c #1C0B1D",
"~++	c #1E0C20",
"{++	c #1F0D24",
"]++	c #21122A",
"^++	c #211129",
"/++	c #130815",
"(++	c #29172C",
"_++	c #1D0D1F",
":++	c #1C101F",
"<++	c #211326",
"[++	c #180D1B",
"}++	c #170111",
"|++	c #23011B",
"1++	c #300024",
"2++	c #380027",
"3++	c #3C0027",
"4++	c #440226",
"5++	c #370B22",
"6++	c #0C0301",
"7++	c #3F1719",
"8++	c #581927",
"9++	c #210C0F",
"0++	c #331014",
"a++	c #3F170B",
"b++	c #60271D",
"c++	c #210908",
"d++	c #683126",
"e++	c #230902",
"f++	c #703B1D",
"g++	c #200A01",
"h++	c #240A0A",
"i++	c #77352F",
"j++	c #0C0501",
"k++	c #382114",
"l++	c #4C281B",
"m++	c #572F1C",
"n++	c #140408",
"o++	c #311B1A",
"p++	c #1F0A10",
"q++	c #1E0D0F",
"r++	c #130B0E",
"s++	c #130D1B",
"t++	c #151423",
"u++	c #252D3D",
"v++	c #2E3A41",
"w++	c #38403F",
"x++	c #423F3A",
"y++	c #493A33",
"z++	c #462D2A",
"A++	c #422322",
"B++	c #431B1C",
"C++	c #451419",
"D++	c #48141A",
"E++	c #512729",
"F++	c #513330",
"G++	c #4F3733",
"H++	c #593D3A",
"I++	c #603736",
"J++	c #622B2B",
"K++	c #5F1E1F",
"L++	c #571619",
"M++	c #460F14",
"N++	c #3E070E",
"O++	c #3D0E17",
"P++	c #2A0C12",
"Q++	c #120308",
"R++	c #120407",
"S++	c #170508",
"T++	c #140205",
"U++	c #1A080F",
"V++	c #271215",
"W++	c #3B1D18",
"X++	c #4C2719",
"Y++	c #592E20",
"Z++	c #663529",
"`++	c #733B2D",
" @+	c #824431",
".@+	c #904D35",
"+@+	c #9B5539",
"@@+	c #AA5C3B",
"#@+	c #B5613F",
"$@+	c #BA6340",
"%@+	c #B9633F",
"&@+	c #B5663E",
"*@+	c #B2653D",
"=@+	c #B66840",
"-@+	c #BD6E42",
";@+	c #C47343",
">@+	c #CE7947",
",@+	c #DB8451",
"'@+	c #E78A51",
")@+	c #F28F4F",
"!@+	c #F68E46",
"~@+	c #F98D3F",
"{@+	c #F98938",
"]@+	c #FA893D",
"^@+	c #FA8742",
"/@+	c #F58141",
"(@+	c #DE7942",
"_@+	c #AF6236",
":@+	c #733C1A",
"<@+	c #371B09",
"[@+	c #140400",
"}@+	c #160708",
"|@+	c #1D0A0B",
"1@+	c #1F0A0F",
"2@+	c #1E0812",
"3@+	c #070104",
"4@+	c #160818",
"5@+	c #180919",
"6@+	c #1B0B1E",
"7@+	c #200D23",
"8@+	c #220D25",
"9@+	c #221022",
"0@+	c #221024",
"a@+	c #230F25",
"b@+	c #261027",
"c@+	c #271126",
"d@+	c #261226",
"e@+	c #311936",
"f@+	c #1E0F21",
"g@+	c #241527",
"h@+	c #180C1E",
"i@+	c #0F0617",
"j@+	c #0E0716",
"k@+	c #1D0214",
"l@+	c #1D0212",
"m@+	c #130007",
"n@+	c #1E0014",
"o@+	c #2C0020",
"p@+	c #3D0125",
"q@+	c #3D0623",
"r@+	c #210310",
"s@+	c #2F1010",
"t@+	c #561D26",
"u@+	c #381618",
"v@+	c #0D0101",
"w@+	c #4D1B18",
"x@+	c #4D1D1B",
"y@+	c #1B0704",
"z@+	c #642922",
"A@+	c #572A1B",
"B@+	c #451C14",
"C@+	c #582E1B",
"D@+	c #461C0E",
"E@+	c #623328",
"F@+	c #2D1107",
"G@+	c #1D0D07",
"H@+	c #562C23",
"I@+	c #42251C",
"J@+	c #1C0C0A",
"K@+	c #241313",
"L@+	c #18070B",
"M@+	c #1B0A0F",
"N@+	c #14070E",
"O@+	c #14101E",
"P@+	c #181929",
"Q@+	c #1F2634",
"R@+	c #33403D",
"S@+	c #3F403C",
"T@+	c #483F39",
"U@+	c #45362F",
"V@+	c #422924",
"W@+	c #441E1F",
"X@+	c #44181B",
"Y@+	c #481519",
"Z@+	c #4C1A1C",
"`@+	c #532D2E",
" #+	c #4D3435",
".#+	c #553B3A",
"+#+	c #5E3B3A",
"@#+	c #633131",
"##+	c #602425",
"$#+	c #591B1C",
"%#+	c #4F1418",
"&#+	c #3E0B10",
"*#+	c #3D0D13",
"=#+	c #371018",
"-#+	c #170006",
";#+	c #21090F",
">#+	c #2C1215",
",#+	c #331B1C",
"'#+	c #391B19",
")#+	c #2D1312",
"!#+	c #0B0103",
"~#+	c #311617",
"{#+	c #4D281E",
"]#+	c #81482D",
"^#+	c #99512F",
"/#+	c #AA562E",
"(#+	c #BC5E31",
"_#+	c #C06831",
":#+	c #D17038",
"<#+	c #E07539",
"[#+	c #E97B38",
"}#+	c #EC8639",
"|#+	c #F4893C",
"1#+	c #FE893E",
"2#+	c #FF8D3D",
"3#+	c #FF8F3C",
"4#+	c #FF8D3B",
"5#+	c #FF8C3B",
"6#+	c #FB8B3B",
"7#+	c #FB8B38",
"8#+	c #FE8A39",
"9#+	c #FF8C3E",
"0#+	c #FF8F47",
"a#+	c #F58D47",
"b#+	c #DE803E",
"c#+	c #B1622C",
"d#+	c #723D1C",
"e#+	c #321D0E",
"f#+	c #0B0805",
"g#+	c #21090A",
"h#+	c #341714",
"i#+	c #42201F",
"j#+	c #4B2626",
"k#+	c #4D2528",
"l#+	c #4A1F25",
"m#+	c #461922",
"n#+	c #401321",
"o#+	c #380F20",
"p#+	c #2E0B1F",
"q#+	c #270A1A",
"r#+	c #190B1D",
"s#+	c #1B0C1F",
"t#+	c #1E0D20",
"u#+	c #200D21",
"v#+	c #230D22",
"w#+	c #210F23",
"x#+	c #231024",
"y#+	c #271226",
"z#+	c #261024",
"A#+	c #270F26",
"B#+	c #271529",
"C#+	c #1F1121",
"D#+	c #261729",
"E#+	c #1E1224",
"F#+	c #1E0317",
"G#+	c #23001A",
"H#+	c #2D0020",
"I#+	c #330022",
"J#+	c #370024",
"K#+	c #390220",
"L#+	c #2A0315",
"M#+	c #1B0607",
"N#+	c #4E1B21",
"O#+	c #4D1C21",
"P#+	c #180406",
"Q#+	c #32100F",
"R#+	c #5C2622",
"S#+	c #180B06",
"T#+	c #50211C",
"U#+	c #481F19",
"V#+	c #39180C",
"W#+	c #5A2D24",
"X#+	c #3A1912",
"Y#+	c #5C2B1D",
"Z#+	c #452519",
"`#+	c #431F13",
" $+	c #502924",
".$+	c #321918",
"+$+	c #1F0F0D",
"@$+	c #1A0B0C",
"#$+	c #210F11",
"$$+	c #16070B",
"%$+	c #15050F",
"&$+	c #120610",
"*$+	c #1B1F30",
"=$+	c #262E3A",
"-$+	c #2E3A40",
";$+	c #39433D",
">$+	c #47423D",
",$+	c #4B3D38",
"'$+	c #43332C",
")$+	c #40251F",
"!$+	c #441B1B",
"~$+	c #47171B",
"{$+	c #471416",
"]$+	c #512222",
"^$+	c #543131",
"/$+	c #503939",
"($+	c #5A3C3D",
"_$+	c #613839",
":$+	c #632E2E",
"<$+	c #5C2020",
"[$+	c #561A1D",
"}$+	c #480F14",
"|$+	c #3C090D",
"1$+	c #3F151A",
"2$+	c #23060C",
"3$+	c #0E0005",
"4$+	c #14030F",
"5$+	c #1A050C",
"6$+	c #240A0F",
"7$+	c #2E1214",
"8$+	c #391A18",
"9$+	c #46231E",
"0$+	c #542C24",
"a$+	c #5B3024",
"b$+	c #582D21",
"c$+	c #3D2017",
"d$+	c #260D09",
"e$+	c #140001",
"f$+	c #110206",
"g$+	c #261108",
"h$+	c #472515",
"i$+	c #703B21",
"j$+	c #98522D",
"k$+	c #B6663A",
"l$+	c #D2713E",
"m$+	c #E67942",
"n$+	c #F47D40",
"o$+	c #FF8039",
"p$+	c #FF8434",
"q$+	c #FF8738",
"r$+	c #FF8C3F",
"s$+	c #FF8D3F",
"t$+	c #FF9141",
"u$+	c #FE9245",
"v$+	c #FF9349",
"w$+	c #FF9344",
"x$+	c #FF9347",
"y$+	c #F98E4C",
"z$+	c #E2834C",
"A$+	c #BF6B3D",
"B$+	c #8F4C2F",
"C$+	c #562919",
"D$+	c #290E02",
"E$+	c #0B0100",
"F$+	c #27140B",
"G$+	c #49251B",
"H$+	c #69352D",
"I$+	c #7D3F38",
"J$+	c #7E4037",
"K$+	c #753931",
"L$+	c #6B312E",
"M$+	c #60282B",
"N$+	c #582229",
"O$+	c #501A22",
"P$+	c #49121D",
"Q$+	c #420D1E",
"R$+	c #3A0A21",
"S$+	c #330720",
"T$+	c #30071E",
"U$+	c #23051B",
"V$+	c #1A0B1E",
"W$+	c #1C0C1F",
"X$+	c #1B0D1F",
"Y$+	c #1C0E21",
"Z$+	c #211024",
"`$+	c #241225",
" %+	c #271329",
".%+	c #28142B",
"+%+	c #27142A",
"@%+	c #27162A",
"#%+	c #311E33",
"$%+	c #321D36",
"%%+	c #281C2D",
"&%+	c #170312",
"*%+	c #190612",
"=%+	c #170112",
"-%+	c #25001A",
";%+	c #2F001F",
">%+	c #320022",
",%+	c #340120",
"'%+	c #2A0419",
")%+	c #43131A",
"!%+	c #581E28",
"~%+	c #2C0D12",
"{%+	c #160604",
"]%+	c #582222",
"^%+	c #3A1613",
"/%+	c #2F130E",
"(%+	c #5C2927",
"_%+	c #130204",
":%+	c #1D0602",
"<%+	c #5C3029",
"[%+	c #200B08",
"}%+	c #1F0502",
"|%+	c #5E2F24",
"1%+	c #150602",
"2%+	c #2C0F0B",
"3%+	c #45291C",
"4%+	c #3E2120",
"5%+	c #1D0C08",
"6%+	c #270F0F",
"7%+	c #211110",
"8%+	c #12050A",
"9%+	c #15060E",
"0%+	c #120C1B",
"a%+	c #222839",
"b%+	c #2D3540",
"c%+	c #363E45",
"d%+	c #40463F",
"e%+	c #484039",
"f%+	c #4A3833",
"g%+	c #402B25",
"h%+	c #47181A",
"i%+	c #481618",
"j%+	c #471718",
"k%+	c #522829",
"l%+	c #563332",
"m%+	c #543937",
"n%+	c #5E3B3B",
"o%+	c #643537",
"p%+	c #602829",
"q%+	c #591C1D",
"r%+	c #4F1519",
"s%+	c #3E090D",
"t%+	c #300D10",
"u%+	c #0F0517",
"v%+	c #1A0505",
"w%+	c #2A0D0B",
"x%+	c #391814",
"y%+	c #4D271E",
"z%+	c #613526",
"A%+	c #74402F",
"B%+	c #864535",
"C%+	c #7E4131",
"D%+	c #623122",
"E%+	c #3C190E",
"F%+	c #1C0500",
"G%+	c #3D1D12",
"H%+	c #632D1C",
"I%+	c #84452C",
"J%+	c #A2593A",
"K%+	c #BD6B44",
"L%+	c #CC7848",
"M%+	c #DC7D48",
"N%+	c #E98047",
"O%+	c #E98548",
"P%+	c #E28346",
"Q%+	c #DA7D46",
"R%+	c #CB723F",
"S%+	c #B0683A",
"T%+	c #93512E",
"U%+	c #6F3620",
"V%+	c #491E11",
"W%+	c #240802",
"X%+	c #010606",
"Y%+	c #040505",
"Z%+	c #170300",
"`%+	c #33170C",
" &+	c #623423",
".&+	c #904E34",
"+&+	c #A46242",
"@&+	c #A96442",
"#&+	c #A55B3E",
"$&+	c #994D35",
"%&+	c #8A4531",
"&&+	c #713429",
"*&+	c #642C29",
"=&+	c #582629",
"-&+	c #501F23",
";&+	c #49191E",
">&+	c #411220",
",&+	c #3A0D22",
"'&+	c #340922",
")&+	c #2F061E",
"!&+	c #2A041E",
"~&+	c #26031D",
"{&+	c #1E0417",
"]&+	c #17091E",
"^&+	c #1D0F20",
"/&+	c #221224",
"(&+	c #2A172C",
"_&+	c #2B182E",
":&+	c #2F1A32",
"<&+	c #29182C",
"[&+	c #322138",
"}&+	c #322A39",
"|&+	c #1F1726",
"1&+	c #28202F",
"2&+	c #0B0112",
"3&+	c #090010",
"4&+	c #160310",
"5&+	c #27011A",
"6&+	c #2A001E",
"7&+	c #300120",
"8&+	c #29031B",
"9&+	c #300B12",
"0&+	c #581B28",
"a&+	c #3F141D",
"b&+	c #451B1B",
"c&+	c #51211E",
"d&+	c #120603",
"e&+	c #29110D",
"f&+	c #4D2520",
"g&+	c #361A15",
"h&+	c #4F2720",
"i&+	c #27130B",
"j&+	c #442B23",
"k&+	c #0F0400",
"l&+	c #2E171C",
"m&+	c #1F0F0C",
"n&+	c #1F0809",
"o&+	c #120408",
"p&+	c #1A0A10",
"q&+	c #15162B",
"r&+	c #1D2435",
"s&+	c #26303D",
"t&+	c #3F4344",
"u&+	c #45453B",
"v&+	c #4C3E35",
"w&+	c #4B332F",
"x&+	c #402621",
"y&+	c #421C1C",
"z&+	c #4B1719",
"A&+	c #481414",
"B&+	c #481B1B",
"C&+	c #532E2D",
"D&+	c #543533",
"E&+	c #583A37",
"F&+	c #633839",
"G&+	c #643032",
"H&+	c #5D2223",
"I&+	c #440E12",
"J&+	c #3E0E11",
"K&+	c #3E1716",
"L&+	c #170101",
"M&+	c #0D0316",
"N&+	c #200C0D",
"O&+	c #230E0F",
"P&+	c #210B0A",
"Q&+	c #150200",
"R&+	c #120103",
"S&+	c #180606",
"T&+	c #401F15",
"U&+	c #5C3222",
"V&+	c #7F402C",
"W&+	c #924D34",
"X&+	c #9F583B",
"Y&+	c #9F5A3B",
"Z&+	c #8D4E2E",
"`&+	c #673321",
" *+	c #3F1913",
".*+	c #230603",
"+*+	c #190C05",
"@*+	c #281108",
"#*+	c #32120A",
"$*+	c #301409",
"%*+	c #2C1106",
"&*+	c #250C04",
"**+	c #0A0500",
"=*+	c #2B140A",
"-*+	c #572F1D",
";*+	c #8A4E2E",
">*+	c #B8673A",
",*+	c #D77843",
"'*+	c #E07D4B",
")*+	c #D77648",
"!*+	c #C96D3B",
"~*+	c #B96434",
"{*+	c #AC5B35",
"]*+	c #9E5035",
"^*+	c #8F4834",
"/*+	c #824030",
"(*+	c #74372B",
"_*+	c #652F2A",
":*+	c #5A2928",
"<*+	c #502123",
"[*+	c #491B20",
"}*+	c #421421",
"|*+	c #360B20",
"1*+	c #30071B",
"2*+	c #2C041C",
"3*+	c #2B031F",
"4*+	c #280420",
"5*+	c #1D041B",
"6*+	c #12071C",
"7*+	c #180920",
"8*+	c #1B0A22",
"9*+	c #1B0C21",
"0*+	c #1B0E20",
"a*+	c #180D1C",
"b*+	c #09040C",
"c*+	c #150A17",
"d*+	c #1F1122",
"e*+	c #301A34",
"f*+	c #321F38",
"g*+	c #2F2236",
"h*+	c #1B1521",
"i*+	c #2A2634",
"j*+	c #393443",
"k*+	c #120F1C",
"l*+	c #211C2B",
"m*+	c #2D2334",
"n*+	c #180E1E",
"o*+	c #0F0317",
"p*+	c #100416",
"q*+	c #150818",
"r*+	c #200015",
"s*+	c #22001A",
"t*+	c #2A001D",
"u*+	c #29021C",
"v*+	c #1C0509",
"w*+	c #4C1924",
"x*+	c #160306",
"y*+	c #25120D",
"z*+	c #582823",
"A*+	c #250808",
"B*+	c #4A1E1B",
"C*+	c #3F2117",
"D*+	c #381211",
"E*+	c #381A14",
"F*+	c #351F10",
"G*+	c #39241D",
"H*+	c #1A0A01",
"I*+	c #210D18",
"J*+	c #1F100F",
"K*+	c #1C0E11",
"L*+	c #110309",
"M*+	c #17070F",
"N*+	c #110D1B",
"O*+	c #181D2E",
"P*+	c #1F2B37",
"Q*+	c #29383D",
"R*+	c #384241",
"S*+	c #44463E",
"T*+	c #494639",
"U*+	c #4D3B32",
"V*+	c #492D28",
"W*+	c #3E201C",
"X*+	c #44191A",
"Y*+	c #4C1416",
"Z*+	c #4B1412",
"`*+	c #4E2323",
" =+	c #523331",
".=+	c #553734",
"+=+	c #5C3B36",
"@=+	c #663636",
"#=+	c #63292C",
"$=+	c #5B1D1E",
"%=+	c #4F1517",
"&=+	c #3B090D",
"*=+	c #44181E",
"==+	c #0F0113",
"-=+	c #3A1C1B",
";=+	c #46211E",
">=+	c #4C2420",
",=+	c #4D2521",
"'=+	c #45211E",
")=+	c #371616",
"!=+	c #200A0B",
"~=+	c #1D0A07",
"{=+	c #371A0F",
"]=+	c #582E1C",
"^=+	c #7D3F26",
"/=+	c #9F4C2D",
"(=+	c #B85733",
"_=+	c #BF5B35",
":=+	c #B75A36",
"<=+	c #9E4E31",
"[=+	c #7C3D2A",
"}=+	c #56281C",
"|=+	c #39170F",
"1=+	c #200C08",
"2=+	c #120401",
"3=+	c #150500",
"4=+	c #2F0D09",
"5=+	c #4E1D17",
"6=+	c #743124",
"7=+	c #9C4D33",
"8=+	c #BE6A41",
"9=+	c #DD7F43",
"0=+	c #EF8C4A",
"a=+	c #F48D4B",
"b=+	c #F08747",
"c=+	c #E67F44",
"d=+	c #DD7840",
"e=+	c #D6723C",
"f=+	c #CC6C37",
"g=+	c #BF6437",
"h=+	c #B0593A",
"i=+	c #A5503C",
"j=+	c #964836",
"k=+	c #883F2F",
"l=+	c #7A372B",
"m=+	c #6D2F2B",
"n=+	c #622828",
"o=+	c #582126",
"p=+	c #4F1A24",
"q=+	c #471322",
"r=+	c #3E0C20",
"s=+	c #390B1F",
"t=+	c #33081B",
"u=+	c #2C061C",
"v=+	c #2A041D",
"w=+	c #27011E",
"x=+	c #23031F",
"y=+	c #1C051B",
"z=+	c #12081C",
"A=+	c #1D0D24",
"B=+	c #120514",
"C=+	c #221225",
"D=+	c #2C1F36",
"E=+	c #33253E",
"F=+	c #372841",
"G=+	c #2A2334",
"H=+	c #0C0C13",
"I=+	c #2A2732",
"J=+	c #3F3B47",
"K=+	c #16141F",
"L=+	c #292132",
"M=+	c #1D1323",
"N=+	c #190618",
"O=+	c #180113",
"P=+	c #1A0113",
"Q=+	c #1D0017",
"R=+	c #24001A",
"S=+	c #25001B",
"T=+	c #3D1019",
"U=+	c #511A26",
"V=+	c #2A0C0F",
"W=+	c #0D0601",
"X=+	c #4F241F",
"Y=+	c #2E110D",
"Z=+	c #4C291F",
"`=+	c #090603",
" -+	c #210402",
".-+	c #4A2520",
"+-+	c #220E0A",
"@-+	c #3B2215",
"#-+	c #2F1A17",
"$-+	c #220C06",
"%-+	c #180711",
"&-+	c #201012",
"*-+	c #180A0F",
"=-+	c #10040B",
"--+	c #13060F",
";-+	c #100710",
">-+	c #25343C",
",-+	c #314142",
"'-+	c #3E4640",
")-+	c #49473C",
"!-+	c #4B4134",
"~-+	c #4B352C",
"{-+	c #462723",
"]-+	c #3F1C1B",
"^-+	c #48181B",
"/-+	c #501417",
"(-+	c #4F1615",
"_-+	c #522927",
":-+	c #523431",
"<-+	c #593B36",
"[-+	c #5E3A34",
"}-+	c #683132",
"|-+	c #5D2324",
"1-+	c #551C1C",
"2-+	c #43090D",
"3-+	c #451217",
"4-+	c #391419",
"5-+	c #100001",
"6-+	c #02060B",
"7-+	c #140315",
"   .  +  @  #  $  %  &  *  =  -  ;  >  ,  '  )  !  ,  ~  {  ]  ^  /  (  _  :  <  [  }  |  1  2  3  4  5  6  7  8  9  0  a  b  c  d  e  f  g  h  i  j  k  l  m  n  o  p  q  r  s  t  u  ,  v  w  x  y  z  A  B  C  D  E  F  G  H  I  J  K  K  L  M  N  O  P  *  Q  K  R  S  T  U  V  W  X  Y  Z  `   . .. +. @. #. $. %. &. *. x  =. -. -. ,  ;. >. ,. '. ). !. ~. {. ]. ^. =. x  ,  /. (. _. :. <. [. }. |. 1. 2. 3. 4. ,  5. K  F  6. 6. 7. 8. 9. 0. a. b. c. d. e. f. Y  ,  ,  F  Y  g. h. i. j. k. l. m. n. Y  ,  ,  ,  o. p. q. r. s. t. u. K  (. ,  v. w. x. y. z. K  `  A. B. C. D. E. F. K  G. ^. H. I. J. K. L. M. N. O. P. Q. R. S. x  T. U. ",
"V. W. X. Y. Z. `.  + .+ ++ @+ #+ $+ %+ &+ *+ =+ -+ ;+ >+ ,+ '+ )+ !+ ~+ {+ ]+ ^+ /+ (+ _+ :+ <+ [+ }+ |+ 1+ 2+ 3+ 4+ 5+ 6+ 7+ 8+ 9+ 0+ a+ b+ c+ d+ e+ f+ g+ h+ i+ j+ k+ l+ m+ n+ o+ p+ q+ r+ s+ t+ u+ v+ w+ x+ y+ z+ A+ B+ M. A  C+ D+ E+ ,  6. F+ G+ H+ I+ J+ #+ K+ ,  L+ M+ N+ O+ P+ Q+ R+ F  =. Q  g. S+ T+ U+ V+ W+ X+ Y+ Z+ `+ K  (.  @ .@ +@ @@ #@ $@ %@ &@ *@ =@ -@ ;@ u+ F  #+ `  >@ ,@ '@ )@ !@ ~@ {@ ]@ ^@ /@ (@ K  (. K  F  #+ u+ _@ :@ <@ [@ }@ |@ 1@ 2@ 3@ ,  ,  ,  F  ,  x  4@ 5@ 6@ 7@ 8@ 9@ 0@ ,  F  F  ,  a@ b@ c@ d@ e@ f@ Y  g. ,  g@ h@ i@ j@ k@ l@ Y  g. m@ n@ o@ p@ q@ g.  @ u+ r@ s@ I. t@ u@ ,  v@ w@ x@ y@ z@ A@ u+ v@ B@ C@ ",
"D@ E@ F@ G@ H@ I@ 6. J@ K@ L@ M@ N@ O@ P@ Q@ R@ S@ T@ U@ V@ W@ X@ Y@ Z@ `@  # .# +# @# ## $# %# &# *# =# -# ;# ># ,# '# )# !# ~# {# ]# ^# /# (# _# :# <# [# }# |# 1# 2# 3# 4# 5# 6# 7# 8# 9# 0# a# b# c# d# e# Y  f# g# h# i# Y  j# k# l# m# F  n# o# p# q# r# s# F  -. ,  t# u# v# w# x# y# z# F  A# B# K  C# D# E# F# G# H# I# J# +@ x  K# L# `  `+ M# N# O# P# Q# R# S# T# U# .@ V# W#  @ u+ _. X# Y# Z# `#  $ .$ +$ @$ #$ `  K  ,  ,   @ Y  $$ %$ &$ *$ =$ -$ ;$ >$ ,  (. (. ,  Y  g. ,$ '$ )$ !$ l. ~$ {$ ,  6. F  ,  ]$ ^$ /$ ($ _$ :$ K  g. ,  <$ [$ }$ |$ 1$ ,  `  .@ 2$ 3$ 4$ 5$ 6$ g. g. 7$ 8$ 9$ 0$ a$ ,  b$ c$ d$ e$ f$ g$ u+ g. h$ i$ j$ ",
"W# k$ l$ m$ n$ o$ p$ q$ N@ r$ s$ t$ u$ v$ w$ x$ ,  y$ z$ A$ B$ C$ D$ E$ F$ G$ H$ I$ J$ K$ L$ M$ N$ O$ P$ Q$ R$ S$ T$ U$ V$ W$ 8+ X$ Y$ Z$ `$  % .% +% @% #% $% %% &% *% =% -% ;% >% ,% '% )% !% ~% {% A. ]% ^% /% g. (% _% :% <% F  [% }% |% 1% F  6. 2% 3% 4% 5% 6% #+ 7% K  8% 9% 0% a% b% c% d% *  (. e% K  f% g% h% i% j% k% l% m% n% 7. o% (. p% x  q% r% s% t% u% v% w% x% _. M. 6. k$ .@ K  y% z% A% B% C% D% E% F% G% x  ,  ,  ,  ,  ,  a$ H% I% J% K% L% e$ M% ,  (. N% `  M. O% P% o@ Q% R% j. S% T% ,  ,  ,  v@ U% V% W% X% Y% Y  `  ,  Z% `%  & |$ .& K  +& Y  @& #& $& %& && A. u+ *& =& -& ;& >& F  ,& '& )& !& ~& {& u+ ]& ^& /& (& _& ",
":& <& [& ,  }& |& 1& 2& 3& V# 4& 5& 6& I@ 7& 8& 9& ,  0& a& b& c& d& e& f& g& h& i& j& k& l& m& n& o& p& Q$ q& r& s& t& u& v& w& x& y& z& A& B& C& D& E& F& G& H& I& J& K& L& M& N& O& P& Q& R& S& T& U& b$ V& W& X& Y& Z& `&  * q$ .* +* @* #* $* n# #+ %* &* ** =* -* ;* `  ,  >* ,* '* )* !* ~* {* ]* u+ +& A. g. ^* /* (* _* :* <* [* }* #$ A. /. |* x  1* 2* 3* 4* 5* 6* 7* 8* 9* K  #+ #+ 0* u+ a* b* c* d* e* f* g* h* i* K  K  ,  ,  j* x  k* l* m* n* o* p* q* k$ Y  u+ (. M.  . r* s* t* u* !$ v* u+ ,  ,  ,  w* x* y* m. z* A* ,  `  K  B* C* D* E* F* ,  K  G* H* I* J* K* Y  u+ L* M* N* O* P* 7. Q* R* S* T* U* V* ,  W* X* Y* Z* `* ,  ",
" = .= += @= #= ,  $= %= &= *= K  == -= ;= 6. >= ,= '= )= != ~= {= ]= ^= /= (= _= := <= [= }= |= 1= 2= 3= 4= 5= 6= 7= 8= 9= W$ 0= a= b= c= d= e= f= g= h= i= j= k= l= m= n= o= p= q= r= s  s= t= F  u= v= w= x= y= z= A= B= C= D= E= F= G= H= I= J= K= ,  ,  L= M= N= O= P= Q= ,  R= S= T= U= V= W= X= Y= Z= Y  /. `= Y   - .- +- @- #- $- %- &- ^. G. ,  *- Y  =- -- ;- >- ,- '- )- !- ~- M. =. K  /. ,  {- ]- ^- /- (- _- :- <- S. g. ,  ,  K  u+ [- }- |- o* 1- L% 2- A* Y  K  ,  Y  O% 3- 4- Q% 5- 6- 7- Y  (. ,  M. 8- 9- 0- a- b- Y  +& ,  c- d- e- f- g- ,  .@ f. h- i- j- k- K  ,  l- m- n- o- p- L. q- r- s- t- O. Q* ,  u- v- w- x- y- ,  z- ",
"F  A- B- C- D- E- F  F- G- H- I- ,  J- K- L- ,  M- N- ,  O- P- Q- R- S- T- U- V- W- X- Y- Z- L$ `-  ; .; +; @; #; $; %; U$ W$ &; *; =; -; ;; >; ,; '; ); !; ~; {; ]; ^; I@ /; (; _; :; <; [; }; |; 1; 2; 3; *  4; 5; 6; 7; 8; 9; 0; a; ,  b; c; d; e; f; M. 6. g; h; i; j; k; l; u+ m; K  n; o; p; q; r; s; t; `+ u; =. u+ v; w; x; y; z; A; B; C; D; E; =. /. u+ F; G; H; I; J; K; L; M; ,@ 7. u+ F  j* 7. N; O; P; Q; R; S; T; U; g. ,  ,  g. u+ V; W; X; p* Y; Z; `;  > K  Y  ,  A. .> +> y* @> #> $> Z. ,  %> ,  &> 6- *> => -> A@ ,  ,  ;> >> ,> '> )> K  v@ #$ !> ~> {> ]> x  u+ ^> /> (> _> :> K  <> [> }> |> 1> K  2> 3> 4> 5> 6> ,  7> 8> 9> ",
"0> a> ,  b> c> d> e> f> g> h> i> j> ,  k> l> m> n> o> p> q> r> s> t> u> v> w> x> y> z> A> B> C> D> `- E> F> G> H> I> J> K> L> M> N> O> P> Q> R> S> T> U> V> W> X> Y> Z> `>  , ., .* +, @, ,  #, $, j* %, &, *, ,  =, -, ;, ,  >, ,, ', ), (. !, ~, {, ], ^, g. ,  /, (, _, :, <, [, ,  (. Y  }, |, 1, 2, 3, 4, 5, 6, x  j* (. #$ 7, 8, 9, 0, a, b, c, d, #$ .@ W# K  e, f, g, h, i, j, k, l, `+ v@ u. u. m, g. n, o, p, q, r, s, t, u, ,  ,  E; v, Y  w, x, y, z, A, B, C, u+ ,  (. M. D, +> E, @> F, G, k$ ,  `  ,  H, I, J, K, L, ,  %> ,  M, N, O, P, Q, K  7. R, S, T, U, #$ ,  V, W, X, Y, S. Y  Z, `,  ' .' +' ,  @' #' $' %' &' ,  *' =' -' ;' ",
">' ,' '' 6. )' !' ~' {' W# ]' ^' /' (' _' :' <' ,  [' }' |' 1' 2' 3' 4' 5' 6' 7' 8' 9' 0' a' b' c' %# d' e' f' g' h' i' j' k' l' m' n' o' p' q' r' s' W> t' u' v' w' x' y' u$ z' A' B' C' D' E' F' G' ,  H' I' J' K' L' M' N' <% O' P' Q' 8% Y  R' S' T' U' V' #+ ,  W' X' Y' Z' `'  ) K  .) (. +) @) #) $) %) &) *) =) v@ -) K  ;) >) ,) ') )) !) ~) {) ]) .@ F  j* `  ^) /) () _) :) <) [) }) |) L. #+ Y  g. 7. 1) 2) 3) 4) 5) 6) 7) K  ,  Y  `  Y  8) 9) 0) a) b) c) d) K  ,  (. ,  e) f) g) h) i) j) ,  ,  u+ D, k) l) m) n) A. -. ,  o) p) q) r) s) ,  v@ t) u) v) w) 7. K  x) y) z) A) B) K  P* C) D) E) O% ,  F) G) H) I) ,  J) K) L) M) N) K  ",
"O) P) Q) R) k$ S) T) U) V) ,  W) X) Y) ,  Z) `) k$  ! .! j* +! @! #! $! %! J  &! *! =! H' -! ;! c' >! ,! '! )! !! ~! {! ]! ^! /! (! _! :! <! [! }! |! 1! 2! 3! 4! 5! 6! 7! G, 8! /; 9! 0! a! Y  b! c! d! e! f! g! F  h! i! j! .*    k! l! m! X  K  n! o! p! q! r! F  W# @+ s! t! u! v! w! O% (.  @ x! y! z! A! B! C! D! E! g. F  Y  7. F! G! H! I! J! K! L! M! .@ A. j* 7. N! O! P! Q! R! S! T! U! ^. A. F  K  Y  V! W! X! Y! Z! `!  ~ f. Y  ,  ,  ,  .~ +~ 0) @~ #~ $~ %~ Y  (. (. ,  &~ *~ h) =~ -~ +' ,  Y  K  ;~ >~ ,~ '~ )~ ,  (. G. !~ ~~ {~ ]~ ,  M. ^~ /~ (~ _~ :~ g. <~ [~ }~ |~ T% u+ 1~ 2~ 3~ 4~ K  5~ 6~ 7~ 8~ 9~ ,  0~ a~ b~ c~ d~ :> e~ ",
",  f~ g~ h~ i~ ,  j~ k~ l~ m~ n~ o~ p~ #+ q~ r~ s~ t~ u~ v~ w~ x~ y~ z~ A~ B~ C~ D~ E~ F~ G~ H~ I~ J~ K~ L~ M~ N~ O~ P~ 7+ Q~ R~ S~ T~ U~ V~ W~ X~ Y~ Z~ `~  { .{ +{ @{ #{ ${ %{ &{ *{ ={ -{ ;{ q$ >{ ,{ ,  '{ ){ q+ k$ !{ ~{ {{ u+ ]{ ^{ /{ ({ f. v@ _{ :{ <{ [{ }{ A. (. |{ 1{ 2{ 3{ 4{ 5{ f% ,  `= g. 6{ 7{ 8{ 9{ 0{ a{ b{ ,  (. Z  g. c{ d{ e{ f{ g{ h{ i{ j{ v@ #+ +& K  k{ l{ m{ n{ o{ p{ g* q{ 7. #+ #+ =. 7. r{ s{ t{ u{ v{ w{ x{ K  F  ,  ,  x  y{ z{ A{ B{ C{ d) K  ,  (. ,  %~ $~ D{ t* E{    ,  Y  L. F{ G{ H{ I{ .@ j* ,  J{ K{ L{ M{ 5~ ,  N. N{ O{ P{ Q{ x  R{ S{ T{ q* U{ 7. V{ W{ X{ Y{ ,  Z{ `{  ] .] ,  /. +] @] #] $] ,  %] &] *] ",
"=] ,  -] ;] >] B. Y  ,] '] )] ,  !] ~] {] ]] ^] /] #+ (] _] :] <] [] }] |] 1] ~+ 2] 3] 4] 5] 6] 7] 8] 9] 0] a] b] c] d] e] f] g] h] i] j] k] l] m] n] o] p] q] r] s] t] u] v] w] x] y] z] A] B] C] D] E] F] F= G] H] I] J] K] L] M] f> N] O] P] Q] O% ,& R] S] T] U] V] ,  -. W] X] Y] Z] `]  ^ .^ ,  +^ u+ @^ #^ 0{ $^ %^ &^ *^ ;) Q  (. ,  =^ -^ ;^ >^ ,^ '^ )^ !^ g. F  j* ,  ~^ {^ ]^ ^^ /^ (^ _^ :^ K  #+ ,  Y  <^ [^ }^ |^ 1^ 2^ 3^ v@ ,  ,  ,  g. 4^ z{ 5^ 6^ C{ 7^ K  ,  (. K  8^ 9^ 0^ w! a^ M. (. Y  3@ b^ c^ d^ e^ ,  ,  f^ g^ h^ i^ j^ (. u+ k^ l^ m^ n^ ,  Q* o^ p^ q^ r^ K  s^ t^ u^ v^ ,  w^ x^ y^ z^ ,  A^ B^ C^ D^ E^ F^ G^ H^ I^ J^ ",
"K^ L^ ,  M^ N^ O^ ,  P^ Q^ R^ ,  S^ T^ U^ ,  V^ W^ ,  X^ Y^ Z^ `^  / ./ +/ @/ #/ $/ %/ &/ */ =/ -/ ;/ >/ ,/ '/ )/ !/ ~/ {/ ]/ ^/ // (/ _/ :/ </ [/ }/ |/ 1/ 2/ 3/ 4/ 5/ 6/ 7/ 8/ 9/ 0/ a/ .> b/ c/ K  d/ e/ f/ g/ h/ i/ ,  j/ k/ l/ m/ ,  n/ o/ p/ q/ u+ K  r/ s/ t/ u/ v/ u+ -) V# w/ x/ y/ z/ A/ B/ x  K+ v@ C/ D/ E/ F/ G/ H/ I/ ^. K  ,  M. j{ J/ K/ L/ M/ N/ O/ P/ v@ j* 5~ x  Q/ R/ S/ T/ U/ V/ W/ ;) Q  F  ,  ,  X/ Y/ Z/ `/  ( .( x) ,  (. F  .@ +( @( #( $( %( &( .@ (. ,  u+ *( =( -( w! F. Y  -. u+ ;( >( ,( '( K  (. ,  )( !( ~( {( u+ x  ]( ^( /( 7) K  f> (( _( :( A* K  <( [( }( |( ,  1( 2( 3( 4( ,  5( 6( 7( 8( F  9( 0( a( b( c( d( ",
"e( f( ,  g( h( i( ,  j( k( l( u+ m( n( o( ,  p( q( ,  r( s( t( u( v( w( x( y( z( A( B( C( D( E( F( G( H( I( J( K( L( M( N( O( P( Q( R( S( T( U( V( W( X( Y( Z( `( 6/  _ ._ +_ @_ #_ $_ %_ .^ &_ *_ =_ -_ ;_ >_ ,  ,_ '_ )_ ,  !_ ~_ {_ A* ,  ]_ ^_ /_ (_ ,  ,  __ :_ <_ [_ }_ k$ p% ,  |_ 1_ 2_ 3_ 4_ 5_ Y  L# Y  +@ 6_ 7_ 8_ 9_ 0_ a_ |) E; b_ K  c_ d_ e_ f_ g_ h_ i_ j_ K  =. k_ <^ l_ m_ n_ o_ p_ q_ r_ K  j* ,  ,  n~ s_ t_ u_ v_ w_ x_ ,  (. (. K  y_ z_ A_ B_ C_ D_ K  ,  ,  T. E_ F_ G_ H_ I_ Y  (. B) J_ K_ L_ M_ ,  ,  N_ O_ P_ Q_ L. K  R_ S_ T_ U_ g. A. V_ 0- W_ X_ ,  Y_ Z_ `_  : ,  .: +: @: .) #: $: %: &: *: =: -: ;: >: ,: ': ): !: ",
"~: {: ,  ]: ^: /: ,  (: _: :: K  <: [: }: ,  |: q( ,  1: 2: 3: 4: 5: 6: 7: 8: 9: 2] 0: a: b: c: d: e: f: g: h: i: j: k: l: m: n: )# o: p: q: r: s: t: u: v: w: x: y: z: A: B: C: D: E: F: G:    H: I: #+ J: K: +( L: M: N: O: P: Q: R: S: F  V# T: U: V: W: ,  L. X: 4' Y: Z: `: W# -) 7.  < .< +< @< #< y) g. k$ M. $< %< &< *< =< -< ;< P/ #$  @ ,  >< ,< '< )< !< ~< {< ^. u+ ,  ,  #$ ]< ^< /< (< _< :< << ,  F  j* x  [< }< |< 1< 2< 3< Y  ,  -. Y   > 4< 5< 6< 7< 8< u+ ,  (. e) 9< 0< a< P% k$ K  Y  b< c< d< e< G. ,  W# f< g< h< i< L. K  j< k< l< m< ,  q~ n< E. o< u+ p< q< r< s< ,  t< u< v< ,  w< x< y< z< ,  A< B< C< D< E< F< G< H< I< ",
"J< K< ,  L< M< N< ,  O< P< Q< Y  R< S< T< M. U< V< ,  W< X< Y< Z< `<  [ .[ +[ @[ #[ $[ %[ &[ c: *[ =[ -[ ;[ >[ ,[ '[ )[ ![ ~[ {[ ][ ^[ /[ ([ _[ :[ <[ [[ }[ |[ 1[ 2[ 3[ 4[ 5[ 6[ 7[ 8[ 9[ 0[ a[ b[ c[ d[ e[ f[ g[ F  h[ i[ j[ V# k[ l[ m[ n[ k$ I@ o[ p[ q[ r[ Y  Y  s[ t[ u[ v[ w[ x[ =. K  y[ z[ A[ B[ C[ D[ j_ A. 5. |) E[ F[ G[ H[ I[ J[ K[ x  +& << L[ M[ N[ O[ P[ Q[ R[ x  A. F  =. S[ T[ U[ V[ W[ X[ Y[ K  A. Y  u+ Z[ `[  } .} +} @} u+ ,  %> Y  V, #} $} %} &} C, K  ,  ,  &~ *} 0< 9^ =} ,  u+ g. -} ;} >} ,} ,  F  '} e@ )} !} A. g. ~} {} ]} ^} ,  e) /} 7/ (} g. _} :} <} [} ,  }} |} 1} ,  2} 3} 4} 5} *  6} 7} 8} 9} 0} a} b} -% c} d} ",
"e} f} ,  g} h} i} ,  j} k} l} ,  m} n} o} p} q} r} s} t} u} v} w} x} y} z} A} B} C} D} E} F} G} H} I} J} K} L} M} N} O} P} Q} R} S} T} U} V} W} X} Y} Z} `} o[  | .| +| @| #| $| %| &| *| =| -| ;| >| ,| '| )| !| ~| u+ {| ]| ^| Y  /| (| _| :| ,  <| [| }| || 1| (. ,  2| 3| 4| 5| 6| 7| (. .@ 8| 9| 0| a| b| c| d| (. Z  #$ e| f| g| h| i| j| K[ g. j* ,  k| l| m| n| o| p| q| g. L# *  Y  r| s| W[ t| u| v| u@ u+ K  K  #$ w| x| y| z| A| B| ,  (. ,  C| D| E| F| G| H| K  (. K  I| J| K| L| M| F  K  N| O| P| Q| R| M. S= S| T| U| ]] ,  ^> V| W| X| ,  Y| Z| `|  1 g. .1 +1 @1 #1 ,  $1 %1 &1 ,  *1 =1 -1 ;1 >1 ,1 '1 )1 !1 ~1 {1 ]1 ^1 /1 (1 _1 ",
":1 <1 K  [1 }1 |1 ,  11 21 31 ,  41 51 W# 61 71 81 91 01 a1 b1 c1 d1 e1 f1 g1 h1 i1 j1 k1 l1 m1 n1 o1 p1 q1 r1 s1 t1 u1 v1 w1 x1 y1 z1 A1 B1 C1 D1 E1 F1 G1 H1 B= I1 J1 K1 L1 M1 N1 O1 P1 Q1 R1 S1 T1 U1 V1 Q* W1 X1 Y1 Z1 `1  2 .2 Y  V) +2 @2 #2 W# $2 %2 &2 *2 =2 M. F  =} -2 ;2 >2 ,2 '2 E; u. )2 !2 ~2 {2 ]2 ^2 /2 u+ %> ;) (2 _2 :2 <2 [2 }2 K[ K  (. u+ |2 12 22 32 42 52 c_ u+ #+ 6. ;) 62 72 82 92 02 a2 g. .@ K  K  b2 c2 d2 e2 f2 M| ,  (. Y  V, g2 h2 i2 j2 I_ M. `  v@ k2 l2 G_ m2 E; F  u+ n2 o2 p2 q2 ,  M. r2 s2 t2 u2 v@ x  v2 w2 x2 u@ Y. y2 z2 A2 u+ ^> B2 C2 D2 ,  E2 F2 G2 ,  H2 I2 J2 l+ K2 L2 M2 N2 O2 P2 Q2 R2 S2 T2 U2 V2 W2 ",
"X2 ,  Y2 Z2 `2 N@  3 .3 +3 Y| @3 #3 p$ ,  k> s$ ,  $3 %3 7% &3 *3 =3 -3 ;3 >3 ,3 '3 )3 !3 ~3 {3 ]3 ^3 /3 (3 _3 :3 <3 [3 }3 |3 13 23 33 43 53 63 73 83 93 03 a3 b3 c3 d3 e3 f3 g3 h3 i3 j3 9/ k3 l3 S= m3 n3 o3 p3 q3 r3 ,  ]$ s3 t3 u3 ,  v3 w3 x3 y3 ,  z3 A3 B3 C3 D3 ,  -. E3 F3 G3 H3 I3 J3 ,  F  K3 L3 M3 N3 O3 P3 Q3 ,  /. g. R3 S3 T3 U3 V3 W3 $< >@ A. 7. X3 Y3 Z3 `3  4 .4 |) A. ,& v@ +4 @4 #4 $4 %4 &4 u@ u+ Y  ,  *4 =4 -4 d2 ;4 >4 Y  %> K  {& ,4 '4 )4 !4 p} A. Y  %{ ~4 {4 ]4 ^4 u+ ,  T. /4 (4 _4 :4 ,  b$ <4 [4 }4 ,& #$ |4 14 24 34 u. 44 54 64 G* 74 84 94 04 ,  a4 b4 c4 ,  d4 e4 f4 ,  g4 h4 i4 j4 k4 l4 m4 n4 o4 p4 q4 r4 s4 t4 ",
"u4 b$ E@ v4 w4 ,  x4 y4 z4 ,  A4 B4 X. C4 D4 E4 F4 G4 H4 I4 J4 K4 L4 M4 N4 O4 P4 Q4 R4 S4 T4 U4 V4 W4 X4 Y4 Z4 `4  5 .5 P} +5 @5 #5 $5 %5 &5 *5 =5 -5 ;5 J] >5 9@ ,5 '5 )5 !5 ~5 {5 ]5 ^5 /5 (5 _5 :5 <5 [5 #> Y  }5 q3 |5 ,  15 25 35 F  45 55 65 75 85 ,  95 05 a5 b5 c5 j* ,  d5 e5 f5 g5 h5 i5 u. =. g. j5 k5 l5 m5 n5 o5 K  +^ 7. p5 q5 r5 s5 t5 u5 #$ #+ -) $< v5 w5 x5 y5 z5 A5 7. k$ M. g. B5 C5 D5 E5 F5 P* ,  -. ,  N. G5 H5 d2 I5 J5 ,  ,  Y  K5 L5 M5 N5 O5 O% (. ,  P5 Q5 R5 S5 x_ ,  F  T5 U5 V5 W5 ,  Y  X5 5$ Y5 Z5 ,  `5  6 .6 +6 .@ @6 #6 $6 %6 ,  &6 *6 =6 ,  -6 ;6 >6 ,  ,6 '6 )6 ,  !6 ~6 {6 *  ]6 ^6 /6 (6 _6 :6 <6 [6 }6 |6 16 ",
",  26 36 46 #+ 56 66 76 6. 86 96 06 V# a6 b6 ]] c6 d6 e6 f6 g6 h6 i6 j6 k6 l6 m6 n6 o6 p6 q6 r6 s6 t6 u6 v6 w6 x6 y6 z6 A6 B6 C6 D6 E6 F6 G6 H6 I6 J6 K6 L6 M6 N6 '2 O6 P6 Q6 R6 F| A= S6 T6 .@ U6 V6 Q* W6 X6 Y6 Z6 `6  7 .7 ,& +7 @7 #7 ,  $7 %7 &7 *7 =7 ,  -7 ;7 >7 ,7 '7 u. u+ )7 !7 ~7 {7 ]7 ^7 x! A. `+ /7 (7 _7 :7 <7 [7 7. 5. ^. }7 |7 17 27 37 47 u+ (. K  ]) 57 67 77 87 97 `5 u+ +& ,  m< 07 a7 b7 c7 d7 K  -. Y  x  e7 f7 d2 g7 h7 A. ,  ,  i7 j7 k7 l7 m7 v@ (. ,  n7 o7 p7 q7 B| ,  ,  r7 s7 t7 u7 ,  M. v7 w7 x7 f> K  y7 z7 A7 B7 Y& C7 D7 E7 ,  F7 G7 H7 ,  I7 J7 K7 ,  L7 M7 N7 ,  O7 P7 Q7 6. R7 S7 T7 U7 V7 W7 j4 X7 Y7 Z7 `7  8 ",
".8 +8 @8 E; #8 $8 %8 &8 *8 =8 -8  . ;8 >8 ,8 F4 '8 )8 !8 ~8 {8 ]8 ^8 /8 (8 _8 :8 <8 Q7 [8 }8 |8 18 28 38 48 58 68 78 88 98 08 a8 b8 c8 d8 e8 f8 g8 h8 i8 j8 k8 l8 m8 n8 o8 p8 q8 r8 s8 t8 u8 v8 w8 x8 y8 (' z8 A8 C| I| B8 C8 7. D8 E8 F8 G8 ,  H8 I8 J8 K8 W] ,  L8 M8 N8 O8 P8 7; S= x! Q8 R8 S8 T8 U8 +) u; ^. V8 W8 X8 Y8 Z8 `8 ,  j* g.  9 .9 +9 @9 #9 $9 ,  =. x  %9 &9 *9 =9 -9 ;9 7. +& ,  g. >9 ,9 '9 )9 !9 7. `  ,  u+ T1 ~9 {9 ]9 ^9 M. ,  Y  /9 (9 _9 :9 <9 x   @ Y  ^4 #( [9 }9 v@ Y  |9 19 29 39 << ,  49 o^ 59 69 g. 79 89 99 09 Y  a9 b9 ~| f> c9 d9 e9 f9 g9 h9 i9 ,  j9 k9 l9 F  m9 n9 o9 p9 q9 r9 <6 s9 t9 u9 v9 w9 x9 y9 z9 A9 B9 ",
"C9 D9 9! E9 F9 G9 H9 b$ I9 J9 K9 6$ L9 M9 ,  N9 O9 p% P9 Q9 N1 R9 S9 T9 U9 V9 W9 X9 Y9 Z9 `9  0 .0 +0 @0 #0 $0 %0 &0 *0 =0 -0 ;0 >0 ,0 '0 )0 !0 ~0 P: {0 ]0 {5 ^0 /0 s8 (0 _0 :0 <0 [0  . }0 |0    10 20 X  30 40 50 L. 60 70 80 7. 90 00 a0 b0 ,  c0 d0 e0 f0 a$ ,  g0 h0 i0 j0 k0 '| x  `+ l0 m0 n0 o0 p0 g. (. u+ q0 r0 s0 t0 u0 v0 u+ j* g. w0 x0 y0 z0 A0 B0 x  #+ 7. C0 D0 E0 F0 G0 H0 Y  #+ K  I0 J0 K0 L0 M0 N0 K  ,  ,  O0 P0 Q0 R0 S0 M. ,  Y  T0 U0 V0 W0 X0 v@ u+ u. Y0 B_ Z0 &( Y  ,  `0  a .a +a ,  E; @a #a $a L. #$ %a &a *a x  =a @  -a ;a  @ >a ,a 'a )a !a ~a {a ]a ^a /a ,  (a _a :a <a [a }a j4 |a 1a 2a 3a 4a 5a 6a 7a 8a G6 9a ",
"0a    aa ba ca da F= ea fa ga 7; ha ia ja ka la ma na oa pa qa ra sa ta ua va wa xa ya za Aa Ba Ca Da Ea Fa Ga Ha Ia Ja Ka La Ma Na Oa Pa Qa Ra Sa 9# Ta Ua Va Wa Xa Ya F5 Za `a  b .b +b @b #b $b I_ %b &b Q6 *b =b -b 7; ;b >b ,b ,  'b )b !b ~b g. {b ]b ^b /b (b K  x) _b :b <b [b }b ,  g. |b 1b 2b 2b 3b ;@ p% `  4b 5b 6b 7b 8b 9b K  j* `+ 0b ab bb cb db ;@ *  eb ^. fb gb hb ib jb o. b$ .@ g. kb I5 lb mb nb u+ F  ,  ob O5 pb qb rb A. (. ,  sb tb qb ,4 a[ g. u+ Z. ub vb wb e3 ,  ,  xb yb 29 zb F  C| Ab Bb Cb ,  Db Eb Fb Gb g. Hb Ib Jb ,  Kb Lb Mb ,  Nb Ob Pb Qb Rb Sb ,: Tb Ub Vb j4 Wb Xb Yb Zb `b  c .c +c @c n4 #c $c j4 %c &c ",
"N2 *c =c -c ;c Y& >c ,c 'c O% )c !c aa ~c {c ]c ^c /c (c _c :c <c [c }c |c 1c 2c 3c 4c Z- 5c 6c 7c 8c 9c 0c ac bc cc dc ec fc gc hc Oa ic jc kc lc mc nc oc pc qc rc sc tc uc vc u$ wc xc V# yc zc ,& Ac Bc Cc Dc Ec Fc k$ Gc Hc Ic d5 Y  Jc Kc Lc Mc ,  Nc Oc Pc Qc :> ,  S. Rc Sc Tc Uc Vc ,  u+ Wc Xc Yc Zc `c +@ >@ `+  d .d +d @d #d $d `  G. j_ %d &d *d =d -d v@ ;d x  >d ,d 'd )d !d ~d v@ K  Y  K5 {d ]d ^d /d x  F  ,  T. (d _d :d <d k$ ,  Y  &~ [d }d |d T0 K  .@ &~ 1d 2d a^ S= ,  3d 4d 5d 6d u+ M. 7d 8d 9d Q* u+ 0d ad #1 u+ bd cd dd k$ ed fd gd ,  hd id jd 6. kd ld md nd od pd F  qd rd -% sd td ud vd wd xd yd zd Ad ,: Bd Cd -% ",
"Dd Ed Fd n# Gd Hd Id Jd A= Kd Ld Md Nd Od Pd ,  Qd Rd Sd Td Ud Vd Wd Xd Yd Zd `d  e .e +e @e #e $e %e &e *e =e -e ;e >e ,e 'e )e !e ~e {e ]e ^e /e (e 7^ _e :e <e [e }e |e 1e 2e K3 3e 4e 5e 6e 7e 8e 9e 0e ae L. be ce de ,  ee fe ge f> U{ he ie je :~ ,  ke le me ne oe g. pe qe re se te ue ,  ,  ve we xe ye ze Ae `  ,  Be Ce De Ee Fe Ge K  L# He Ie Je Ke Le Me x  j* ,  Ne Oe Pe Qe Re x  ,  (. u. Se Te Ue Ve  . Y  ,  %{ ee {9 We h6 S= (. K  Xe Ye Ze `e A* ,  u+  f .f +f @f #+ ,  #f $f %f &f K  U{ *f =f x{ ,  P* -f ;f >f K  ,f 'f H8 Y  )f !f ~f {f ]f ^f ,  /f (f _f :f <f [f ,  }f |f 1f 2f 3f 4f 5f 6f 7f <6 8f 9f j4 0f af bf cf ",
"df ef *  ff gf hf 9# if jf kf I@ lf mf nf ,  of pf qf rf sf tf uf vf wf xf yf zf Af Bf Cf Df Ef Ff Gf Hf If Jf Kf Lf Mf Nf Of Pf Qf Rf Sf Tf Uf Vf Wf 9/ Xf Yf )2 Zf `f  g .g +g @g `a #g $g %g &g *g >+ =g -g ;g >g ,g 'g )g N. !g ~g {g x  ]g ^g /g (g f% ,  _g :g <g [g G* ,  L. }g |g 1g 2g 3g ^. #$ 4g 5g 6g 7g 8g 9g (. v@ 0g ag bg cg dg eg (. `  !^ fg gg hg ig jg #+ j* kg lg mg ng og P5 u+ (. u+ X0 pg qg rg sg K  `  O% tg We ug vg f> (. u+ wg Ye xg vg  . ,  .@ }9 T6 yg ={ F  u+ zg Ag Bg << 7. Cg m2 Dg N. Y  Eg 1@ Fg g. Gg Hg Ig Y  Jg Kg Lg ,  Mg Ng Og Pg Qg Rg 6. Sg Tg 9# Ug Vg Wg Xg Yg Zg <6 `g  h ,% .h +h e8 @h #h $h %h &h ",
"*h =h -h ;h >h ,& ,h 'h )h ,  !h ~h {h ,  ]h ^h /h (h _h :h <h [h }h |h 1h 2h 3h 4h 5h 6h 7h 8h 9h 0h ah bh ch dh eh fh gh hh ih jh kh lh mh nh oh ph f% qh rh sh th uh vh 7; wh xh Q6 yh zh Ah Bh Ch Dh >+ Eh Fh Gh Hh Ih Jh Kh Lh Mh Nh Oh #$ Ph Qh Rh Sh n~ ^. Th Uh Vh Wh Xh f> O% Yh Zh `h  i |b `+ Q  .i +i @i #i $i %i E; x  &i *i =i -i ;i >i (. Y  ,i 'i )i !i ~i .@ L# Y  {i ]i ^i /i (i x  (. K  bd _i Ue :i <i x  `  .@ [i Q0 }i |i b$ (. u+ D_ 1i 2i 3i .@ (. B| 4i 5i 6i  . ,  7i 8i 9i 0i K  q- ai bi 1> g. ^> ci di S. <~ ei fi bd @3 gi hi #+ ii ji ki li mi ni W# oi pi qi ri si ti ui vi wi ,  xi yi j4 zi Ai Bi Ci Di Ei Fi Gi Hi ",
"Ii Ji Ki Li Mi Ni Oi Pi ,  Qi Ri Si ,  Ti Ui Vi Wi Xi Yi Zi `i  j Y9 .j +j @j #j $j %j &j *j =j -j ;j >j ,j 'j )j !j ~j {j ]j ^j /j (j _j :j M. <j [j }j |j 1j 2j 3j 4j 5j 6j 7j 8j 9j 0j aj bj '2 cj dj ej fj gj hj ij jj kj lj mj 8< nj oj Y6 +) pj qj rj sj tj `+ uj vj wj xj yj E; Y  zj Aj Bj Cj Dj $< (. $< Ej Fj Gj Hj Ij ;) g. Jj Kj Lj Mj Nj ;@ A. K  Oj Pj Qj Rj Sj Y  =. 7. Tj Uj Vj Wj R{ ,  Y  E; Oh Xj Q0 Yj #$ `  W# Zj `j  k .k Y& (. K  X0 W6 _d +k M. ,  K5 @k #k $k g. ,  %k &k *k =k K  i< -k ;k >k Y  ,k 'k )k Y  !k ~k {k ,  ]k ^k /k (k _k :k ,  <k [k }k |k 1k 2k R2 3k 4k y9 5k 6k R2 7k 8k 9k 0k ak bk ck dk ek -% fk gk hk ",
"ik jk p} kk lk mk nk ok pk qk rk sk tk uk vk wk xk yk zk Ak Bk Ck Dk Ek Fk Gk Hk Ik Jk Kk Lk Mk Nk Ok Pk Qk Rk Sk Tk Uk Vk Wk Xk Yk Zk `k  l ,  .l +l @l #l $l %l &l *l =l -l M. ;l >l #+ ,l 'l )l !l ~l {l 9/ ]l ^l /l .@ (l _l :l Y& zj <l [l }l u+ |l 1l 2l 3l 4l u+ oe 5l 6l 7l 8l ^. K  9l 0l al bl cl `+ u+ D; dl el fl gl hl K  7. il jl kl ll ml ;) nl ^. ol pl ql rl sl M. K  tl ul vl wl xl Y  Y  K  yl :i zl Al u@ (. F  Bl W6 Cl Dl S= (. u+ El Fl Gl J5 K  ,  Hl Il -k E3 u+ `  Jl Kl Ll u+ .@ Ml F| Nl ,  Ol Pl Ql A= u; Rl Sl && Tl Ul Vl ,  Wl Xl Yl Zl `l  m #+ .m +m 9} @m #m -% $m %m &m *m =m -m ;m >m ,m s  'm )m l+ !m ~m {m *- ",
";* ]m ^m /m (m ,  _m :m <m [m }m |m 1m Q* 2m 3m 4m 5m 6m 7m 8m 9m 0m am bm cm dm em fm gm hm im jm km lm mm nm om pm qm 9} rm sm ,: tm um vm 7. wm xm ym ;) zm Am Bm `+ Cm Dm Em Fm Gm Hm ij Im Jm F= Km Lm Mm q$ Nm Om (' >g Pm Qm Rm ,  Sm Tm Um Vm ,  Wm Xm Ym Zm ]g (. a$ `m  n .n +n O% Y  @n #n $n %n &n *n -. x  =n -n ;n >n ,n x  #$ 'n )n !n ~n {n u+ K  ]n ^n /n (n _n 7. g. E; :n <n [n }n B) u+ M. |n 1n 2n 3n >g ,  ,  H| 4n 5n 6n Q* ,  K  ,b 7n 8n C, F  A. 9n 0n an bn ,  cn dn en fn ,  B) gn hn in u+ jn }~ q@ W# kn ln mn ,  nn on pn qn rn sn ,  tn un vn wn xn yn zn An Bn Cn Dn En p9 Fn Gn F  Hn In 6. Jn Kn Ln Mn Nn On F  Pn ",
"Qn Rn Sn ,  Tn Un Vn Wn Xn Yn Zn `n C|  o .o /5 +o @o #o $o %o &o *o =o -o ;o >o ,o 'o )o !o ~o {o ]o ^o /o (o R2 _o :o F  <o [o 9} }o |o 1o $< 2o 3o 4o 5o .^ 6o 7o pe @b 8o 9o +) 0o ao 6, bo co do eo fo go }b ho io jo f% ko lo mo #l N. no oo po qo g. ro so to uo qf ,  `+ vo wo xo yo R{ g. D; zo Ao Bo Co Do ;) K[ Eo Fo Go Ho 9g ,  #$ Oj Io Jo Ko Lo x  ,  Mo No Oo Po ~^ K  A. Qo Ro So Dg To u. ,  Q* Uo Vo 5n Wo ,  Y  Xo Yo Zo `o Z6 (. Y   p .p +p @p F  b$ #p $p %p G= ,  r7 &p *p =p ,  -p ;p >p .@ #$ ,p 'p 49 V# )p !p D, ~p {p ]p ,  ^p /p (p _p :p <p [p }p |p s  1p 2p p9 3p 4p y9 5p 6p 7p 8p 9p 0p ap bp cp *  dp ep fp A. gp ",
"hp F  ip jp kp lp p% mp np op pp qp rp sp tp up vp wp xp yp zp Ap Bp Cp Dp Ep Fp Gp Hp Ip Jp Kp Lp Mp Np Op Pp Qp Rp Sp Tp Up Vp #+ Wp Xp Yp Zp w= `p  q .q ,  +q @q #q #+ $q %q s8 &q *q =q 7; -q ;q Z6 >q ,q 'q ja )q !q ~q ,  {q ]q ^q /q Y  (q _q :q <q ,  [q }q |q 1q Wm K  f> 2q 3q 4q 5q 6q ,  +@ 7q 8q 9q 0q aq E; ;) bq cq dq eq fq M. #$ gq hq iq jq kq g. x  lq mq nq oq pq ,  x  qq rq sq tq k$ (. >@ uq vq `j wq Y  Y  q- xq }i yq mj ,  K  zq Aq Bq h3 ,  Y& Cq Dq Eq A. ,  Fq Gq Hq x  K  Iq Jq Kq u+ Lq Mq Nq M. Oq Pq Qq ,  Rq Sq Tq Uq Vq Wq p9 Xq Yq ,  Zq `q  r .r +r @r #r $r %r &r *r =r s  -r ;r ,  >r ,r 'r )r !r ~r j4 _; {r ",
"]r ^r /r (r _r :r <r [r }r |r 1r 2r 3r 4r 5r 6r 7r 8r 9r 0r ar br cr dr er fr gr hr ir jr kr jr lr mr nr or pr qr rr -% sr tr ur ,  vr wr xr yr f> zr Ar !2 K  Br Cr Dr O% Er Fr Gr $< Hr Ir >g Jr Kr Lr q- Mr Nr Or Pr Qr Rr Sr j_ Tr Ur Vr T% mj Wr Xr Yr P5 N. Zr `r  s .s +s 7; .> @s #s $s %s &s Y  g. *s =s -s ;s >s ,  #$ ,s 's )s !s P/ u+ |) ~s {s ]s ^s ;@ ,  /s (s _s :s <s ,  K  K3 .q [s }s |s F  (.  > vc vq 1s S= ,  B7 2s 3s 4s C| ,  k$ #p 5s 6s D, ,  6$ 7s 8s p3 ,   @ 9s 0s as K  bs cs ds i< E; es fs gs M. hs is js ks ls ms ,  ns os ps qs rs ss ts us vs s  ws xs ,  ys zs 9} As Bs Cs Ds Es Fs Gs Hs Is ,  Js Ks Ls #+ Ms Ns ",
"Os Ps Qs Rs Ss Ts Us Vs Ws Xs Ys Zs `s  t .t +t @t #t $t %t &t *t =t -t ;t >t ,t 't )t !t ~t {t ]t ^t /t (t _t :t <t ,  [t }t |t Y  1t 2t 3t 4t ,  5t 6t 7t 8t #$ 9t 0t at v@ bt ct dt et ft gt ;@ ht it jt kt lt mt pe nt ot pt Zr e3 qt rt st +@ u@ tt ut vt wt v@ xt yt zt At Bt )7 K  Ct Dt Et Ft Gt u+ f. Ht It Jt Kt Lt ,  ;) Mt Nt Ot Pt Qt j* Rt St Tt Ut Vt u+ ,  Wt Xt Yt Zt +@ ,  Y  ,5 vq `t  u K  -. Z. .u +u @u %{ Y  u@ #u `j $u >g ,  F= #p %u &u .> ,  *u =u -u ;u ,  >u ,u 'u )u Y  !u ~u {u g. Q6 ]u ^u mj /u (u _u ,  :u <u [u }u |u 1u F  2u 3u 4u 5u 6u 7u 8u 9u 0u au bu cu du eu fu ,  gu hu ,: ri iu ju ,  ku lu mu n# nu ou ",
"pu qu ru su tu uu vu wu xu yu zu Au Bu Cu Du Eu Fu Gu Q& Hu Iu Ju Ku Lu Mu Nu Ou Pu Qu Ru Su Tu Uu Vu Wu Xu Yu Zu `u F   v .v +v Y  @v #v $v %v 7. <> &v *v =v u+ -v ;v >v k$ ,v 'v )v 7. !v ~v {v ]v ^v /v V# (v _v :v F  <v [v }v ]] .i |v 1v 2v 6. L. 3v 4v 5v 6v L. '| 7v 8v 9v 0v L. (. av bv cv dv ev #+ 7. fv gv hv iv jv `  ;@ kv lv mv nv x  f> ov pv qv rv sv (. 7. tv uv vv wv Y  `  9/ }s xv #p B| (. W# yv zv  b Q6 Y  O% Av Bv Cv Dv ,  f> Ev Fv Gv .> ,  Hv Iv Jv /u ,  Kv Lv Mv Nv .@ Ov Pv Qv K  =} Rv Sv v@ Tv Uv #1 Vv Wv Xv F  Yv Zv `v  w .w +w *  @w #w ,  $w %w ,  &w *w =w -w ;w >w ,w 'w )w ,  !w ~w {w l+ ]w ^w /w (w _w :w ",
"<w [w }w |w 1w 2w 3w 4w 5w 6w 7w 8w 9w 0w aw bw cw dw ew fw gw hw iw jw kw lw mw nw ow pw qw rw G6 sw tw *  uw vw 6. ww xw yw zw ,  Aw Bw Cw Dw Ew Y  Fw Gw Hw  p ,  Iw Jw Kw D; Lw Mw Nw Ow Pw Qw u+ Rw Sw Tw K  Uw Vw Ww ^. Xw Yw Zw g. Sr `w  x .x v@ x[ +x @x #x $x ,  `  ]v %x &x *x tj Y  =x -x ;x >x ,x x  Y  'x )x !x ~x {x K  ]x ^x /x (x _x u+ Y  :x <x [x }x d| N% |x 1x 2x 3x 4x g. K  5x 6x 7x <q ,  ,  wq 8x 9x c# ,  #+ 0x ax bx cx %> u+ dx ex <d g> ,  Bl fx gx hx ,  ix jx s^ V# B| kx lx mx K  nx ox px u. qx rx 7. sx tx ux #+ vx wx ,  xx yx zx Ax Bx Cx Dx Ex Fx Gx Hx Ix ,  Jx Kx ,  Lx Mx Nx 9} Ox Px Qx 'e Rx Sx Tx N@ Ux Vx ",
"Wx Xx Yx Zx `x  y .y +y @y #y $y %y &y *y =y -y ;y >y ,y 'y )y !y ~y {y ]y ^y /y (y _y :y <y [y }y |y p9 1y 2y 3y ,  4y 5y 6y 7y Y  m~ 8y 9y 0y ay K  x[ by cy dy ;) ey fy gy P/ hy iy jy `+ ky ly my ny oy py qy ry sy ty uy vy wy xy yy ,  zy Ay By Cy 6. u. Dy Ey Fy Gy Y. f> Hy Iy Jy Ky Ly W# 9/ My Ny Oy Py ;) ,  Qy Ry Sy Ty u, Y  Uy Vy Wy Xy Yy x  x  Zy `y  z .z g. ,  +z @z #z 7) K  ,  >+ $z %z &z M. ,  z] [s `t *z ,  F  =z -z ;z cx ,  v@ >z ,z 'z Y& ,  )z !z gx -) K  ~z {z ]z A. u, ^z /z f. T. (z _z S= :z <z [z ,  }z |z 1z 2z 3z 4z 5z 6z 7z ,  8z 9z *- 0z az bz cz dz ez fz gz hz ,  iz jz kz lz mz nz #+ oz pz qz !% nk rz sz ",
"tz uz vz wz xz yz zz Az Bz Cz Dz Ez Fz Gz Hz Iz Jz Kz Lz Mz Nz Oz Pz Qz Rz Sz Tz Uz Vz Wz Xz Yz Zz `z  A .A +A @A Y  #A $A %A  < u+ V# &A *A =A -A Z[ K  ;A >A ,A 'A x  )A !A ~A ,  {A ]A ^A /A (A _A }b :A <A [A u+ }A |A 1A 7. 2A 3A 4A 5A Y  6A 7A 8A 9A j_ d| 0A aA bA cA xt u+ dA eA fA gA hA #+ N. iA jA kA lA Q*  @ mA nA oA pA qA x  rA sA tA uA vA F  `+ wA xA yA zA ,  `+ AA BA 07 CA Y  v@ T1 %z DA C| ,  O% EA FA GA O% F  V, 6x HA IA ,  u. JA %u >z b$ (. KA !z k2 Y  LA MA NA M| Y  OA PA QA u+ RA SA TA K  W) UA as VA WA XA F  YA ZA !1 `A  B .B ,% +B @B ,  #B $B F  %B &B *B =B -B ;B F  >B ,B j4 'B )B !B ,  ~B {B ]B ^B #+ /B (B ",
"_B :B <B [B }B |B 1B 2B 3B 4B 5B 6B 7B 8B 9B 0B aB bB cB dB eB fB gB hB iB jB kB n4 lB mB e8 nB oB ,  pB qB rB ,  sB k/ tB uB vB m, F  wB xB yB zB AB x  d| BB CB DB #$ EB FB GB HB IB JB KB `+ LB MB NB g. OB PB QB `+ RB SB TB 7. UB VB WB XB u+ YB ZB `B  C qy F  .C +C @C #C $C D; Zp %C &C *C =C B| N. ev -C ;C >C K3 ,  ,C 'C )C !C 74 ;) ~C {C ]C ^C 9* u+ /C (C _C :C D; g. <C [C }C |C L. g. G* xq 1C 2C ,  ,  3C HA 4C m@ ,  B| 5C 6C 7C `  v@ 8C 9C 'z k$ ,  0C aC bC Y  cC dC eC p} u+ fC gC hC Y  Q- iC jC M. kC lC u+ mC nC oC #+ pC qC ,  rC sC tC uC vC wC xC yC zC F  AC BC F  CC DC EC J^ FC GC #+ HC IC JC ,  KC LC MC NC ,  OC PC ",
"QC RC zz SC TC UC VC WC XC YC ZC `C  D .D +D @D #D $D %D &D *D =D -D ;D >D ,D 'D )D !D ,% ~D {D ]D ^D /D (D _D M. :D <D [D }D $4 |D j* >g 1D 2D 3D 4D 5D ,  6D 7D 8D 9D Y  0D aD bD ;) k5 cD dD g. eD fD gD hD iD jD kD /q lD mD nD #$ oD pD qD rD u+ sD tD uD vD wD 7. (b xD yD zD AD x  G. BD CD DD Dy mj N. ED FD GD HD xt .@ ID JD KD LD ^. g. MD ND OD PD ;) F= QD RD SD TD K  ,  UD VD WD XD x  v@ YD 9x @b M. ,  Kh ZD ZD sg ,  g. `D  E .E Y  .@ +E @E #E f> ,  KA $E %E ,  &E *E k2 ]] g. =E -E ;E f> >E ,E z] 'E )E !E ,  ~E {E ]E ^E /E (E >@ _E :E 9} <E [E }E |E 1E 2E hk 3E 4E ,  5E 6E 7E 8E 9E 0E ,  aE bE cE ,% dE eE fE gE (. *  hE ",
"iE jE kE lE mE nE oE pE qE rE sE tE uE vE wE xE yE zE AE BE CE DE EE FE GE HE IE JE 1# KE LE ME W# NE OE PE ,  Z6 QE RE SE TE UE VE j* ,& WE XE YE ZE `E 7. #$  F .F +F g. @F #F $F %F &F *F =F ]x -F ;F >F x  ,F 'F )F 7. 3g !F ~F {F A. ]F ^F /F (F .@ uy _F :F <F [F (. }F |F 1F 2F 3F  @ 7. 4F 5F 6F 7F Z6 ,  8F 9F 0F aF }b (. bF cF dF eF ^. ,  }7 fF gF hF F  u+ iF jF kF lF A. n# mF nF oF u+ ,  69 pF qF Dv ,  O% GA Bq rF M. A. sF tF uF E; g.  u vF wF u+ >@ xF yF zF ,  AF BF CF M. d| DF |~ E; =7 EF FF .@ GF HF IF K  JF KF ,  LF MF NF OF PF QF ,  RF SF ,  TF UF VF WF XF YF ,  ZF `F  G .G +G @G #+ #G $G %G &G b$ *G =G -G ;G %> >G ",
",G 'G )G !G ~G {G ]G ^G /G (G _G :G <G [G }G |G 1G 2G 3G 4G 5G 6G 7G 8G 9G 0G aG bG cG dG eG ,  fG gG hG iG k$ 3@ jG kG lG mG nG oG u+ L# E; pG qG rG sG tG x  uG vG wG xG ;) yG zG AG 7. BG CG DG D; EG FG GG |) HG IG JG |) KG LG MG NG Y  OG PG QG RG f. f. SG TG UG VG #$ #$ WG XG YG ZG u. x  `G  H .H +H @H u+ #H $H %H &H Ya g. *H =H -H ;H ^. 7. >H ,H 'H )H Y  !H ~H {H ]H |) F  ^H /H (H >& ,   . _H 5n :H ,  M. <H [H }H o. #+ |H 1H 2H T% u+ Hv vF 3H g. g. uF 4H 5H ,  6H 7H 8H K  9H 0H h- g. Hl aH bH Y  cH dH eH fH gH hH ,  iH jH s  kH lH mH ,  nH oH ,  pH qH rH sH tH uH ,  vH wH xH yH zH AH l+ BH CH DH EH ,  FH GH HH IH 9} u+ ",
"JH KH LH MH NH OH PH QH RH SH TH UH VH WH XH YH ZH `H  I .I +I @I #I $I %I &I *I =I -I ;I ,  >I ,I 'I )I 6. W# !I ~I {I ]I ^I /I (I _I (. u; $< :I <I [I }I j_ ^. |I 1I 2I 3I 4I 5I 6I 7I 8I 9I 0I aI bI cI dI eI B| fI gI hI ,  iI jI kI lI x  mI nI oI pI 6$ D; qI rI sI tI qy #$ uI vI wI xI ;| ^. yI zI AI BI CI ,  DI EI FI GI 7. ,  HI II JI KI (. LI MI NI OI PI (. QI RI SI TI u+ `  UI VI WI O% M. o<  b XI 7; M. YI ZI h6 `I ,   J .J +J 6$ Y  @J #J bx E; K  $J %J &J ,  *J =J )z Y  -J ;J w| u+ >J ,J 'J ,  )J !J g> ~J {J ]J ,  ^J /J ,  (J _J :J <J [J }J ,  |J 1J 2J 3J 4J 5J ,  6J 7J 8J ^B 9J 0J aJ A- bJ cJ dJ #+ eJ fJ gJ hJ iJ 6. ",
"jJ kJ lJ mJ nJ oJ pJ qJ rJ sJ tJ uJ vJ wJ xJ yJ zJ AJ BJ CJ DJ EJ FJ GJ HJ IJ JJ KJ LJ MJ NJ OJ PJ QJ Y& *  ja RJ SJ TJ UJ VJ WJ XJ YJ #$ o% x  ZJ `J  K .K +K 7. @K #K $K %K ,  &K *K =K 7. -K ;K >K `+ ,K 'K )K !K ~K {K ]K ^K ;@ /K (K _K :K ,  <K [K }K |K 1K ,  2K 3K 4K 5K 6K |) 7K 8K 9K 0K aK g. Zp bK cK dK ny ,  eK fK gK hK +@ x  iK jK kK lK Y  Lo mK nK oK x  ^. pK qK rK sK ,  K5 tK uK z] Y  vK q8 wK xK f> .> yK $u @J ,  zK AK BK W] ,  CK DK EK u. K  FK GK w* ,  HK &} IK K  JK KK LK u+ MK NK OK ,  PK QK ,  RK SK TK #+ UK VK ,  WK XK YK ZK `K  L ,  .L +L yd @L #L $L ,  %L &L *L *  =L -L ;L ,  >L ,L 'L )L *  !L ~L {L ]L ^L ",
"/L (L _L :L <L [L }L |L 3a 1L 2L 3L 4L 5L 6L 7L 8L 9L 0L aL bL cL dL eL fL gL hL iL jL #+ kL lL mL nL K  W# oL pL qL rL sL tL uL vL wL xL x  .) u+ yL zL AL BL CL g. DL EL FL GL LI HL IL JL `+ KL LL ML u+ NL OL PL |) QL RL SL TL x  UL VL WL XL ;@ YL ZL `L  M .M ]x +M @M #M $M %M #$ &M *M =M -M ;M 7. >M ,M 'M )M !M ,  gD ~M {M ]M `+ j_ ^x ^M /M 0g ;) MD (M _M :M x  ]n <M [M lq x   . zq b[ }M E; ,  |M 1M 2M S= .@ m8 3M 4M F  S= 5M 1M @J ,  6M 1C 7M g> u+ $J C{ 8M ,  6H j2 m> u+ 9M ay 0M g. aM bM cM ,& dM eM ,  fM gM hM iM jM kM ,  lM mM nM oM pM qM ,  rM sM yd tM uM vM ,  wM xM yM ,  zM AM BM ,  ~e CM DM EM FM W# GM HM IM JM ",
"KM LM MM NM OM PM QM RM SM TM UM VM WM XM YM ZM `M  N .N +N e8 @N #N $N %N &N *N =N ,  -N ;N >N ,N F  K# S= 'N )N !N ~N {N ]N ^N /N (N _N :N ,  <N #$ [N }N |N 1N u+ 2N 3N 4N 5N ,  6N 7N 8N 9N 0N aN bN cN dN eN fN gN K  hN iN jN kN 7. lN mN nN oN |) pN qN rN sN tN `+ ij uN vN wN xN ^. `+ yN zN AN BN #$ Z6 CN DN EN FN g. )H GN HN IN ^. JN KN LN MN :^ Y  NN ON PN QN ,  RN SN TN QN v@ i< UN VN Kh (. WN XN YN W] Y  ZN FA `N f> M.  O .O +O F  u; @O #O 'E u. $O c) M_ ,  %O &O @6 K  |4 *O =O u+ -O ;O    >O ,O 'O ,  )O !O ~O {O ]O ^O ,  /O (O _O :O <O [O ,  }O |O 1O 2O 3O 4O ,  5O 6O 7O ,  8O 9O 0O aO #+ bO cO dO eO ,  *  fO gO hO ",
"iO jO kO lO mO nO oO pO qO rO sO tO uO vO wO xO yO zO AO l+ BO CO DO EO FO GO HO ,  IO JO KO LO B  `  v@ <5 u2 MO NO OO PO QO RO SO TO UO VO WO (. +& XO YO ZO `O  P 7. .P +P @P #P u+ $P %P &P Y  *P =P -P x  ;P >P ,P 'P u+ )P !P ~P {P 7. ]P ^P /P (P _P `+ :P <P [P }P |P ^. iI 1P 2P 3P pN ^. 4P 5P 6P 7P ;) D; 8P 9P =s 0P ;) aP bP cP dP K  R_ eP fP gP ;) #$ hP iP jP j_ pq kP lP mP x  E; nP oP wB #+ K  pP qP rP K  5. sP tP h3 Y  Dv uP 8C E; -. 2H vP wP v@ xP #> p< ,  yP zP u] Y  AP (~ BP K  CP DP f> EP FP GP ,  HP IP JP KP LP MP ,  NP OP PP QP RP SP ,  TP UP VP WP XP YP F  [G ZP `P  Q .Q +Q @Q #Q ,  $Q %Q &Q *Q =Q l+ F  -Q ;Q ",
">Q ,Q 'Q )Q !Q ~Q 2E {Q ]Q ^Q /Q (Q _Q :Q <Q [Q }Q |Q Yb 1Q 2Q 3Q 4Q 5Q 6Q 7Q ,  8Q 9Q 0Q aQ bQ f> Y  u+ >k cQ dQ eQ fQ gQ hQ iQ jQ kQ lQ mQ nQ |) K# ,  oQ pQ qQ rQ U# #$ sQ tQ uQ ^. vQ wQ xQ yQ 7. zQ AQ BQ D; CQ DQ EQ FQ ,  GQ HQ IQ JQ ,  |4 KQ LQ MQ NQ P/ OQ PQ QQ RQ SQ K[ TQ UQ VQ WQ XQ N. YQ ZQ `Q  R '2 T% .R +R @R #R ,  $R %R X8 &R $< *R =R -R ;R ;) >R ,R 'R )R #$ ]n !R ~R {R Y  >g Q1 ]R u$ K  g0 =u ^R T% Y  /R (R _R Y  W] 'z :R 6$ ,  f# <R [R K  }R 6@ |R ,  Ml 1R 2R K  3R 4R 5R u+ 6R 7R .@ 8R 9R 0R ,  aR bR cR dR eR fR ,  gR hR iR jR kR lR ,  mR nR oR #+ pR qR rR ,% sR tR uR ,  vR wR xR yR ,  zR AR BR CR DR =w ,  l+ ",
"ER FR GR HR IR JR KR LR MR NR OR PR QR RR SR TR UR VR WR XR yd YR ZR `R  S ,  .S +S @S #S $S ^. N% W# g. :$ L8 *u %S &S *S =S -S ;S >S ,S 'S )S !S x  hx K  ~S {S ]S ^S ,  /S (S _S :S ,  <S [S }S |S 1S 2S 3S 4S ,  5S 6S 7S 8S 7. 9S 0S aS bS `+ |P cS dS eS fS |) gS hS iS jS kS 7. lS mS nS oS pS x  qS rS sS tS uS D; vS wS xS yS Y  zS AS BS CS ,  DS ES FS GS Y  HS IS JS KS x  |4 LS MS 74 u+ Gc 6{ 6[ x  +) NS (q OS M. PS QS 8H .@ %{ FK RS SS Y  TS ex US Y  A= VS WS ,  XS YS SS K  ZS `S 1~ u.  T .T .@ +T 9R 0R ,  @T #T cR $T %T &T ,  *T =T -T ;T >T ,T ,  'T )T TF ,  wi !T ~T ,  {T ]T ^T /T (T _T :T <T [T ,  }T |T 1T 2T 3T 4T ,  ",
"5T 6T 7T 8T 9T 0T aT bT cT dT eT fT gT hT iT !% jT kT lT F  mT nT oT pT ,  qT rT sT tT uT vT x  g. u. U{ o% =. v@ x[ +) wT xT yT zT AT BT CT DT ET FT K  b_ GT HT IT JT KT K  LT MT NT OT >i PT QT RT Y  ST TT UT VT |) WT XT YT ZT ,  `T  U .U +U |S 7. @U #U $U %U ]x #$ &U *U =U -U ;@ ;U >U ,U 'U )U g. Nw !U ~U {U &M .i ]U ^U /U (U 7. _U :U <U [U K[ }U |U 1U 2U |) 3U 4U 5U _. U# 6U 7U >9 Y  8U 9U }s e3 #$ 0U 3i f# b$ S= aU bU A* f> Bl uP cU K  [R dU eU ,  .> fU gU ,  hU iU jU Y  *& kU yl .@ lU mU S= nU 9R oU ,  pU qU rU sU tU uU ,  vU wU xU F  yU zU 6. AU BU CU ,  DU EU FU j4 GU HU IU JU ,  KU LU MU NU OU ,  PU QU RU SU TU UU ",
"VU WU XU YU ZU `U  V .V +V @V #V $V %V &V ,% *V =V -V ,  ;V >V ,V 'V Y  )V !V ~V {V ]V ^V %{ K  u+ E; x  Y  ,  ,  K  A. #+ ;) /V (V _V :V <V [V }V |V 1V R= ,  2V 3V 4V 5V ,  6V 7V 8V 9V ,  0V aV bV cV ,  dV eV fV gV ,  hV iV jV kV ,  lV mV nV oV pV g. qV rV sV tV uV 7. vV wV xV yV zV 7. AV BV CV DV $< EV FV GV HV IV $< JV KV Yc LV 7. MV NV OV PV K  QV RV SV ;) :^ TV UV VV x  [- WV XV YV Y  Cb 4s r2 E; Kh ZV `V  W ,  .W +W w= S= B= #E @W v@ z] #W $W ,  u. %W &W ,  ]* *W =W Y  R, -W ;W k$ >W ,W 'W )W 1& !W ,  ~W {W ]W ^W /W (W ,  _W :W <W ,  [W }W |W y9 1W 2W 3W y9 4W 5W 6W ,  7W 8W 9W 0W ,  aW bW cW dW eW ,  F  fW gW hW iW ",
"jW kW lW mW nW oW pW qW rW sW tW uW vW wW xW yW zW ,  AW BW CW DW ,  EW FW GW HW IW JW A= .> M. K  K  K  K  Y  A. k$ F  j* K  ;) |) KW LW MW NW OW PW QW #$ RW K  SW TW UW VW ,  WW XW YW ZW K  `W  X .X +X u+ @X #X $X %X g. &X *X =X -X ,  ;X >X ,X 'X )X ,  !X ~X {X ]X ^X 7. /X (X _X :X <X ,  [X }X |X 1X j_ 4g 2X 3X FV 4X |) 5X 6X 7X 8X `+ 9X 0X aX |D bX cX dX eX ,  fX gX hX iX F  jX ^( kX ,  lX 'z 5C z] Y  mX nX oX j* pX qX |M 7; 7; rX sX Kh e3 tX uX |s M. vX wX Lh mj xX *z K  yX e$ zX ,  AX BX CX u; DX EX ,  FX GX HX *  IX JX ,  KX LX MX ,  NX OX PX ,  QX RX SX ,  TX UX VX P: WX XX YX ZX `X ,   Y .Y +Y @Y #Y F  ,  $Y %Y &Y ",
"*Y =Y -Y ;Y >Y ,Y 'Y )Y !Y ~Y {Y ,% ]Y ^Y /Y (Y _Y :Y <Y [Y Gx ,  }Y |Y 1Y 2Y 3Y 4Y 5Y o. .@ K  ,  ,  (. -. (. (. (. F  6. #+ M. E; 7. :^ 6Y 7Y 8Y 9Y 0Y aY ,  Y  bY cY dY eY N% .@ fY gY hY iY << jY kY lY mY Ya nY oY pY qY `+ rY sY tY uY ]x ;) vY wY xY yY :^ `+ zY AY BY CY D; D; DY EY FY GY x  HY IY JY KY ;@ LY MY NY OY PY |) `c QY RY _P ]x SY TY UY D; VY WY XY Mo K  YY ZY `Y #$ e3  Z .Z +Z ,  @Z #Z wq ,  $Z %Z &Z W#    sX Al p} k$ *Z >q 3[  . =Z -Z ;Z ,  >$ >Z ,Z x  'Z )Z O% !Z ~Z {Z ,  ]Z ^Z /Z ,  (Z _Z ,  :Z <Z [Z ,  }Z |Z 1Z 2Z 3Z 4Z 5Z 6Z 7Z 8Z ,  9Z 0Z aZ ;G bZ cZ dZ eZ ,  fZ gZ hZ iZ jZ ,  kZ lZ mZ nZ oZ {G ,  ,  pZ ",
"qZ rZ sZ tZ uZ n4 vZ wZ xZ yZ zZ AZ BZ CZ ,  DZ EZ FZ GZ F  ,  HZ IZ JZ KZ LZ MZ hA Lh (. Y  F  #+ 6. F  -. /. -. -. L# 9} 6. F  K  K  x  #$ NZ OZ PZ QZ RZ SZ g. g. TZ UZ VZ WZ K  XZ YZ ZZ `Z ,   ` .` +` @` ;) #` $` %` &` *` ,  =` -` ;` >` ,` ,  '` )` !` ~` {` ^. ]` ^` /` (` _` |) :` <` [` }` Y  |` 1` 2` 3` ZJ j_ 4` 5` 6` 7` D; 8` 9` 0` a` b` c` d` e` ,  f` g` h` sK kg i` j` k` Y  l` m` n` ;) A. o` p` <5 O% f# k2 =7 I@ cU q` r` Y. SS N1 s` u. t` u` v` b$ 8) w` x` u+ o` y` %{ ^. z` A` Y  B` C` D` ,  E` F` G` H` I` J` ,  K` L` M` !% N` O` P` #+ Q` R` S` W# T` U` V` ,  W` X` Y` Z` ,  ``   .6O . .+ .,  @ .# .$ .% .& .* .= .,  ",
"- .; .> .n4 , .' .) .! .s  ~ .{ .] .^ .s  / .( ._ .: .,  .* < .[ .} .| .1 .2 .3 .4 .5 .`  `  K  .@ S=    k$ ,  ,  ,  ,  K  K   @ ,  +& L# Y  6 .7 .8 .9 .0 .a .<< m, b .c .d .e .f .,  g .h .i .j .g. k .l .m .n .x  o .p .q .r .s .,  t .u .IT v .w .,  x .y .z .A .B .,  ]n C .D .E .F .,  <s G .H .I .J .^. K .L .M .N .]x O .P .Q .!K ;@ R .S .T .Y  U .V .W .X .^. Y .Z .uv 7. ` . .....+..L. @..#..$..,  ]{ k2 D_ x[ [R %..$J (' YI &..*..Y. u$ =..-..7; i7 ;..>..;* V* ,..'..u+ KA )..!..#$ +~ ~..E; {..]..w' ,  ^../..(..#+ _..:..6. <..[..}..,  |..1..2..,  3..4..5..,  6..7..8..9..,  0..a..b..c..,  d..e..f..g..h..,  6. i..j..k..l..m..n..",
"o..p..q..r..s..t..yd u..v..w..x..s  y..z..A..B..C..,  D..E..F..G..H..I..J..K..L..bs g. u+ g. x  x  x  D; M..N..O..P..Q..R..S..K  K  ,& F  A. ,  T..U..V..W..X..Y..u+ ,  Z..`.. +..+.Y  g. ++.@+.#+.$+.,  %+.&+.*+.=+.K  -+.;+.>+.,+.'+.,  )+.!+.~+.{+.]+.<^ #$ ^+./+.(+._+.:+.`+ <+.[+.}+.|+.7. 1+.2+.3+.4+.5+.]x 6+.7+.8+.9+.$< 0+.a+.b+.4g c+.W8 d+.e+.`+ f+.g+.h+.ov ;) i+.j+.k+.#$ l+.m+.n+.;) B) o+.p+.g> I@ q+.e7 6q B| r+.s+.t+.]] u+.v+.(' p} w+.FK x+.6$ y+.z+.A+.x[ O| B+.u+ u] C+.D+.g. E+.F+.G+.Nv H+.I+.,  J+.K+.L+.,  M+.N+.O+.6# P+.Q+.eb R+.S+.T+.U+.V+.W+.X+.>I ,  Y+.Z+.`+.N@ .Q (o  @..@.+@.,  @@.#@.$@.%@.&@.9# ,  *@.=@.-@.;@.>@.",
",@.'@.)@.!@.~@.!% {@.]@.^@./@.,  (@._@.:@.<@.yd g. Ml [@.}@.|@.1@.2@.3@.4@.5@.6@.u, R{ :~ ;) `+ 7@.8@.9@.0@.a@.b@.c@.d@.e@.f@.g@.h@.K  E; .@  @ Y  i@.j@.k@.l@.m@.n@.k$ Lh o@.p@.q@.r@.,  7i s@.t@.u@.v@.,  w@.x@.y@.z@.Y  f> A@.B@.C@.D@.#$ x  E@.F@.G@.H@.I@.K  J@.K@.L@.M@.N@.,  O@.P@.Q@.R@.S@.,  T@.U@.V@.W@.`+ X@.Y@.Z@.`@.$<  #..#.+#.9N 2N @#.##.$#.,  %#.&#.*#.=#.PV -#.;#.>#.,  ,#.'#.)#.,  Ml !#.D_ ja B: tg 0x T% vT ~#.{#.]] ]#.^#./#.7; T0 (#.Gh u. m8 ZI {5 .@ _#.:#.B) A+.<#.@& x  [#.s] }#.u+ |#.1#.)W 2#.3#.4#.,  5#.6#.7#.,  8#.9#.0#.,  a#.b#.c#.,  d#.e#.f#.*  g#.h#.i#.j#.,  8E k#.l#.m#.n#.,  o#.p#.q#.r#.s#.t#.,  ,  u#.v#.w#.",
"x#.y#.z#.s  A#.B#.C#.D#.9} E#.F#.G#.H#.I#.,  x  J#.K#.L#.M#.N#.O#.P#.Q#.R#.S#.T#.U#.LY a` V#.W#.X#.Y#.Z#.`#. $..$.+$.@$.#$.$$.%$.&$.*$.g. g. `  %> ,  =$.-$.;$.>$.,$.,  F  '$.)$.!$.~$.{$.,  ]$.^$./$.($.(. Y  _$.:$.<$.[$.K  u+ }$.|$.1$.2$.3$.,  4$.5$.6$.7$.8$.#$ j_ 9$.0$.a$.b$.^. fq c$.d$.e$.f$.`+ g$.h$.i$.j$.;) k$.l$.m$.n$.x  o$.p$.q$.;@ r$.s$.t$.u$.g. v$.w$.x$.7. y$.z$.A$.^. HB B$.C$.D$.B7 E$.F$.:$ Y. .E z+.5Y    G$.H$.%g ,% I$.J$.f>  @ K$.L$.,  9e M$.N$.*  O$.Fq P$.Y& Q$.R$.`+ 4x S$.T$.K  h[ U$.V$.,  W$.X$.Y$.Z$.`$. %.l+ .%.+%.@%.,  #%.$%.%%.&%.*%.=%.-%.;%.,  >%.,%.'%.)%.K  !%.~%.{%.]%.^%.,  s  /%.(%._%.:%.<%.[%.Y  ,  }%.",
"|%.,% 1%.2%.3%.4%.5%.,  6%.7%.8%.9%.+@.*  p} 0%.a%.b%.c%.d%.e%.f%.g%.h%.i%.j%.KS k%.l%.m%.n%.o%.p%.q%.r%.s%.t%.u%.v%.w%.x%.y%.z%.A%.B%.C%.g. >@ ,  M. << D%.E%.F%.G%.H%.#+ u+ I%.J%.K%.L%.g. K  M%.N%.O%.P%.m, 7. Q%.R%.S%.T%.U%.7. V%.W%.X%.Y%.Z%.|) ^. `%. &..&.+&.@&.,  #&.$&.%&.&&.*&.#$ =&.-&.;&.>&.,  ,&.'&.)&.!&.`+ ~&.{&.]&.^&.#$ /&.(&._&.a` [7 :&.<&.[&.(. }&.|&.1&.$< 2&.3&.4&.j_ 5&.6&.7&.#$ _' 8&.9&. . 5Y z+.KA ;* B= wK p8 0&. O a&.Q6 v@ b&.c&.Y& 7; d&.e&.I@ j^ f&.g&.M. ;8 h&.i&.x  j&.k&.B| l&.m&.n&.,  o&.p&.q&.,  r&.s&.t&.F  u&.v&.w&.#+ x&.y&.z&.,  A&.B&.C&.D&.,  E&.F&.G&.H&.,  *@.I&.J&.K&.L&.$Q ,  M&.N&.O&.P&.Q&.R&.S&.u+ ",
"y9 T&.U&.V&.W&.,  X&.Y&.Z&.`&. *.j4 ,  g$ .*.+*.@*.#*.$*.%*.&*.**.=*.-*.;*.>*.,*.'*.)*.!*.~*.{*.]*.^*./*.(*._*.:*.<*.[*.}*.|*.1*.2*.3*.4*.5*.Y  M. V# K  6*.7*.8*.9*.0*.Y  .@ a*.b*.c*.d*.e*.Y  ,  f*.g*.h*.i*.u+ u+ j*.k*.l*.m*.n*.Y  o*.p*.q*.r*.s*.t*.,  u*.v*.w*.x*.y*.,  z*.A*.B*.C*.D*.7. E*.F*.G*.H*.x  I*.J*.K*.L*.`+ M*.N*.O*.P*.`+ Q*.R*.S*.a` T*.U*.V*.*&.W*.X*.Y*.Z*.<^ `*. =..=.,  +=.@=.BP F  #=.K4 $=.C| sF %=.;Z ]] y3 &=.:0 `I *=.==.`I W] -=.;=.o. >=.nX i7 Y  ,=.'=.v@ 9e k2 )=.x  E7 L@ !=.#+ 3! ~=.{=.]=.^=./=.Y  (=._=.:=.,  <=.[=.}=.6. |=.1=.2=.3=.,  4=.5=.6=.7=.,  8=.9=.0=.a=.9} ,  ;! b=.c=.d=.e=.,  ,  f=.g=.h=.i=.j=.;; ",
"k=.l=.m=.n=.,  o=.p=.q=.r=.s=.g. t=.u=.-2 v=.w=.x=.y=.z=.A=.B=.C=.D=.E=.F=.G=.H=.I=.J=.K=.L=.M=.N=.O=.P=.Q=.R=.S=.T=.U=.V=.W=.X=.Y=.Z=.`=. -..-.,  K  k$ K  +-.@-.#-.$-.%-.u+ Y  &-.*-.=-.--.;-.F  h@.>-.,-.'-.)-.x  x  !-.~-.{-.]-.^-.g. u+ /-.(-._-.:-.<-.,  {$.[-.}-.|-.1-. @ `+ 2-.3-.4-.5-.,  6-.7-.8-.9-.m, 0-.a-.b-.c-.`+ V%.d-.e-.f-.D; g-.h-.i-.j_ j-.k-.l-.m-.n-.o-.p-.^) q-.r-.s-.t-.;@ u-.v-.S. `I w-.ai Z6 >g rb x-.f> y-.nX s` W# z-.:R YI .@ A-.B-. . >G C-.D-.,  E-.F-.G-.v@ %E H-..> I-.J-.K-.#+ L-.M-.N-.,  O-.P-.Q-.,  R-.S-.T-.F  U-.V-.W-.,  X-.Y-.Z-.`-.,   ;..;.+;.@;.,  #;.$;.%;.&;.R2 ,  *;.=;.-;.;;.>;.,;.,  ';.);.!;.~;.{;.",
"];.^;.,  /;.(;._;.:;.<;.yd ,  T% [;.};.|;.1;.2;.3;.4;.5;.6;.7;.8;.9;.0;.a;.b;.c;.d;.e;.f;.g;.h;.i;.j;.k;.l;.m;.n;.o;.p;.q;.r;.s;.t;.u;.v;.w;.x;.=.  @ +& ,  y;.z;.A;.B;.C;.Lh Z  ,  D;.E;.F;.G;.#$ K  H;.I;.J;.K;.L;.`  F  M;.N;.O;.P;.Q;.R;.,  S;.T;.U;.V;.W;.X;.,  Y;.Z;.`;. >..>.,  +>.@>.#>.$>.#$ %>.&>.*>.=>.->.m-.;>.>>.,>.$< '>.)>.!>.~>.D; {>.]>.^>.,  />.(>._>.g. :>.<>.[>.Ya }>.|>.1>.7. 2>.3>.4>.#+ 6v 9d L* L. /R bC S) 5>.6>.7>.j* Y& 8>.9>.(. ;Z 0>.h3 FM dx a>.,  Db b>.c>.u+ Bl d>.xK ;) e>.f>.g>.   h>.i>.+& j>.k>.l>.K  m>.n>.o>.F  p>.q>.r>.s>.V# t>.u>.v>.w>.s  x>.y>.z>.A>.,  B>.C>.D>.E>.`-.,  F>.G>.H>.I>.J>.K>.,  ,  aO L>.M>.",
",  *  N>.O>.P>.Q>.R>.#+ A. 9e S>.T>.U>.V>.W>.X>.Y>.Z>.`>. ,..,.+,.@,.#,.$,.%,.&,.*,.=,.-,.;,.>,.,,.',.),.!,.~,.{,.],.^,./,.(,._,.:,.<,.[,.},.|,.1,.K  Y  ,  Y  2,.3,.4,.5,.6,.,  Q  |D 7,.8,.9,.0,.x  -. D$.a,.b,.c,.d,.A@ ,  e,.f,.g,.h,.i,.j,.,  >@ k,.l,.m,.n,.o,.,  p,.n .q,.r,.s,.Y  t,.u,.v,.w,.x,.,  y,.z,.A,.B,.`+ C,.D,.E,.u+ F,.G,.H,.I,.g. J,.K,.L,.|) M,.N,.O,.D; 4&.P,.Q,.,  R,.S,.T,.g. U,.V,.vk v@ T1 W,.vT y+ kn <H    ;Z rb IK u. X,.Y,.p} 7; )5 +O o. Z,.}9 /#.f> )> `,.<~ x+. '..'.E; #2 +'.q/ ,  a6 @'.#'.,  $'.%'.&'.,  *'.='.-'.,  ;'.>'.,'.*  jL ''.)'.!'.,& ~'.{'.]'.^'./'.,  ('._'.:'.<'.['.,  ,  }'.|'.1'.2'.3'.4'.,  ,  5'.",
"6'.7'.8'._'.9'.0'.u+ o. a'.b'.c'.d'.e'.f'.g'.h'.i'.j'.k'.l'.m'.n'.o'.p'.q'.r'.s'.t'.u'.v'.w'.x'.y'.z'.A'.B'.C'.D'.E'.F'.G'.H'.%2 I'.J'./,.K'.L'.M'.x  Y  ,  ,  N'.O'.P'.Q'.R'.N'.>@ Y  S'.T'.U'.V'.W'.Y  W# X;.X'.Y'.Z'.`'. ).,  K  .).+).@).#).$).;) K  %).&).eY *).=).,  m, -).;).>).,).#$ mY ').)).!).~).`+ {).]).^)./).;) ()._).:).LY <).[).}).|).P/ 1).2).3).`+ 4).5).6).;) 7).8).9).D; 0).a).b).+) c).d).7. z] e).5M ja f).g).<q Y& h).i).zK j).k).{#.7; l).y3 6$ B| %=.m).Y& n).b>.>$ F= o).p).xK S= q).r).'W s).t).u).9} v).w).x).y).z).A).B).C).s  D).E).F).,  G).H).I).J).#+ K).L).M).N).O).,  P).Q).R).S).T).U).,  V).W).X).Y).Z).`).ja Y  ",
" !..!.+!.@!.F  g. '| #!.$!.%!.&!.*!.=!.-!.;!.>!.,!.'!.)!.!!.~!.{!.]!.^!./!.(!._!.:!.<!.[!.}!.|!.1!.2!.3!.4!.5!.6!.ZV Yx 7!.8!.9!.0!.a!.b!.c!.d!.e!.f!.Y  Y  ,  K  g!.h!.i!.j!.k!.K  `  u+ $$ l!.m!.n!.o!.u+ m, 9N p!.q!.r!.s!.t!.u+ ,  u!.v!.w!.x!.y!.z!.,  |D A!.B!.C!.D!.E!.Y  F!.G!.H!.I!.J!.Y  K!.L!.M!.N!.x  O!.P!.Q!.R!.,  S!.T!.U!.,  V!.W!.X!.Y!.JN Z!.`!. ~.!K .~.+~.@~.a` #~.$~.%~.&~.*~.=~.D; -~.;~.:n '| s` %E >~.;* ,~.'~.p} B: )~.c# `I !~.)5 u$ A+.~~.{~.mj <H +W A+.u. ]~.^~.Y& nh D3 zX S= /~.C` (~.6. _~.:~.<~.,  [~.}~.|~.,  1~.2~.3~.4~.5~.6~.7~.8~.,  9~.0~.a~.b~.,% *  c~.d~.e~.f~.,  ,  g~.h~.i~.j~.k~.,  ,  l~.m~.n~.o~.p~.q~.",
"r~.s~.t~.g. LI =a u~.v~.w~.x~.y~.z~.A~.B~.C~.D~.E~.F~.G~.H~.I~.J~.K~.L~.M~.N~.O~.P~.Q~.R~.S~.T~.U~.>* p} 9e A= @6 V~.W~.X~. '.d% Y~.Z~.`~. {.;7 .{.+{.Y  ,  ,  Y   > }> @{.#{.${.RA K  5. x  %{.&{.*{.={..2 E; 7. #$ -{.;{.>{.,{.'{.K# ,  N% ){.!{.~{.{{.]{.g. K  ^{./{.({._{.:{.u+ <{.[{.}{.|{.1{.,  2{.3{.4{.j .#$ 5{.6{.7{.8{.,  9{.0{.a{.;) b{.c{.d{.e{.f{.g{.h{.i{.j{.k{.l{.m{.n{.o{.p{.P/ q{.r{.s{.Y  t{.u{.`a mj v{.w{.|s m> x{.IK y{.z{.A{.Q6 Gh B{.u] A= ]{ C{.<e 6/ )~.D{.o. )~ E{.F{.7; G{.H{.l).(' I{.J{.K{.9# L{.M{.N{.F4 O{.P{.G).,  Q{.R{.S{.,  T{.U{.V{.W{.,  X{.Y{.Z{.`{. ].,  .].+].@].#].$].,  @!.%].&].*].=].-].,  ;].>].,].'].)].",
"!].,  k_ <^ ~].{].]].^]./].(]._].:].<].[].}].|].1].2].3].4].5].6].7].8].9].0].a].b].c].d].e]..@ f> $Z V# k$ V# f].g].h].>* 9e i].j].k].l].m].n].o].p].S= Y  ,  ,& ]] Z| ;7 q].r].s].f. .@ j* O% t].u].v].w].x].u+ g. g. y].z].A].B].C].~b K  Y  D].E].F].G].H].I].Y  <^ J].K].L].M].K  << N].O].P].Q].Y  R].S].T].U].u+ V].W].X].Y].,  Z].`]. ^.N% .^.+^.@^.#^.$^.%^.&^.*^.=^.-^.;^.`+ >^.,^.'^.`+ )^.!^.~^.K  {^.Dg O% 9e tg cx Y. ]^.^^.y+ B  bU }R zK /^.5M :0 p} xF s` wP *z bU B= .> (^._^.|s x+.:^.a^ Y. <^.[^.}^.#+ |^.1^.2^.M. 3^.4^.5^.6^.7^.8^.9^.0^.,  a^.b^.c^.d^.,  e^.f^.g^.h^.i^.,  j^.k^.l^.m^.n^.,  du o^.p^.q^.r^.s^.,  #+ t^.u^.v^.",
"Y  |*    w^.x^.y^.z^.A^.B^.C^.D^.E^.F^.G^.H^.I^.J^.K^.L^.M^.N^.O^.P^.Q^.R^.S^.T^.U^.g>.k$ k$ f> Y  ,  j* ,  j* (. (. (. ,  S= '~.V^.W^.X^.Y^.ra Z^.`^.CK Y  F  6. V# a9  /../.+/.@/.}n u+ +& Y  #/.$/.%/.&/.*/.=/..@  @ K  Lq -/.;/.>/.Eb ,/.W# ,  5. '/.)/.!/.~/.{/.g. u+ ]/.^/.//.(/.#/.u+ _/.:/.</.r7 ,  [/.}/.|/.1/.x  2/.3/.4/.5/.g. 6/.7/.8/.x  9/.0/.a/._. b/.c/.d/.;) e/.f/.g/.P/ h/.i/.j/.LI k/.l/.L. m/.[~ n/. . o/.p/.Y& pX q/.r/.(' s/.t/.;* {$ .'.u/.]] Hv 2H ;Z W] v/.w/.0&.x/.y/.z/.M. Hl A/.B/.6. C/.D/.E/.#+ F/.G/.H/.,  I/.J/.K/.u+ L/.M/.N/.O/.,  W{.P/.Q/.R/.,  S/.T/.U/.V/.W/.,  3^.X/.Y/.Z/.`/.,  ,   (..(.+(.@(.#(.9} ,  $(.%(.",
"L. V, &(.*(.=(.-(.;(.>(.,(.'(.)(.!(.~(.{(.I^.](.^(.q'./(.((._(.:(.<(.[(.}(.|(.1(.u+ Y  ,  ,  ,  ,  F  (. -. ,  ,  ,  -. (. Y. 2(.3(.W^.4(.5(.6(.7(.8(.sB ,  `  ,  ,  9(.0(.a(.b(.c(.d(.:~ u+ K  u+ O0 6- e(.f(.g(.h(.M. u; u+ v, i(.j(.k(.C) l(.<5 A. Y  m(.n(.o(.p(.q(.O% ,  r(.s(.t(.u(.v(.,  w(.x(.y(.z(.,  5 .A(.@).B(.m, C(.D(.E(.F(.Y  G(.H(.I(.D; J(.K(.L(.`+ M(.N(.O(.;) P(.Q(.R(.$< S(.T(.U(.V(.W(.X(.T% Y(.Z(.@p ;* `(./^.;*  _.._.%g %g +_.@_.7. #_.$_.6! LI %_.&_.7. wg *_.=_.g. -_.;_..> K# >_.,_.>k '_.)_.!_.~_.{_.]_.^_./_.,  (_.__.:_.,  <_.[_.}_.|_.,  1_.2_.3_.4_.,  5_.6_.7_.8_.9_.,  ,: 0_.a_.b_.c_.d_.,  e_.f_.g_.h_.i_.j_.u+ k_.",
"nP l_.m_.n_.o_.p_.q_.r_.s_.t_.u_.v_.w_.x_.y_.z_.A_.B_.C_.D_.E_.F_.G_.H_.I_.u+ K  v@ K  ,  ,  ,  ,  F  ,  (. ,  ,  Y  Y  ,  J_.K_.L_.M_.N_.O_.P_.Q_.R_.S_.,  +& ,  ,  ,  T_.U_.V_.W_.X_.Y_.M. Y  (. M. Z_.`_. :..:.+:.(_ `I K  Y  u+ @:.#:.$:.%:.&:.&> g. .@ Nv *:.=:.-:.;:.qA g. 0* >:.gU ,:.':.g. =#.):.!:.~:.|D >@ {:.]:.^:.mY n@.z@./:.(:.7. _:.::.<:.`+ [:.}:.|:.K  1:.2:.{).`+ 3:.4:.5:.mY 6:.7:.P/ 7) 8:.9:.q- *( )k ]] 0:.V] %g X  a:.b:.O% c:.+_.d:.A+.e:.f:.T% g:.h:.e3 mj i:.o).L. L* j:.k:.u+ l:.m:.n:.,  L= o:.p:.*  q:.r:.s:./T t:.u:.v:.w:.,  x:.y:.z:.A:.,  B:.C:.D:.E:.,  (k F:.G:.H:.I:.l+ ,  J:.K:.L:.M:.N:.,  p9 O:.P:.Q:.R:.fz ,  ",
"S:.T:.U:.V:.W:.X:.Y:.Z:.`:. <..<.+<.@<.#<.$<.%<.&<.*<.=<.-<.;<.><.,<.Y  F  M. K  u+ K  ,  ,  ,  ,  ,  ,  ,  ,  W# b$ V# y{.'<.)<.!<.~<.{<.]<.^<./<.(<._<.,  ,  ,  ,  ,  :<.<<.[<.}<.|<.1<.8% A. F  F  k$ %E 2<.3<.4<.5<.6<.Z. Y  %> Y  7<.8<.9<.0<.a<.b<.x  ,  u+ c<.d<.e<.f<.g<.F  ;d h<.i<.j<.X/ ,  m, k<.l<.m<.n<.Y  o<.p<.q<.r<.pq s<.t<.u<.x  v<.w<.x<.K  y<.z<.A<.g. B<.C<.D<.|) E<.F<.v; G<.H<.I<.O% J<.K<.pe L<.M<.jU p} G{.~~.;* N<.A  I_ X  O<.P<.p} @Z Q<.Dc  W S_.R<.%{ SS S<.&~ #$ T<.{{ U<.u+ V<.W<.[& s  X<.Y<.Z<.,  `<. [..[.,  +[.@[.#[.$[.,  %[.&[.*[.=[.,  -[.;[.>[.,[.F  6. '[.)[.![.~[.U+.,  {[.][.^[./[.([.,  ,  _[.:[.<[.[[.}[.",
"|[.1[.2[.3[.4[.5[.6[.7[.8[.9[.0[.a[.b[.c[.d[.g;.e[.f[.g[.h[.i[.u+ u+ A. #+ A. Y  ,  Y  ,  ,  ,  ,  ,  ,  ,  ,  V# x+.Mi !~.j[.k[.l[.~<.m[.n[.o[.p[.q[.z-.,  ,  ,  +& ,  SS r[.s[.t[.u[.v[.w[.Y& Y  ,  A. .> xX x[.y[.z[.A[.B[.'E ,  ,  ,  u$ C[.'$ D[.E[.F[.u. M. .@ G[.I5 H[.I[.J[.v@ v@ K[.L[.M[.N[.f. ^. O[.P[.Q[.7<.;) R[.S[.T[.l@ <^ U[.V[.W[.^. 99 X[.Y[.,  Z[.`[. }.7. .}.+}.@}.KS #}.$}.K[ %}.&}.*}.He =}.-}.;) &( %E h3  J pp ;}.X  >}.Q<.p} ,}.'}.)}.T% !}.~}.X  /9 >}..{ x[ {}.)~.Gh <5 Ii ]}..> %{ ^}./}.(}.FM _}.:}.<}.6. [}.}}.|}.F  1}.2}.3}.4}.,  5}.6}.7}.8}.,  9}.0}.a}.b}.t:.,  c}.d}.e}.f}.g}.,  h}.i}.j}.k}.l}.6. ,  m}.n}.o}.p}.",
"q}.r}.s}.t}.u}.v}.w}.x}.y}.z}.A}.B}.C}.D}.E}.F}.G}.H}.I}.u+ ,  u+ m, `  (. (. ,  j* ,  ,  +& ,  ,  ,  ,  `  M. I@ B  J}.K}.L}.M}.N}.~<.O}.P}.Q}.R}.S}.e3 ,  ,  ,  ,  ,  A= T}.U}.V}.W}.{].X}.SS u+ `  ,  `  p} Y}.Z}.`}. |..|.+|._' ,  F  6. ja @|.#|.$|.%|.&|.ja F  W# K5 *|.=|.-|.;|.K  ,   > >|.,|.'|.74 g. )|.di !|.!u g. ~|.{|.]|.^|. @ /|.(|._|.#$ :|.<|.[|.Y  }|.||.1|.m, 2|.3|.4|.5|.6|.7|.^. 8|.9|.qA i* 0|.a|.B| F[.f# zK b|.^, d:.c|.d|.@Z ;) e|.f|..> g|.h|.,}.f. 8; i|.B| xt j|.k|.g. l|.m|.n|.u+ o|.p|.q|.(. r|..e _= s|.6. t|.u|.v|.,  w|.x|.y|.z|.,  A|.B|.C|.D|.,  E|.F|.G|.H|.I|.,  J|.K|.L|.M|.N|.Y  !% O|.P|.Q|.R|.,  ,  S|.T|.U|.",
"V|.W|.X|.Y|.Z|.`|. 1..1.+1.@1.#1.$1.%1.&1.*1.=1.-1.g. ,  A. F  Y  K  ,  ,  ,  ,  ,  ,  ,  ,  ,  ,  ,  (. Y  u.  W ;1.>1.,1.'1.)1.!1.~1.{1.Q}.]1.^1.p/.k$ Y  Y  K  Y   @ >g /1.(1._1.:1.<1.[1.}1.zK `  p% .) Nv vT |1.11.21.31.41.51.e) Y  b_ k$ zK H-.61.71.81.91.p= ,  g. 'E c5 01.a1.b1.45 ,  Vc c1.d1.e1.9/ x  f1.g1.w_ h1.Y  i1.j1.k1.+Z 7. l1.m1.n1.x  o1.p1.q1.u+ r1.s1.t1.u1.v1.w1.|) x1.y1.}* z1.A1.B1.;) C1.D1.Kh E1.J#.<q A= q+.F1.A+.Zs zu  W V* G1.H1. . %_.I1.J1.B) K1.L1.f. ]#.M1.N1.u+ O1.P1.Q1.K  R1.S1.T1.9} U1.4] V1.p9 W1.D& X1.Y1.,  Z1.`1. 2..2.,  +2.@2.#2.$2.,  @ .%2.&2.*2.=2.,  -2.;2.>2.,2.'2.,  ,  )2.!2.~2.{2.,  6. ]2.^2.",
"/2.(2._2.:2.<2.[2.}2.|2.12.22.32.42.52.62.72.u+ Y  A. (. F  ,  +& ,  ,  ,  ,  ,  ,  ,  ,  ,  ,  ,  ,  Y  v@ h3 0C 82.l. 92.02.a2.b2.c2.d2.R}.e2.f2.7; A. (. ,  Y  Y  Y  K5 g2.h2.i2.j2.k2.l2.m2.|r k$ y- eb p- C| n2.o2.p2.q2.r2.s2.s[ _' ,  ,  Y  7; t2.u2.v2.w2.x2.CK u+ F  S= q@ y2.z{ z2.S= u+ Gb A2.B2.C2.N0 K  =p D2.E2.F2.7. g<.G2.H2.^~ ;) I2.J2.K2.#$ L2.M2.N2.Qt O2.P2.zA Q2.R2.S2.`+ T2.U2.jg V2.W2.X2.^. Y2.*( >g sF %=.A= |r Z2.|r |s `2. 3. . f:.*_.%g I_ .3.+3. . @3.#3.X  zK $3.+_.B  K# %3.&3.={ A- *3.=3.-3.9} T-.;3.>3.*  ,3.'3.)3.`<.,  !3.~3.{3.]3.,  ^3./3.(3._3.6. *  :3.<3.[3.}3.,  iM |3.13.23.33.6. ,% 43.53.63.73.,  83.93.",
"03.a3.b3.c3.d3.e3.f3.g3.h3.i3.j3.k3.l3.Y  Y  `  j* ,  ,  ,  ,  ,  ,  ,  ,  ,  ,  ,  ,  ,  ,  Y  Y  Y  O% bd $k m3.n3.o3.p3.q3.r3.s3.t3.u3.v3.F. w3.`  (. (. ,  ,  A. S) jk x3.y3.z3.A3.B3.C3.D3.E3.e3 .@ R= S) V, US F3.G3.H3.I3.J3.K3.L3.M3.(. ,  u; `I N3.O3.P3.Q3.R3.S3.F  F  O% T3.U3.V3.W3.B| ,  LI X3.Y3.Z3.-p x  LA `3. 4.7<.,  a$ Mv .4.^~ K  +4.@4.#4.K  $4.%4.&4.*4.=4.-4.;@ ;4.>4.,4.7. '4.)4.,  !4.~4.{4.]4.^4./4.p} (4._4.|s :4.<4.f. g:.I1.QC p} [4.O<.;* }4.|4.14.b$ 24.34.44.Q6 bQ 54.]] j).64.74.y{.84.94.04.a4.s  b4.c4.i..l+ d4.e4.f4.g4.,  h4.i4.j4.k4.,  &m l4.m4.n4.(T ,  o4.p4.q4.r4.,  Tx s4.t4.u4.v4.,  6. w4.x4.y4.z4.,  A4.",
"B4.C4.D4.E4.F4.G4.H4.I4.J4.K4.,  ,  ,  F  F  ,  ,  ,  ,  ,  ,  ,  ,  ,  ,  ,  ,  ,  ,  ,  Y  >@ g. L4.Lq A) M4.N4.O4.P4.Q4.R4.S4.T4.U4.M% V4.f/ /. (. ,  ,  ,  b$ W4.X4.Y4.Z4.`4. 5..5.+5.@5.#5.$5.W] o. S= %5.o3 _R &5.*5.G3.=5.-5.;5.+W ;8 f> ,  `  o. nh >5.,5.'5.)5.!5.t+.#+ ,  B| q8 ~5.{5.]5.^5.x  >i /5.(5.A| g0 K  _5.C2.:5.<5.g. <C _> [5.G= u+ }5.|5.D+.U# 15.25.35.45.55.65.|) 75.85.GT 95.05.a5.x  b5.c5.|) V{ d5.zK @6 e5.%g d:.bQ @Z .> f5.'}.X  c|.g5.h5.`I i5.j5.y{.=h k5.l5.Z6 PS m5.Bz zK n5.o5.p5..* q5.r5.s5.Mn 9} t5.u5.v5.,  w5.x5.y5.`<.,  z5.A5.B5.C5.#+ D5.E5.F5.G5.H5.,  I5.J5.K5.L5.,% j* M5.N5.O5.P5.,  ;T Q5.R5.S5.,  +' ",
"T5.U5.V5.W5.X5.Y5.#$ ,  Y  K  u+ 5. F  ,  ,  A. M. ,  ,  ,  ,  ,  ,  ,  ,  ,  (. (. ,  ,  ,  u+ bs Nc Z5.`5. 6..6.+6.@6.#6.$6.%6.&6.*6.)u n~ ;d ,   @ K  A. Nv =6.-6.;6.%J >6.,6.'6.+5.)6.!6.uF <q m@ :$ S= w3.7<.Z,.*z ~6.{6.]6.^6./6.(6._6.c# f> M. 7; p} :0 :6.<6.[6.}6.Bq i7 ,  (. B| yv 6< |6.16.PS W# .@ 26.36.46.~d E; Q6 56.66.L* K  >& 76.k2 86.#$ 96.s(.+Z =#.Z..06.x[ a6.b6.c6.#$ d6.e6.)+.f6.g6.h6.i6.j6.k6.^. l6.m6.x+.n6.o6.y+ p6.q6.@J Q6 d|.r6.zK f5.s6.Dc >g t6.u6.';..{ v6.w6.Z6 x6.y6.z6.Q* e:.A6.B6.,& C6.D6.E6.}[.s  F6.G6.H6.,  I6.J6.K6.L6.,  M6.N6.O6.P6.,  Q6.R6.S6.T6.U6.,  V6.W6.X6.Y6.,  Z6.-t `6. 7..7.,  +7.@7.#7.$7.,  ",
"%7.mY Y  ,  ,  K  M. Z  A. Y  u+ u+ (. ,  Y  K  .@ Y  ,  ,  ,  ,  ,  ,  ,  ,  A. Y  k$ Y  K  &7.*7.=7.-7.;7.>7.>7.,7.'7.)7.!7.~7.{7.G. v@ Y  #+ W# O% T% D, %~ ]7.^7./7.(7._7.:7.$( 1R q8 E3 <7.#/.0*  @ W# f> T. e) )5 [7.}7.6s |7.|7.(6.17.27.%g ]] ]] %{ >g B= 37.47.57.67..J g> ,  A. S= 44 M5 77.}_ 87.,  u. zq x| 97.07.V# +b a7.b7.Hv W# A= c7.d7.B7 |) e7.f7.U{ z1.5-.g7.x  h7.i7.I@.N% j7.k7.Y  l7.m7.%>.n7.o7.p7.]g ,$ l).y{.o6.q7..* r7.s7.B| N1.t7.c|.p} u7.v7.;* b|.w7.x7.<% =6.!}.r` Z6 <B y7.PS A= z7.A7.B7.,  C7.D7.E7.F7./T G7.H7.I7.,  J7.K7.L7.M7.,  N7./f O7.P7.,  *%.Q7.R7.S7.7E ,  T7.U7.V7.W7.,  X7.Y7.Z7.`7. 8.,  .8.+8.@8.6. ",
",  Y  %> Q  M. M. Y  ,  ,  (. ,  ,  (. ,  ,  ,  Y  K  x  u+ >@ +& ,  (. (. Y  .@ u+ E; 8U #8.$8.%8.&8.*8.=8.-8.;8.>8.,8.'8.)8.,  ,  #+ ,  ,  Y   . M| x].!8.,~ ~8.{8.]8.^8./8. Z (8._8.:8.<8.V; v@ A. #+ lX 6M :0 <q :H 6[ 6[ CF GA [8.}8.|8.18.28.A+.Y& 7; e3 'E _R 38.48.58.68.yK B) ,  ,  .> 78.88.98.08. W f> 74 a8.[4 b8.M| K  c8.Dg d8.=6.b$ ~d Q- e8.q- B) f8.g8.x! Db h8.i8.#$ j8.k8.l8.m8.n8.o8.5 .p8.q8.`+ r8.E) ;) n7 s8.;Z c# a:.t8.X  u8.v8.87.f5.f|.X  A= w8.x8. . y8.z8.N1.Q* Bz A8.Dv :0 ^^.B8.C8..* D8.E8.C6.F  F8.G8.H8.,% 2#.I8.J8.K8.,  L8.3L M8.N8.F  O8.P8.Q8.R8.#+ S8.T8.U8.V8.W8.,  X8.Y8.Z8.`8.,   9..9.+9.@9.,  #9.$9.%9.&9.",
",  ,  (. (. `  -. `  A. `  F  Y  ,  #+ 6. ,& Y&    o. U{ 0* 5. +& ,  F  A. K  K  N% *9.=9.-9.;9.>9.,9.'9.)9.!9.~9.{9.N% M. ,  ,  ,  Y  #$ ]9.^9./9.(9._9.:9.<9.[9.}9.|9.19.29.39.!u c8.v@ M. .@ o. o. p} mj Kh )l 49.59.69.ee UN vg XN 'z 79.}7.Zj +_ /9 e3 %{ 'E PS 89.99.09.a9.b9.>4 f> Y  K  Q6 <d 88.c9.qg 5e ,& Y. d9.g7 f2 ~d E; z] K4 e9.f9.k$ W4.59 g9.#$ ]g l(.h9.N. x{ i9.j9.`+ k9.l9.Qt m9.n9.i{.o9.p9.q9.|) r9.n2 #$ s9.p/.p} t9.}{ d:.r/.u9.v9.@3.w9.x9.p} y9.w8.N1. W z9.s6.A9.X  B9.C9.u$ A+.D9.E9.7; >* F9.G9.H9.,  I9.J9.K9.,% L9.M9.N9.O9.,  P9.Q9.R9.S9.,  T9.U9.V9.W9.6. !% X9.Y9.Z9.`9.F   0..0.+0.I6.,  @0.#0.$0.%0.#+ &0.*0.=0.",
"Y  Y  =. Y  Y  ,  ,  W# k$ b$ 7; 6M t+.-0.;0.8% >0.e].c8.n~ =. ,  ,  A. K  K  ,0.'0.)0.!0.~0.{0.]0.^0./0.(0.E!.Y  #+ nk #+ ,  =#._0.:0.<0.[0.}0.|0.10.20.30.40.50.}5.s^ 60.S. g. Y  ,  ,  Y  v@ %{ 5e 8< 70.80.90.00.a0.b0.o+.c0.d0.e0.f0.g0.}M Ml gs b2 <7.Dv D, A= IA JA h0.i0.j0.q+.YI u. (. .@ PS 6n k0.l0.d&.FM 9} x[ m0.n0.>|.=z o. !..o0.;:.s).#+ p0.q0.7^ Z6 &s r0.s0.#$ t0.u0.v0.>i w0.x0.(. y0.z0./s A0.B0.C0.D0.E0.Y1 Dv s[ /^.nh F0.Q<.87.G0.H0.B  I0.j5.y8.]] J0.K0.Dc )}.L0.M0. W )}.N0.O0.zK .{ j5.P0.E; y+ Q0.R0.`X *  S0.T0.U0.,% V0.W0.X0.Y0.,  pZ Z0.`0. a.*  .a.+a.@a.#a.6. $a.%a.&a.*a.Ol s  =a.-a.;a.A. >a.,a.'a.)a.,  !a.~a.{a.",
"Y  K  K  v@ 7; Z5 ]a.F0./~.^a.^a.^a./a.B{.(a.a@ _a.e].E; u+ Y  ,  ,  K  pq :a.<a.[a.}a.|a.1a.2a.3a.4a.5a.Y  M. b$ M. k_ 6a.7a.P%.8a.9a.-8.0a.aa.ba.ca.da.ea.fa.ga.x  u+ g. g. g. g. g. ha.ia.ja.ka.la.ma.na.oa.pa.qa.og 00.ra.sa.ta.ua.I-.|n && {& :> $7 <7.{~.va.va.+_ 9>.wa.(R xa.ya.za.Dv  @ u+ O% }R Aa.Ba.Ca.Da.y+ .@ x[ @u Ea.Fa.5Y k$ ]* 59 M<./9 O% Xe Ga.&~ T% y_ Ha.Ia.f. a8.Ja.Ka.{i La.Ma.$< Na.Oa.;) Pa.Qa.^. Ra.M[.W] v` Sa.@3.y-.Ta.Ua.44.Va.>}.y+ Wa.t6.)}.X  d|.z9.nh QC Xa.+_.<% Ya.Za.`a. b..b.+b.@b.g. J] #b.$b.%b.9} &b.*b.=b.F  -b.;b.>b.,b.,  'b.)b.!b.~b.,  P).{b.]b.^b.6. /b.(b._b.:b.,  <b.[b.}b.|b.,  1b.2b.3b.4b.5b.6b.7b.",
"i(.8b.9b.0b.ab.bb.cb.db.eb.fb.gb.h! D3 hb.ib.jb.kb.V; g. u+ M. ,  ,  6 .lb.mb.nb.ob.pb.qb.rb.sb.tb.K  ,  ,  K  ub.vb.wb.xb.yb.zb.Ab.Bb.Cb.Db.Eb.Fb.Gb.m, ,  ,  ,  ,  ,  V; Hb.Ib.Jb.Kb.Lb.Mb.Nb.Ob.Pb.Qb.Rb.Sb.Tb.Ub.*. Nl Vb.Sr P5 Wb.N% v, g. g. E; O% e3 Dv v(.V4.{~.s` u+.F3.Xb.Yb.I$.Ah B7 g. >@ .> x6.Zb.`b. c..c.f> (. zK |i E| +c.Gh ,& .^ @c. < 'E Y& uq #c.l:.B| $c.%c..^ q- &c.U* L. *c.=c.x{ 5a.-c.;c.`+ >c.,c.#$ 'c.)c.|s D{.!c. b.~c.{c.]c.6! ^c.X5 zK /c.(c.6$ >G _c.y8.p} :c.<c.[c.Y. x7.}c.|c.u+ 1c.2c.3c.I@ 4c.5c.6c.7c.9} 8c.9c.0c.#+ @A ac.bc.cc.F  dc.;V ec.fc.,  gc.hc.ic.jc.,  kc.lc.mc.nc.,  oc.pc.qc.45 rc.sc.tc.uc.,  vc.wc.",
"xc.yc.zc.Ac.Bc.Cc.Dc.Ec.Fc.Gc.Hc.Ic.Jc.W; Kc.Lc.D].N% Y  #+ #+ Y  Mc.Nc.Oc.Pc.Qc.Rc.Sc.Tc.Uc.F  ,  (. Vc.Wc.Xc.Yc.Zc.`c. d..d.+d.@d.#d.$d.%d.`  Y  u+ x  m, {$.t,.&d.*d.=d.-d.;d.>d.,d.'d.)d.!d.~d.{d.]d.^d./d.(d.g<.4l E; u+ K  K  M. M. g. E; L. x[ >g h3 _d.@Z :d.Bl 8H <d.w+.[d.&=.>..K1 P5 Q* b$ 7; e3 w+.}d.|d.1d.wg u+ u+ 86.2d.3d..J -) .@ 4d.5d.6i e3 O% 6d.7d.d5 Q* 0C k2 wP >+ ]m 8d.#$ 9d.0d.E; ad.bd.cd.dd.ed.fd.9/ gd.4M u$ a:.#_..> E9.hd.T% b|.id..{ e3 Ta.jd.Mi kd.ld.md.y{.d|.nd.w: N@ od.pd.pX g. qd.rd.sd.F= /Z td.ud.5z *  vd.wd.xd.,  ;T yd.zd.EC ,  Ad.Bd.Cd.e= ,  Dd.Ed.Fd.Gd.,  Hd.Id.Jd.Kd.lX Ld.Md.Nd.,  Od.Pd.Qd.,  Rd.Sd.",
"Td.Ud.Vd.Wd.Xd.Yd.Zd.`d. e..e.+e.@e.#e.$e.%e.&e.*e.,  #+ j* -. =e.-e.;e.>e.,e.'e.)e.!e.pq u+ M. e,.~e.{e.]e.^e./e.(e._e.:e.<e.[e.Y  ,  F  Y  Lh }e.|e.1e.2e.3e.4e.5e.6e.7e.8e.9e.0e.ae.be.ce.de.ee.CA fe.>@ K  Y  k$ F  F  ,  F  #+ *  nk O% U{ T. m@ K5 @p XS ge.&z NS he.5C (q pc eU uF  u ie.>g Y& S= T% wP sP je.ke.uP C| u+ L. le.`j me.+k O% o. sF g2 ZV T% q- ne.&c.oe.x[ pe.pe.6$ K5 qe.re.;) '{.se.#$ te.ue.;) ve.we.Vc xe.ye.%g g:.Va.W~.@3.[4.f:.ze.Ae.f|.X  A9.G1.Be.<% Ce.L0.De.J1.Ee.Fe.ze.W# Ge.He.Ie.b$ Je.a= Ke.F  Le.Me.Ne.hk n# Oe.Pe.Qe.,  Re.Se.Te.Ue.F  Ve.We.Xe.Ye.,  Ze.`e. f..f.#+ +f.@f.#f.,  $f.%f.&f.F  *f.=f.-f.9} ;f.>f.",
",f.'f.)f.!f.~f.{f.]f.^f..e.(z /f.(f._f.:f.<f.R| ,  *  #+ t=.[f.}f.|f.1f.2f.3f.4f.A# #+ M. 5f.6f.7f.8f.9f.0f.af.bf.cf.6 .,  ,  7. df.ef.ff.gf.hf.if.jf.kf.lf.mf.nf.of.pf.qf.rf.sf.LI 7. u+ Y  K  ,  ,  ,  ,  K  g. 7. ^. LI ->.74 tf.-p -p ~b uf.OA vf.UD wf.xf.yf.zf.tt Af.Bf.]R Cf.Df.Ef.Ff.Gf.PS 7|  @ k_ o. {5 i0.Hf.If.Jf.R= u. mj +| 7n Kf.4d.u+ .@ Lf.|1.Mf.]] lX Nf.Of.B7 O% Pf.Qf.E; Rf.Sf.:> Xo Tf.Uf.kg Vf.Wf.#$ Xf.Yf.B| Zf.pp  W f:.`f.B| T0  g..g.L. +g.@g.y{.8) #g.14.Q* [4.$g.%g.A+.&; &g.Y& A@ *g.=g.-g.   ;g.>g.,g.#+ 'g.)g.!g.N2 .) ~g.{g.]g.,  ^g./g.(g._g.,  :g.<g.[g.v).6. }g.|g.1g.F  2g.3g.4g.5g.!% 6g.7g.Qa 8g.9g.0g.ag.K= bg.",
"cg.dg.eg.fg.gg.hg.ig.<' jg.kg.lg.mg.Y..ng.og. @ F  ,  pg.qg.rg.sg.tg.Bb.ug.vg.Y  #+ r<.wg.xg.yg.zg.Ag.Bg.Cg.e,.,  F  N'.Dg.Eg.Fg.Gg.Hg.Ig.Jg.Kg.Lg.be.Mg.t,.mY K  ,  Y  `+ ~- Ng.Og.Pg.Qg.Rg.Sg.Tg.Ug.Vg.Wg.Xg.Yg.Zg.`%.`%.`g. h..h.+h.@h.#h.$h.%h.&h.*h.=h.-h.;p ;h.>h.,h.'h.)h.!h.~h.{h.]h.^h./h.r^ v, fe.S) W] .W (h._h.:h.)z o. v@ >g sX <h.[h.X5 .@ A+.z+.G5 ]{ ,& M| }h.|h.7. .~ 1h.!u f. 2h.b1.mj }l 3h.-p 4h.5h.6h.^~ 7h.8h.%{ pp 9h.B  0h.ah.%{ bh.ch.(b )}.3r y9.L. dh.eh.>g @3.fh.M0.x  gh.hh.ih.nh B  jh.kh.<%  b.lh.mh.nh.F  oh.ph.qh.s  rh.sh.th.uh.,  vh.wh.xh.yh.,  zh.Ah.Bh.Ch.^W Dh.Eh.Fh.,  Gh.Hh.Ih.,  Jh.Kh.Lh.F  Mh.Nh.Oh.>~.Ph.",
"Qh.Rh.Sh.Th.Uh.Vh.Wh.Xh.Yh.Zh.`h. i..i.+i.g. K# K  @i.#i.$i.%i.&i.*i.=i.u+ u+ -i.!-.;i.>i.,i.'i.)i.!i.,  K  ~i.{i.]i.^i./i.(i._i.:i.<i.[i.}i.`+ ^. |) ]) |i.1i.2i.3i.4i.5i.6i.7i.8i.9i.0i.ai.bi.ci.di.ei.9{.fi.gi.hi.ii.i*.i*.ji.ki.li.mi.ni.oi.pi.qi.ri.PA si.ti.f<.ui.vi.@l  p oF 5x XS ~].wi.J5 xi.bd :> {$ Wo #l I$.Bq yi.zi.V, Y  A.  W #E vF Ai.Bi.g. 'E Ci.Di.6v f. cC *( Ei.+) ry 5t Va mj Fi.X0 B7 El Gi.q- s0.Hi.:> Ii.)_ Ji.pX Ki.)}.d:.Li.Mi.d:.Ni.f|.87.y9.w8.Oi.nh z9.Pi.]c.Qi.Ri.Si.Y. 3c.Ti.*g.f> .  Ui.Vi.Wi.J] Xi.Yi.Zi.6. `i. j..j.s  +j.@j.#j.$j.,  %j.&j.*j.Z6.9} =j.-j.;j.,  >j.,j.'j.;d )j.!j.~j.*- {j.]j.^j.,  /j.(j._j.Q* :j.",
"0:.<j.q/.>1.[j.}j./f.|j.1j.2j.3j.4j.5j.(. F  K  6j.7j.8j.9j.0j.aj.b` ,  g. bj.cj.dj.ej.fj.gj.<< ,  U# hj.I%.ij.jj.kj.lj.mj.nj.oj.,  ,  pj.qj.rj.sj.tj.uj.vj.wj.xj.yj.zj.Aj.Bj.Cj.B,.Dj.!H >i ^. #$ #$ 7. K  Y  Y  ,  ,  ,  K  K  Y  Y  K  K  k_ Lh LA G+.G+.g<.Ej.Fj.Gj.ie.I-.L<.&s g0 WN L<.-p $7 {$ }l Gj.@p &s ]* Hj.~#.Ij.uX sF R= F  ,& Jj.Kj.Lj.Mj.<~ j* A9.Nj.Oj.Pj.v@ c$ Qj.hA +b Rj.T3.86.Wo Sj.:d.C| Tj.I| mj R* Uj.x[ Vj.,h  W n5.._.e3 Wj.Pi./9 d:. g. 3.o. Xj.Yj.b; Dc Zj.`j.x   k..k.+k.;* B9.@k.#k.,& $k.%k.&k.q$ *k.=k.-k.;k.#+ >k.,k.'k.*  )k.!k.~k.{k.,  ]k.^k./k.,  (k._k.:k.u4 F  <k.[k.}k.,  |k.1k.2k.nk 3k.4k.,  5k.6k.7k.v@ 8k.",
"9k.F{.0k.ak.bk.ck.dk.ek.fk.gk.hk.ik.g. M. F  jk.kk.lk.mk.nk.ok.7. v@ pk.qk.rk.sk.tk.uk.x  Y  vk.wk.xk.yk.zk.Ak.Bk.Ck.x  7. Dj.Dk.Ek.Fk.Gk.Hk.Ik.Jk.Kk.Lk.n7.%>.^. 7. 7. ;) JN Mk.Nk.Ok.Pk.Qk.Rk.Sk.Sk.Sk.Tk.Uk.Vk.Wk.Xk.Yk.Zk.`k. l..l.+l.@l.#l. @ ,  ,  ,  Y  Y  Y  Y  M. Y  `  v@ O% %{ E; >@ n~ T. (b {& -p Y1 $l.%l.&l.uP .J m).p8 S= K  b$ cU *l.=l..E F= W# -l.+c.(q f% E; Fi.;l.>l.B| GF #u Q6 m> B{.PS W] n; =W Q6 ,l.2M p} 'l.^,  W )l.v6.B  R+ H0.6! Wj.!l.~l.ze.{l.]l.o. Oi.^l..b.x+./l.(l._l.Y& :l.<l.[l.9# }l.|l.1l.s  Cu 2l.3l.4l.l+ 5l.6l.7l.,  8l.9l.0l.al.F7.bl.cl.dl.,  el.fl.gl.,  hl.il.jl.,  }k.kl.ll.,  ml.nl.ol.pl.ql.rl.0&.sl.",
"=2 tl.ul.vl.wl.xl.yl.zl.Al.Bl.Cl.`  F  N% Dl.El.Fl.Gl.Hl.df.#+ |D Il.Jl.Kl.Ll.Ml.^. u+ ~).Nl.Ol.Pl.Ql.Rl.Sl.|) t-.Tl.Ul.Vl.Wl.Xl.Yl.Zl.2&.`l.J .;@ m<  m.Yy .m.+m.@m.#m.$m.%m.&m.*m.=m.-m.;m.>m.;m.V[ ;m.,m.'m.)m.!m.~m.{m.]m.^m./m.(m._m.:m.<m.[m.}m.|m.1m.r{ 2m.4I wT u@ g. K  Y  F  ,& k$ x  T% %{ e3 V, -p 3m.l` $l.4m.5m.>z 6m.G$.|s u+ A. 6$ 7m.8m.(R ;}.A. .> rX UN sX e3 86.9m.%..C| Dv Qj.0m.p} X,.(4.Q6 2R n; i7 OS am. J %g <#.bm.Dc cm.v8.B  dm.dm.Mi em.fm.gm.=_.hm.im. b.#3.jm._l.km.lm.mm.nm.*8 om.pm.~c..@ qm.rm.sm.F= tm.um.vm.Gx 5~ wm.xm.ym.,  zm.Am.Bm.s  GU Cm.Dm.Em.s  Fm.Gm.]E #+ Hm.Im.Jm.Km.Lm.i& ,  Mm.Nm.Om.Pm.Qm.Rm.   Sm.",
"&c.Tm.Um.Vm.Wm.Xm.Ym.Zm.`m. n.7. F  ,  .n.+n.@n.#n.$n.oj.,  %n.&n.*n.=n.-n.!H `+ ;n.>n.,n.'n.)n.Ng.K  7. !n.~n.{n.]n.^n./n.VV Ge 9N (n._n.:n.<n.[n.}n.|n.1n.2n.3n.4n.5n.6n.7n.8n.9n.J .@n 6, 6, |e j_ D; j_ j_ j_ 0n.9l an.bn.cn.dn.en.fn.gn.hn.in.jn.kn.ln.mn.nn.on.pn.qn.rn.sn.tn.un.ry WN i< >+ >+ 5Y [R vn.wn.xn.yn.ry s` zn.(#.Y,.SS L. (. u+ Sd An.Bn.Cn.'E S= `I Dn.aC TS x[ _R `< T1 6$ =W En._R h3 q+.8H e3 Fn.,~.e3 Vs Gn. W b|.Ki.d:.t8.Hn.t8.@3.Li.In.zK Jn.Kn.Ln.Mn.Nn.Ua.u+ On.Pn.J1.;* Qn.Rn.Sn.A* Tn.Un.Vn.km.Wn.Xn.Yn.#+ Zn.`n. o.,& .o.+o.@o.#o.F  $o.%o.&o.,  *o.=o.-o.*  ;o.>o.,o.,  'o.)o.!o.,  ~o.{o.85 ]o.^o.Y) ze./o.(o.p} _o.",
":o.D+.<o.[o.}o.|o.1o.2o.Q../s << #$ 3o.4o.5o.6o.7o.E; u. 8o.9o.0o.ao.bo.`+ co.do.eo.fo.go.;) 7. ho.io.jo.ko.lo.mo.lF _I f{.no.k$.oo.po.qo.}2 ro.so.to.uo.vo.pN wo.xo.yo.zo.Ao.Bo.Co.Co.ug ub Do.Eo.Fo.Go.-4 We Ho.-z Io.&z x_ 6q )7 .i Jo.Y  5. =p Ko.Lo.Mo.No.Oo.Po.Qo.Ro.So.To.Uo.Vo.Wo.Xo.Yo.Zo.Oj.`o.`D  p..p.+p.+| @p.@p.#p.$p.89.0x uS u+ u+ B| %l.%p.&p.*p.zK M. B= QS <d YI Y& sB =p.u]  W -p.}9 vT 5Y %=.SS W] ,~.sF e3 G{.%_. W )l.;p.B  Bz >p.@3.Qi.,p.'p.Ln.)p.Je.!p.~p.{p.=h ]p.^p./p.Ln.%g.(p._p.x+.:p.<p.[p.-0.Wi.}p.|p.1p.#+ 2p.3p.4p.F  5p.6p.7p.F4 8p.9p.0p.ap.*  bp.cp.dp.F  ep.fp.gp.S8.hp.ip.,  jp.kp.>h lp.mp.np.   op.pp.A= qp.",
"rp.sp.tp.up.vp.wp.xp.yp.zp.(. 7. Ap.Bp.Cp.Dp.$9 x  Ep.Fp.Gp.Hp.Ip.K  Jp.Kp.Lp.Mp.Ap.|) fq Np.Op.Pp.Qp.Rp.Sp.Tp.Up.Vp.Wp.Xp.Yp.Zp.`p. d PY CI  q..q.sq +q.`r @q.#q.$q.%q.&q.*q.=q.-q.he.NS _H ;q.&z #u #p ]R >q.,q.'q.)q.!q.~q.{q.]q.^q./q.(q._q.!5 :q.mj x  7. `+ <q.[q.U,.}q.v{ |q.1q.2q.3q.4q.5q.6q.7q.!q.8q.9q.Co.0q.@O ^R y[ aq.&5.0x E1.Z6 x  v@ >g bq.cq.dq.=6.-. Y. N$.yq `N ja Y. +J eq.y+ i7 3i t8 h3 =W q+.Q6 i7 n; ;Z u$ ^, ;}.nh ;p.fq.@3.Q<.Q<.@3.Wa.gq.hq.iq.jq.kq.(' lq.TC B  J1.mq.nq.]] :p.oq.pq.   qq.rq.sq.j4 tq.uq.vq.wq.!% xq.yq.zq.,  Aq.Bq.Cq.,  Dq.Eq.Fq.,  Gq.Hq.Iq.,  Jq.Kq.Lq.,  Mq.Nq.Oq.Pq.Qq.Rq.Q* Sq.Tq.Y& Uq.Vq.ZN Wq.",
"l@ #= Xq.Yq.Zq.`q. r.KS f. L. .r.+r.@r.#r.x,.,  $r.%r.&r.*r.K[ K[ =r.-r.;r.>r.`+ ,r.'r.)r.!r.~r.{r.#$ QI ]r.^r./r.(r._r.:r.<r.>M 8[ jX [r.pg pg ;l.}r.0x _d.pX @3.J1.|r.1r.gh.gh.2r.G  `a.3r.4r.Ua.Ua.Ua.,}.c|.A9.Dc d:.;Z le.cU 9>.za.$W 5r.6r.7r.8r.9r.0r.ar.+x br.tj `+ K  u+ 8U re.cr.dr.er.fr.gr.V3.hr.ir.jr.kr.f7 lr. b 'z $p.u+.Or 8| A$ T% >@ B| mr.nr.MZ or.A= M. o. pr.qr.rr.u. vT sr.tr.e3 ZN z2.C# 6$ ~~.L3.X  a'.ur.u$ ;}.vr.%g )}.t6.@6 A= d|.kd. . wr.xr.(' yr.zr.Cc Ar.lh.gq..* $k.Br.Cr.ja Dr.Er.K1.P: Fr.Gr.Hr.Y& Ir.Jr.Kr.Lr.p9 Mr.Nr.Or.#+ Pr.Qr.Rr.6. Sr.Tr.Ur.,  Vr.Wr.Xr.F= {; Yr.,  [; Zr.`r.V#  s..s.,& +s.@s.f> #s.$s.uq %s.",
"&s.<f.*s.=s.-s.;s.>s.k$ j_ ,s.'s.)s.!s.x  /s ~s.{s.]s.^s.7. /s.(s._s.:s.<s.[s.}s.|s.1s.2s.KW 3s.4s.5s.6s.7s.8s.9s.eo yj 0s.as.bs.cs.@O Ff.ds.cx r` o|.es.Cr.fs.gs.hs.is.{c.!}.js.js.ks.ls.J0.ls.J0.Q<.J0.dh.E9.'}.I1.ms.ns.o6.os.ps.qs.B  Mi X  i7 rs.ss.ts.us.vs.ws.xs.ys.zs.As.6j N. K  Y  K  L4.3m.Bs.Cs.Ds.Es.bs.Fs.Gs.Hs.Eq CF FK FK $J Bi.*4 >@ Nv le.J$.Is.QS f# `I K  5Y c&.Js.le.Q* -l.Ks.Bl >g G[.6i Dv %g a:.#_.A= Ls.Ms.;* 9h.>}.Mi Mi.Ns.Dc Os.Ps.W~.ze.Qs.Rs.!p.hs.Ss.]] 44.Ts.Us..@ Vs.)# x7..@ kq.Ws.Xs.l+ Ys.Zs.`s.F=  t..t.+t.#+ @t.#t.$t.(Y Fi %t.&t..Q *t.=t.-t.s  ;t.>t.,t.#+ }o 't.)t.*h M-.!t.F  ~t.{t.*  ]t.^t.`I /t.(t.uK _t.",
":t.<t.[t.}t.|t.1t.#+ K  2t.3t.4t.5t.7. 6t.7t.8t.9t.7. U(.0t.at.bt.ct.c_ dt.et.g6.7o.He ft.gt.ht.it.jt.Ya kt.lt.mt.nt.Oj.YD 6/ g:.@_.Mi.ot.J0.pt.ls.ls.In.qt.=7 X  X  d:.Qi.@_.L1.Ua.Ua.L1.@_.Ua.@_.rt.Qi.A+.u$ p} |s |s pX st.Mi.ls.Ni.V' tt.ut.vt.mc -g.<% Y& X  wt.xt.yt.zt.At.Bt.Ct.Dt.==.87.   u+ u+ x  v@ 6$ M| {~.*Z )=.Et.wq sF Ft.oX Vm i7 %5.m; W] Gt.Ht.It.AK |r .@ Y  cx Bn.Jt.6$ E; Kt.Lt.<q >g '& Mt. W ;}.Nt.Gh A= [, |H X  Ot.#_.f. ~}.x9.T% Bz Pt.Qt.Rt.St.,g.A* Tt.Ut.   Vt.Wt.Xt.Y. Yt.Zt.y-.(w `t. u..u.`  +u.@u.#u.l+ $u.%u.&u.9} *u.=u.-u.s  ;u.>u.,u.F  'u.)u.!u.!% ~u.{u.]u.^u./u.(u.*  2/ _u.F  :u.<u.6. [u.}u.e3 |u.1u.8d 2u.",
"3u.4u.5u.6u.7u.7. kg 8u.9u.0u.au.Y  bu.cu.du.eu.;) fu.gu.hu.iu.a` ju.ku.lu.mu.nu.ou.pu.qu.ru.9H Sd #p su.4n s9.o|.tu.uu.vu.v6.wu.Q1.xu.yu.zu.Ie.~l.Au.8; Wa. 3.Bu.Xj.Cu.@b.Du.R+ v8.f:.R+ 2(.2(.o).Eu.Q<.Ce.0h.Fu.dh.Xj.[c.st.L1.iq.iq.iq.Ie.`a.Gu.Q<.cm.Hu.Iu.l5.>G ('    6j Ju.Ku.Lu.Mu.Nu.Ou.Pu._H && .@ v@ O% O% u. o. T% 74 x[ Q6 A= Gh B= @J E9 Z. ^5.jU Qu.1H Ru.Su.Q6 -. `I Tu.Uu.+O u. YI Vu.p/.A= B: pp R<.zK Wu.%_.;* Xu.^, %g W~.Ns.4x Ie.Yu.X5 Zu.`u. v.]] ~p..v.'E Mi +v.@v.Y. #v.a= $v.Wi.%v.&v.6M V# *v.=v.-v.J^ ;v.>v.7^.6. ,v.'v.)v.,: !v.~v.{v.R2 ]v.^v./v.(v._v.:v.!% <v.[v.}v.6. |v.1v.V# 2v.3v.A. 4v.5v.,& 6v.7v.W] 8v.9v.j- 0v.",
"av.bv.cv.dv.;@ Qt ev.fv.gv.hv.j_ iv.jv.kv.lv.x,.mv.nv.ov.K[ pv.qv.rv.sv.bX tv.uv.vv.wv.xv.yv.zv.Av.q+.Y> Bv.gh.h:.Cv.<j.Uf qs.)}.Rt.n5.O0.Dv.#3.Ev.v9.Rt.T0 Dv i7 i7 Wo Fv.c|.c|.Fv.Fv.W~.c|.W~.c|.c|.c|.:0 :0 ;Z @J 07.a'. _.>}.L3.L3.L3.Gv.c:..{ iq.Qi.Vn.kd.Hv.Iv.Jv.Kv.J] d:.:0 Bi.Lv.Mv.Nv.Ov.Pv.Qv.Rv.Sv.Tv.C| g. K  u+ k$ f> .@ .@ .@ R= Z. zK Jj.pX A+.=Z Uv.Vv.1H Bi.M. f> B= .'.xa.}R v@ -l.Wv.vu.I@ #_.Xv.K5 >g vr.b|.p} ]^.z{.y{.n5.>p.nh W~..3..{ b; (% gh.(' wr.Yv.S= Zv.`v.Mn..*  w..w.o. ]p.+w.@w.A- #w.Zt.$w.%w.&w.*w.=w.-w.-% ;w.>w.,w.'w.)w.!w.p9 ~w.{w.]w.,  ^w./w.(w.s  _w.:w.,  <w.[w.7; }w.|w.zK 1w.2w.Y& 3w.4w. > 5w.6w.7w.8w.",
"9w.0w.aw.#$ d| bw.cw.dw.R_ _. ew.fw.gw.^. hw.iw.jw.kw.z1.lw.mw.nw.lF ow.pw.qw.rw.sw.49.tw.Vu.rr.|s && R+ uw.vw.Ua.iq.$v.ww.l; ~~.KA Bl B= @6 Rt.W~.xw.ps.yw.zw.Aw.Aw.F1.Bw.Cw.Cw.Bw.Bw.Bw.Cw.b|.Bw.9h.ps.#_.t9.f:.Dw.,G ,}.@6 @6 %g pX |H Ew.Fw.wu.Gu.Q1.Gw.*h ';.J1.kd.Hw.Iw.Jw.qd.k[ f].F= Zu.Kw.yi.Lw.Mw.Nw.Ow.Pw.Qw.vT B7 u+ v@ M. `  Z  -. Z  o. A= |r SS 2R Rw.Sw.Tw.Uw.`I K  ,  z-.Vw.Ww.p} A= D{.Xw.g:.y+ Ms.Vj.Q6 %g Yw.pX %g ^, n5.@3.jd.Ms.7; Zw.B9.T% `w._p.p}  .  x..x.0&.Rs.+x.@x.Ar.#x.$x.Y. Ir.%x.&x.n# p6.*x.=x.9} -x.;x.>x.p9 ,x.'x.Cq.*  )x.!x.~x.6. {x.]x.^x.F>./x.(x.,  _x.:x.6. <x.[x.Dc }x.|x.B= 1x.2x.|s 3x.E, ah.4x.5x.6x.7x.",
"8x.9x.^. U# 0x.ax.bx.|) cx.dx.ex.fx.;@ !- gx.hx.m-.ix.jx.kx.lx.mx.gt.nx.ft.6, J5 ox.-=.g:.6! f:.px.t9.'p.Zu.W~.9h.:4.R<.V~.@6 c# c# ]{ In.Bw.Bw.b|.c# @6 B: c# @6 @6 qx.}4.07.}4.}4.}4.07. J xK  J  J >~. W y{.d:.B: /#.x6.sB Ms.Ms.sB ]{ t9.g:.Gh @6 w8 Du.dm.Q<.rx.W~.A+.d:.Fv.Bz sx.Yu.tx.2r.ze. W 5Y t8 ux.vx.wx.xx.yx.zx.Ax.Vm u$ V# nl ;d Bx.e% >& t` 2R xK Uw.Cx.Dx.Da.@J M. ,  ]] }H Ex.Fx.7; g> Gx.6>.]]  W Hx.F1.Y& X. !c.u$ @6 ._.Vn.Ix.Jx.~l.6! Kx.A-.>* Lx.Mx.]] Nx.Ox.p6..> Kn.Px.hq.L1.Qx.Rx.9} Sx.Tx.Ux.#+ Vx.Wx.Xx.s  Yx.Zx.`x.*   y..y.+y.@y.#y.$y.%y.&y.*y.=y.,  -y.;y.s  >y.,y.[p Q= 'y.F0.Jd Vd.Vm )y.!y.5Y ~y.{y.i].]y.br.^y./y.",
"(y.Q* _I _y.:y.<y.,  au.[y.}y.U .|y.1y.2y.3y.Ep.4y.5y.6y.7y.8y.9y.0y.7` ay.$k Ms.)}.qs.rx.)l.n5.A9.r/.!, Ev.w8 ;}.qx.]{ R<.R<.]{ ]{ >~.Jj.pX c# |H Xu.]{ ]{ ]{ =6.}4.}4.}4.}4.}4.Xu.z-.]{ ]{ }4.]{ R<.;1.by.24.cy.]{ Cw.IK @6 B: Gh Gh c# t9.In.Ls.a'.W~.6! X  A9.ps.)l.Eu.rx.;}.b; =: I0.dy.ey.fy.gy.5w J}.f> {$ 79.hy.iy.jy.ky.ly.my.6n b& /#.r` T0 <q t` }4.t8.ny.oy.Tw.QS _4.7; A. .@ m/.py.qy.pX b$ _R 78.|H    ry.sy.Jj.x+.;p.9h. W R+ Ni.';.ty.uy.b; J}.vy.v9.>* B+ wy. b.>1 Ss.xy.44.yy.Us.(' zy.Ay.By.l+ Cy.Dy.Ey.Fy.Gy.Hy.Iy.yd Jy.Ky.pr Ly.My.Ny.l+ Oy.Py.Qy.p9 Ry.Sy.9} Ty.Uy.Vy./T Wy.Xy.nk Yy.n! Mi Zy.==.`y. z.t` .z.)c.+z.@z.#z.$z.%z.",
"bX &z.*z.=z.-z.`+ ;z.>z.,z.9N 'z.)z.!z./V dv.~z.{z.^) ]z.^z.=E T. /z.(z.X,.Dc uu.b# _z.;}.c|.bm.9h.n5.Rt.qx.@+ ;1.;1.m> Gh Gh c# ]{ ]{ :z.V~.@J @J A=  J c# c# c# }4.}4.}4.}4.}4.]{ ]{ Xu.]{ ]{ ]{ }4.B: A+.9e u$ A+.A+.@6 @6 ]{ ]{ Xu.}4.Dc A+.h3 /9 |H  _.Ls.Xu.g:.6! >G N<.)l.!}.ks.Ew.Qt.ze.<z.[z.}z.ch.|z.>* >* ;Z /R 1z.2z.3z.4z.5z.6z.7z.8z.9z.0z.wt.az.v8.bz.cz.Tu.dz.ez.Gh .@ v@ B| .E fz.gz. W e3 sF Hx.g:.u$ %_.L3. W pX a:.c|.@3.>p.Mi.ze.ls.hz.87.iz.jz.<< Ir.kz.v9.S= Vi.lz.Y& `w.Rn.ty.<% mz.nz.p= 5>.oz.pz./T qz.rz.sz.j4 tz.uz.vz.9} wz.xz.yz.R2 zz.Az.nk Bz.Cz.Dz.Ez.Fz.Gz.9} Hz.Iz.*  Jz.n:.x+.[| x-.Kz.Lz.Mz.@_ Zj m. Nz.C2.Oz.Pz.",
"K[ Qz.Rz.Sz.,  Tz.Uz.Vz.K[ Wz.Xz.Yz.+..Zz.`z. A.%F .A.+A.@A.Hy Cq '<.Mi W~.>}.vw.zu.-g.#A.9h.;}.>~.|H 0m.a'.}4.Li S3.Jj.]{ c# c# @6  J $A.T0 OS %A.@Z =6.]{ }4.}4.]{ }4.@6 @6 @6 @6 xK }4.}4.xK }4.Xu.R<.i# Vs 4M }& _a.m(. J A+.Gh c# ]{ In.a'.X5 e) Gh u$ A= ]{ /^.9h.n5.A9.d:.A9.f:.._.&A.r+ J] ';.Ie.*A.=A.-A.G0.if 6. .@ ;A.>A.,A.'A.)A.!A.~A.{A.]A.^A./A.(A._A.:A.F3.<A.[A.{5 B| E; u+ B= v+.}A.IK O% `I |A.y3 nh pX w^.gz. W 2(.>p.@3.Fv.1A.p6.]c.uy.Ew.2A.:l.3A.Bv.kq.4A.>* qz.jh.5A.5>.6A.yy.-g.7A.8A.9A.!% 0A.aA.bA.-% cA.dA.eA.y9 fA.gA.hA.e8 iA.jA.R2 kA.lA.mA.nA.oA.pA.,  qA.rA.*  sA.tA.9} uA.vA.I@ wA.nP xA.yA.sF zA.%l.AA.Qj.BA.CA.DA.",
"EA.FA.GA.#$ HA.IA.JA.-+.KA.LA.MA.NA.OA.PA.Rt QA.RA.SA.<>  f TA./#.%g.UA.ps.jU c# VA.WA.c# }4.sB sB Xu.ZN sg sb j).9e j).pX B: }4.]{ ]{ sb M| K5 K5 {$ $A.c# @6 }4.Xu.Xu.R<./^.sB Xu.R<.Xu.}4.Xu.Xu.]{ m> YI i7 /9 'E %5.js #A.R<.Ms.XA.m> >~.:0 {$ M| R<.9h.N<.pX A+.T0 sb b:.YA.Fv.%g A+.xw.ZA.Jx.Uf -0.I@ >G `A. B..B.A8.-g.,  6. Zu.+B.@B.#B.$B.%B.&B.*B.=B.-B.;B.)~.>B.,B.'B.*..z] x  Y  zK )B.!B.Y,.|s u. ~B.bU |H ]] 27.K}.$A.6! {c.G0. W {B.]B.44.`a.^B.ze./B.(B.ty.   _B.:B.n# <B.[B.}B.|B.1B 1B.N@ 2B.3B.4B.l+ 5B.6B.7B.l+ 8B.9B.0B.R2 aB.bB.*  cB.dB.eB.n4 fB.gB.s  hB.iB.L# jB.kB.%y.lB.mB.,% nB.oB.   pB.qB.rB.sB.f2.tB.n2.uB.Av S* vB.wB.",
"xB.(s x  yB.zB.AB.BB.CB.DB.7y.EB.FB._r.r$.GB.HB.IB.ry 6!.u] JB.KB..E c# }4.Ms.]{ >~.|H S_.In.;}.g:.qx.V~.V~.;Z Gh @6 }4.sb @J T0 T0 OS 07.}4.@Z =6.}4.:z.=6.V~.07.@J T0 j).D..j).A= ={ j).$A.T0 _d.$2 :z.2R LB.LB.Hl MB.xi.W] Q6 Q6 $A.@Z R<.Ms.=6.@J :0 %g c|.b|.9h.IK :0 X  %g Cw. _.In.Gh X  'p.Pm.NB.f5.J}.ze.ze.OB.PB.QB.x8.|r.>* x  #$ &5.RB.SB.TB.UB.VB.WB.]A.XB.YB.ZB.`B.Da.B= O% K  M. ,}. C..C.+C.M. e3 &Z @C.B= Y& #C.+B.y{.-0.$C.w: d:.]B.k|.44.%C.>}.87.r+ &C.xy.B  *C.|z.   =C.-C.Y. ;C.>C.,C.9} 'C.)C.eJ p9 !C.~C.yd <J {C.]C.l+ ^C./C.(C._C.:C.<C.,  [C.}C.nA.|C.1C.2C.3C.4C.5C.6C.7C.Wi.8C.9C.z] 0C.-v aC.bC.A| cC.dC.eC.fC.gC.hC.iC.",
"jC._. kC.lC.mC.nC.oC.pC.qC.rC.sC.Sp.tC.d).uC.:q.:4.#A.@6 sB Ls.jU m> Xu.]{ @6 R<.Ms.R<.qx.c# b|.IK c# @6 @6 V~.@J V~.@J K5 OS LB.LB.@Z @J @6 V~.V~.07.=6.LB.LB.Hl 4M Hl 0@ vC.vC.rr.rr.Hl Hl %A.Hl %A.e) e) /9 Q6 Q6 T0 @Z sb &~ wC.Hl sb  J %g @6 }4.R<.In.|H %g %g g:.b|.In.Xu.%g %g W~.KA :<.xC.km.Ix.yC.B8.uw.JB.(w ]c.Bu.zC.AC.]B.C8.`I x  O% n5.BC.CC.DC.EC.FC.GC.HC.IC.JC.KC.N<.p} u+ ,  N@ LC.MC.NC.%g u+ YI OC.Cv.x+.=h PC.n5.Y. Q1.QC.Zu.J}.RC.rt.Dc Ta. k.7; SC.TC.q$ $k.UC.Qt.Ar.}c.VC.N2 WC.XC.YC.ZC.`C. D.j4 .o..D.+D.,% @D.#D.$D.<6 %D.&D.*  *D.=D.-D.;D.>D.,D.'D.)D.!D.*  _w.~D.{D.]D.Qt.3A.^D.`a /D.nP => (D._D.a<.:D.<D.[D.}D.|D.Mh ",
"1D.2D.3D.P/ 4D.5D.6D.7D.8D.FQ Be 9D.!> Kh 0m.9h.J1.n5.Ls.}4. J R<.Xu.@6 R<.G{.R<.@6 @6 c# @6 @J @6 =6.OS W] /9 e) OS %A.@Z T0 i7 T0 sb n/.LB.>4 &~ Hl &~ sb T0 T0 T0 T0 K5 /9 K5 /9 /9 /9 T0 /9 sb LB.LB.4M wC.0D.Hl LB.sb T0 Q6 Q6 T0 $2 R<.R<.]{ @6 u$ Gh Xu.R<.Ms.]{ A= u$ ]{ R<.R<.V~.A=  J yr.O0.t8.@3.A9.O0.aD.N] rt. b.ze.Gu.bD.cD.S9 Dc g. K  o. I0.dD.eD.fD.gD.hD.iD.jD.s/.9h.Jj.f> (. 5~ t8.kD.lD.mD.   S= *z nD.oD.X  pD.qD.B  Qt.rD.hz.B  sD.js.Mi tD.uD.Zu.B  vD.$k.Bv.wD.xD.Y& `w.yD.zD.ja AD.BD.j4 CD.DD.ED.l+ FD.GD.7B.p9 HD.ID.R2 JD.KD.LD.MD.ND.OD.p9 PD.QD.#+ RD.SD.#+ TD.UD.6. VD..  _<.WD.6j XD.ry YD.ZD.V@ `D. E..E.+E.f<.@E.#E.",
"$E.%E._I &E.bw.*E.=E.-E.;E.>E.,E.F. d:.Ms.f).'E.)E.!E. J R<.sB @6 }4.Ms.}4. J c# c# @6 i7 OS @Z OS @J Ji.n/.%A.sb K5 K5 @Z 4M Hl 07.sb Ji.Ji.Ji.xi.MB.n/.Hl 0D.0D.wC.0D.X0 El Y(.~E.7d {E.0D.wC.Hl LB.@Z sb /9 /9 T0 sb %A.4M 0D.0D.%A.T0 A+.A+.Gh R<.Ms.Z_.sb Q6 A= @Z LB.LB.@J %{ Q6 2R :z.Li X  pX n5.]E.^E. W C8.uw./E.Dv. b.km.Ir.(E._E.He.:E.e3 >@ (. ,& =: js.<E.[E.}E.|E.}A.Bw.>~.]] +& ,  x+.1E.2E.3E.p6.b$ y+ i5.4E.C8.nh t# Q<.B  !E.dm.>G Zu.H0.f:.Qt.0h.uy.I@ 5E.6E.Qt.7E.8E.0:..* 9E.0E.ja aE.bE.cE.,% dE.eE.fE.<6 gE.hE.l+ iE.jE.kE.lE.mE.nE.,  oE.pE.l+ qE.rE.s  sE.tE.s  uE.vE.6. wE.yr.v{.xE.yE.zE.AE.BE.lt./D.-=.CE.Dl DE.!g @E.EE.",
"FE.GE.HE.IE.JE.!4.KE.&l LE.R* ME.2R XA.%g bm.rx.b; W~.Ms.>~.}4.R<.Xu.@6 @6 c# B: B: :z.X5 T0 Ji.K5 {~.bd {$ M| bd  > MB.07.T0 e) sb %A.F. NE.OE.n/.PE.X5 @J T0 W] W] /9 sg ZN sg 86.<e Dv /9 K5 e) sb %A.wC.ur.Zf.0D.4M Hl OS Q6 /9 T0 Hl G{.Ms.sB @6 A+./9 X5 n/.&~ e) >g {$ X5 Hl X5 >g  W Mn.{#.=W u$ nh QE.XA./5 6! 'p.RE.Jn.SE.hq.FM =: TE.UE.VE.WE.B| Y  F  6. Mi R+ Va.)~.XE.b:.m> ME.F= W# 7; ry.YE.ZE.`E.<% 6. Xt. F.27.,  Qi..F.oD.;* js.dm. W b|.Ta.%g A+.N0.~l.0&.+F.@F.|B.#F.Qn.hq.';.$F.%F.!% &F.*F.=F.ZC.-F.;F.<6 >F.,F.'F.,: )F.!F.9} ~F.{F. N ]F.^F./F.(F._F.:F.<F.[F.}F.|F.1F.*  %3.sB :<.S% 2F.3F.4F.5F.6F.7F.rb 8F.gx 9F.0F.aF.bF.",
"cF.dF.3).x,.eF.fF.Pj.Uo {E.;Z XA.gF.%g Ms.=6.YI Wu.SS @J G{.Ms.@6 B: @6  J  J }4.@6 T0 K5 {~.X5 K5 T0 bd Ii.bd M| 69 Ji.:d.G[.hF.&~ <q K5 M| 69 bd Ii.OE.iF.jF.jF.c0 kF.lF.mF.w] mF.R$.jk nF.oF.Zf.wC._d./9 Q6 W] W] sb Hl 7- Vj.Zf.4M sb A+. J ]{ Ms.pF.Hl {$ >g K5 n/.wC.X5 >g >g X5 u2 ;u nh :0 Mz.sB 8% S=  J zw.qF.A9.<% QC {c.rF.'p.F= p} sF.tF.uF.vF.;Z A. `  =. #+ wF.;}.+O xF.+' ME.)' u. f> y{.d& yF.zF.8; N@ ]] :A.AF.(' 87.Hv.!}.y{.44.H0.f:.Mi BF.v{.Q* CF.DF.J] ';.EF.xw..* FF.1B.N@ GF.HF.7A.nk IF.JF.p9 KF.LF.MF.s  NF.OF.p9 PF.QF.RF.SF.TF.UF.VF.WF.XF.@y.YF.ZF.gL `F. G.`X .G.s  +G.Ms.@G.b7.#G.$G.Iq %G.&G.*G.T_.=G.-G.;G.>G.f3 ,G.",
"'G.)G.vA !G.~G.5o 8^ {#.xK {G.]G.^G.In.c# a'.%A.K5 Hl R<.}4.c# =6.Gh j).;u l:.j).Z5 %A.f9.ZN =z Xe =z Wo OS @Z a'.4M &~ ~d 5e m/.)=.h7 /G.(G._G._G.Ms.&~ Rf.:G.G* G* V* h3 Q6 I_ T0 /9 e) Xu.;8 <G.(G.[, zX d[ =2 Zf.Hl CK 9e |s z] Hv 7d nF.[G._d.=7 |s @Z 4M 0D.%A.Q6 A= %A.LB.LB.W] Q6 07.Ms.Xu.A= Gh =6.n/./9 Q6 @6  _.;1.|s %g R+ .3.X& (w n# rt.}G.|G.1G.2G.h3 g. `  6. ,&  . Q6 C] f9 3G.x  ,  F  8; 4G.5G.6G.Zu.u+ xC.7G.xz ja 8G.9G..g.ja 3r.PB.0G.S3./~.Ua.]] im.TC.V# .x.aG.ze.Ir.bG.cG.,  dG.eG.b$ fG.gG.hG.!% iG.jG.<a kG.lG.@@.e8 mG.nG.,: oG.pG.#+ qG.rG.#+ sG.tG.6. uG.vG.wG.xG.q$ yG.Aw.5t _> t{.zG.AG.}9.BG.CG.DG.EG.FG.di GG.HG.IG.",
"i{.JG.1m.]4.l` 7d <q X,.Z_.={ Md KG.g:.S_.}4.T0 n/.07.@6 c# @6 c# ]{ OS $A.@J :z.@J T0 f9.:d.ZN ZN .^ >4 4M xi.e) sb 4M 7d =} X0 %~ Hv ;Z A+. J }4.]{ 4M ah.LG.N[.|w c0 n. Vj.Vj.Vj.iF.q~ sB z-.Gh u$ u$ e3 Q6 /9 MB.Vj.MG.NG.m6.Y(. > 86.C| .^ G[.7d 7d .^ W] Q6 sb p3 Hl T0 Q6 W] LB.>4 A= A+.]{ ~~.@6 |s K5 &( =6.u$ X  In.~~.g:.y+ p6.Jw._B.De.7. '| OG.PG.QG.RG.tD.x+.K  ,  ,  Y  n~ SG.Y& g. ,  6. Qi.TG.uF.UG.VG.u+ 7; WG.=A.;}.o. Ew.d|.J1.ze.XG.YG.<% ZG.u7.nh Ie.UC.=_.(' (B.`G.|B. H..H.%w.Fy.+H.@H.#H.$H.%H.&H.*H.=H.-H.y9 ;H.>H.Yb ,H.'H.)H.!H.~H.{H.]H.^H./H.(H._H.s  :H.<H.,& [H.}H.|H.!~.q0.1H.2H.3H.Pl i<.4H.5H.6H.7H.8H.9H.0H.aH.bH.",
"cH.dH.Xo :d.Z_.Dc l; >~.>~.Ms.>~.|H In.qx.Ms.:z.{$ 07.}4.c# ]{ @6 @J SS p0.Wo Wo f9.:d.ZN .^ Ia.G[.f9.T0 07.4M 7- Vj.Vs {~.Wo Wo >4 =} eH.[, vl.[, /G.zF F{.@& PE.PE.MB.4M wC.@& iF.nF.zX vl.M] fH.,h M] gH.nF.wC.e) e3 .> p} xi.=} w] mF.yP hH.Va >+ Gj.%~ n. Zf.sb Q6 T0 @& p3 @Z W] h3 Z_.Ms.@6 u$ ]{ G{.{~.6$ 07.Ms.qx.%g c# pD.9h.Dc @3.x9.Yu.u/.ze.I@ /5 iH.jH.kH.lH.h3 W# F  (.  @ k$ ]] S= M. 6. 87.Ni.mH.4+ nH.X  u+ 6! TG.oH.C| e3 pH.Ce.44.:p.Jw.Vn./B.M0.R' I@ qH.rH.S= Xs.sH.tH.9} uH.vH.s  wH.xH.yH.:f zH.AH.9} BH.CH.DH.EH.FH.GH.HH.IH.JH.KH.LH.MH.NH.OH.PH.QH.RH.SH.TH.UH.*  VH.^5./| )z WH.XH.YH.ZH.`H. I..I.+I.@I.#I.$I.%I.&I.*I.=I.",
"Uf.A= Z_.c# ;}.-I.xC.KG.KG.@6 Ms.SS |H /^.07.T0 X5 T0 pX c# Gh @6 c# .^ A$ f9.Xe .^ .^ Xe G[.Z,.ZN Ia.0D.4M @Z sb sb ;I.nF.>I.,I.61 $2 @6 Gh A+.A+.Gh @J xi.:z.Hl LB.rr.MB.xi.e) e) /9 :0 A+.p} A+.Gh z-.px iF.gH.'I.)I.!I.~I.Hl z] C| 5e }l )k {I.lF.D_ V, `I sb Zf.Vj.%A.I_ Q6 Hl Vj.n/.Q6 @6 pF.Ms.Gh A= n/.>4 @J A+.In.Bw.A+.A+.9h.%_.@6 f. QC ]I.^I.zK u+ J}./I.(I._I.:I.kd. b.b$ ,  Y  Y.    Y& 0&.<% .  <I.[I.}I.|I.v@ E; 1I.2I.3I.L. 0G.Yu. k.km.vw.ns.]c.@_.4I.'E.km.5I.6I.-w.7I.8I.p9 cE.9I.0I.-% aI.bI.!% cI.dI.eI.fI.gI.hI.yd iI.jI.,: kI.lI.j4 mI.nI.j4 oI.pI.qI.rI.:F.sI.tI.6. uI.e) 2$ vI.wI.xI.yI.zI.AI.b7.BI.64.CI.=G.0- DI.EI.FI.GI.",
"OS &( <q u] )z }R ]{ ^E.e[ ;1.SS =W Bw.Gh }4.T0 K5 @Z Gh B: c# @6  J f9.wg =z ~d wq a[ ZN f9.G[.X0 Xe T0 %A.Zf.nF.nF.;I.I] 9e 9e W4.HI.kn [, M] ,h M] M] II.M] M] M] M] E7 #c.ye.JI.KI.JI.LI.,h vl.X4.G{.MB.Q6 e3 `I Q6 $2 5H T<.MI.!I Fi.rr.|s `I CK q~ nF.NI.Hl e3 W] 4M Zf.4M W] Q6 Hl Vj.cy.u$  J Ms.=6.6$ /9 4M Xu.X  qx. _.}4.p} }4.v{.f).(w J] BF.Mx.x+ ,   b.OI.PI.QI.RI.SI.d:.M. .@ b$ Y. TI.I@ N@ UI.*_.VI.WI.XI.y{.`  @3.YI.ZI.Nv #+ `I.sx.(' 44.w8.Aw.Q*  J.tx.x+.fG..J.*8 wF.+J.@J.#+ #J.$J.s  %J.&J.*J.l+ =J.-J.!% ;J.>J.,: ,J.'J.)J.!J.~J.{J.]J.^J.Yb /J.(J.,: _J.:J.<J.[J.n# }J..^ |J.4m.1J.2J.3J.4J.5J.6J.V< 7J.8J.BI.`| 9J.0J.aJ.bJ.",
"0m.YI =6.jU 07._4.B= m> Xu.}4.Ms.V~.5Y <q ZN =z ZN T0 07.OS i7 07.07.ZN ~d G[.Xe A$ Hv {E.4M T0 Wo >4 Vj.nF.Hl Q6 e3 sb [G.nF.gH.zX cJ.dJ.eJ.fJ.p- Ol M. ,  Y  K  u+ g. Y. Y. Y. V# W# 3G.fJ.f^ x/.cJ.)I.gJ.hJ.iJ.Gi.}#.Cg U{ v@ O% ob jJ.kJ.lJ.>J wC.z] 6$ xi.=2 !I 26.Va e3 %A.ur.0D.T0 Q6 ;I.p3 sb %{ 07.{E.Ji.Q6 :z.Z_.=7 zK 24.KG.>* ]G.os.l; p} Mi e|.mJ.nJ.;* B| oJ.pJ.qJ.rJ.sJ.oD.I@ ja Y.    0&.9# tJ.uJ.}I.vJ.wJ.34.A. f> xJ.l' yJ.,  >~.St.@v.v@ zJ.AJ.X  'E BJ.CJ.A. DJ.EJ.6. FJ.GJ.4u -v.HJ.IJ.l+ JJ.KJ.*- LJ.MJ.NJ.OJ.PJ.QJ.RJ.SJ.TJ.UJ.VJ.WJ.XJ.YJ.ZJ.`J. K.<6 .K.+K.@K.#K.$K.%K.=6.nx &K.*K.=K.-K.;K.>K.,K.m:.'K.)K.!K.~K.{K.]K.^K./K.",
"pX ]{ pX c# Xu.@6 ]{ ;Z =6.Z_.@J @6 PS vT =z ZN m/.{~.i7 sb @Z K5 sb Xe Hv sg Xe X0 >4 T0 sb Zf.n. ;I./9 e3 xi.n. gH.gH.Vj.Hl Q6 %{  .  . `I A= $A.OS :z.sB 2M (4.YD tq pF.24.+' l:.9e zK o. u. u. u. o. x[ g$ (K.x7 _K.:K.xA.76.S<.Hv >g o. |s >4 lF.2$ <K.wC.h3 g$ Z= 5t S<.%A.W] e) ur.Zf.{$ h3 4M 4M /9 W] 4M Vs >g /9 7- w= ]] +' !, B   W rx.[K.>G Mi k|.}K.ks.p} zK Qi.|K.1K.2K.3K.4K.g:.y{.]] x+.87.1p.5K.6K.7K.8K.9K.>*  @ iq.0K.aK.Ie.g. bK.cK.nh 87.dK.eK.K  ~p.fK.0&.x+  u.gK./T hK.iK.,% jK.kK.,: lK.mK.nK.n4 oK.pK.-% qK.rK.l+ sK.tK.-% uK.vK.G6 wK.xK.wW yK.OJ.zK.AK.BK.CK.^x.DK.07.EK.FK.GK.HK.IK.JK.KK..I.LK.'K.MK.NK.OK.71 PK.QK.RK.",
"bm.V~.]{ @6 }4.sB @J &~ %A.h3 sb /9 .^ vT vT f9.A$ Z,.@Z Wo e) LB.4M ZN Ia.7d D_ A$ :d.Vj.Zf.sb e3 sb nF.#c.nF.wC./9 e3 |s T0 MB.7- =2 SK.TK.UK.VK.x2.WK.XK.YK.ZK.`K. L..L..L.RJ 6<.+L.@L.T_.xX ,~.0@ m(.9e 7; S= u. 7; T0 sF #L.$L.%L.&L.*L.=L.Dv mj <e El !I Sv ~E.$=.9/ Ji.Vj.pe.%A.Q6 xi.Vj.4M Q6 /9 0D.LB.W] OS 0D.@Z %{ _a.0@  W Dc ps.qx.;* 9h.bQ Qi.y+ -L.+_.x9.Zu.L. Gh PB.;L.>L.,L.'L./5 C8.Dc @3.^G.)L.!L.~L.{L.]L. 3.,  V# x8.^L.nH.o. %g.#x.is.(' /L.rd.Ir.7; (L._L.nk :L.<L.,% [L.}L.|L.%w.1L.2L.,% 3L.4L.,: 5L.6L.&H.7L.8L.9L.0L.aL.bL.cL.dL.s  eL.fL.e8 gL.hL.iL.jL.kL.lL.0'.y2 a[ mL.nL.oL.pL.qL.rL.sL.tL.uL.vL.wL.xL.yL.zL.AL.BL.CL.",
")}.b|.@6 R<.]{ >~.@Z K5 Ji.T0 {$ Ji.Wo ~d Z,.sg Xe &~ sb LB.4M sb Hl 7d Ia..^ Ia.)k {E./9 {$ wC.nF.nF.Hl /9 e3 /9 wC.nF.#c.=/.=/.DL.zF EL.k[ FL.F- FL.GL.S) M3.M3.f9 /u Rf.D_ 0C HL.}s Jv IL.^D.JL.KL.LL.ML.NL.OL.PL.l).zK Y  ,  .@ M3.dJ.QL.RL.`y.SL.c$ Kh q- @p )k Uj.lF.xi.`I T0 nF.nF.e) e3 LB.ur.Hl Q6 %A.Zf.sb Q6 LB.%A.B| _d.pF.pX %g Ms.}4.zK ;}.bQ ;}.nh De.dD.Ni.e3 M. ]c.TL.UL.VL.WL.XL.YL.ZL.Vn.p6.`L. M..M.+M.@M.#M.9#  @ -g.$M.%M.De.0&.&M.*M.=_.Y. =M.-M.S= ;M.>M.#H.,M.'M.)M.R2 !M.~M.l+ {M.]M.,: ^M./M.(M._M.:M.<M.[M.}M.|M.)J.1M.2M.3M.4M.5M.6M.7M.y9 8M.9M.0M.aM.Bv.bM.cM.dM.eM.fM.gM.hM.iM.jM.kM.lM.+t mM.nM.oM.pM.qM.rM.sM.tM.uM.",
"=: qx.sB c# Xu.]{ T0 V, K5 Ji.M| {$ f9.ZN Z,.Xe sg p0.4M OS @J Zf.Hl ZN J5 Fi.%~ sg {~.zF gH.iF.T0 `I T0 0D.d[ 'I.=/.Zf.xi.D, %{ %{ o. S= S= o. o. 7; o. E; v@ .@ Y  ,  .@ O% v@ v@ v@ O% .> C] vM.@& >J wM.xM.yM.zM.zM.AM.BM.CM.DM.Y& A. M. `I @& Sv EM.%W K4 hU <> e3 q~ =/.#c.Hl e3 /9 Vj.NI.e) Q6 0D.Zf./9 /9 Zf.Hl e3 &~ c$ z] T0 *z jU |s Z_.R<. W g:.x{.:z.Mi Os.yu `2.Qt.F= nh FM.GM.HM.IM.5G.JM.OG..g.YG.KM.LM.MM.NM.OM.Ke.K  k$ ^I.PM.QM.n#  b.RM.SM.Y. 0G.*x.nm.F= TM.UM.W# VM.WM.XM.YM.ZM.`M.y9  N..N.Yb +N.@N.Yb #N.$N.y9 %N.&N.-% *N.=N.6a -N.;N.>N.,N.'N.m9 )N.!N.~N.{N.]N.k[ kF.^N./N.(N._N.:N.<N.[N.}N.|N.1N.2N.3N.4N.5N.6N.7N.8N.9N.",
"y-.}4. J Xu.}4.c# T0 V, 69 V, V, 69 Wo &~ Z,.=z Y(..^ p0.=} {E.Wo :d.0N.hF.z] {~.lF.DL.X5 >g /9 &( aN.bN.cN.qt.%{ O% e3 Dv t`  O ==.dN.79.>z >z eN.fN.BK `D Qw.}7.>..qF.)5 LB.gN.w3.0* 5. M. K  K  .@ u. .> Q6 07.hF.Sj.hN.iN.zM.jN.kN.D3 _G.07.e3 Q* C| gs ,$ lN.mN.nN.:0 .> $2 =/.d[ MB.e3 %A.NI.p3 Q6 T0 ur.Hl e3 Hl 0D.h3 69 hF.T0 W] _4.07.|s In.R<. W  J m6.a'.;* 0G.Kn.oN.d:.,  Y& pN.qN.rN.sN.tN.uN.vN.wN.xN.yN.zN.AN.BN.CN.Y. (. xy.DN.EN.mc Y  FN.GN.5E.o. HN.IN.A. Xs.JN.KN.eJ LN.dG.s  MN.NN.*  ON.PN.<6 QN.RN.SN.TN.UN.VN.WN.XN.YN.ZN.`N.6a  O..O.2J +O.@O.#O.$O.%O.&O.uu.*O.-7 =O.-O.;O.>O.,O.'O.)O.!O.~O.{O.]O.^O./O.(O._O.:O.<O.[O.}O.",
"n/.CK I] j).j).j).l:.T0 W] @Z T0 T0 LB.T0 %A.4M sb hF.7d ~d ~d h7 Y(./9 xi.nF.nF.$2 e3  > |O.1O.b1. > 0* v@ %{ V~.X,.&=.2O.3O.4O.5O.5O.:6.(R :6.Vw.&u tw.;l.6O.7O.8O.9O.i0.fx FA vc 0O.Hs.aO.(4.0@ w= bO.5. Y  ,  ,  Y  M. O% u3 cO.dO.eO.fO.gO.hO.DL.y_ B| f> zK m6.Jc.iO.jO.^E.p} 0m.kO.`D.2R Q6 lO.)c.=W Q6 wC.Vj./9 T0 61 l:.p} vC.;u zK b|.Bw.X  b|.rx.u$ u] vr.mO..* Ie.nO.oO..* #+ 7; pO.qO.rO.sO.tO.uO.vO.wO.xO.yO.zO.AO.BO.CJ.A. *  CO.DO.EO.*  YC.FO.%v.nk GO.HO.IO.s  JO.$J.#+ KO.LO.N@ MO.NO.OO.)r PO.QO.Tx RO.SO.j4 TO.UO.y9 VO.WO.XO.YO.ZO.`O. P.-% .P.+P.@P.#P.$P.%P.&P.*P.da =P.-P.;P.>P.,P.'P.)P.!P.~P.{P.]P.^P./P.(P._P.:P.<P.[P.}P.",
"Ji.@Z @J sb A= @J T0 sb @Z i7 @Z T0 T0 LB.T0 {~.Zf.>4 sg ~E.)k sg .^ nF.nF.T0 e3 Hl dM.kJ.cO.sg q- 86.mr.wa.6s |P.1P.2P.iF.hF.&~ @Z sb Gh :0 Gh ;Z V~._d.gN.LB.<H za.c&.78.eN.2O.FA 3P.4P.|P.5P.6P.7P.8P.gx ^9 Zf.by.E9 S= K  Y  u+ o. zK z3 9P.0P.t. aP.bP.h(.cP.9/ q- C, dP.kk eP.LB.W] A-.,l.Sj.T0 YI ,~.I| h3 Z,.pe.p0.h3 [G.%A.e3 LB.%A. W Ms.R<.p} m> )5 |s >~.Yw.Ev.(w :p.fP.gP.6! nk 87.hP.iP.sN.jP.kP.tF.lP.mP.nP.oP.pP.qP.rP.6. ,  }B.sP.tP.7E.F  uP.vP.wP.N@ xP.hK.l+ yP.zP.AP.y9 1L.BP.!% CP.DP.p9 EP.FP.R2 GP.HP.IP.JP.KP.y9 LP.MP.yd NP.OP.PP.QP.NJ.RP.SP.Xy.TP.UP.VP.5E.WP.XP.YP.ZP.`P. Q..Q.+Q.@Q.#Q.$Q.%Q.&Q.#A *Q.=Q.-Q.;Q.>Q.,Q.'Q.",
"bd Wo <q Wo <q Dv %A.e) @Z sb /9 LB.LB./9 p3 Zf.T0 >4 )k >4 K5 jF.E7 %A.%{ Hl #c.=/.rr.   ]] PS Ml }9 )Q.|j 2H )z B: `I u+ u+ K  K  u+ Y  Y  A. ,  Y  (. ,  Y  O% C| wP ZN cP.Dn.zi.!Q.#W Ai.~Q.yi.99.99.{Q.]Q.^Q./Q.(Q._Q.:Q.s< !..Nv v@ ,  ,  K  S) px <Q.[Q.}Q.|Q.#1 ^~  . V~.M] 1Q.II.@J Q6 :<.,l.A-.W] D_ v* ~d >+ 2Q.G[.Dv hF.jC mj :d.4M .> :z.a'.`I :z.[G.u$ qx.Nt.w8 ,& 3Q.4Q.5Q.km.6. Mi 6Q.7Q.8Q.9Q.0Q.aQ.bQ.cQ.dQ.eQ.fQ.gQ.!p.(. W# hQ.iQ.jQ.%> Ln.kQ.lQ.#+ mQ.nQ.oQ.*  pQ.qQ.p9 rQ.sQ.,: tQ.uQ.vQ.wQ.xQ.yQ.kz zQ.AQ.BQ.CQ.DQ.EQ.FQ.GQ.HQ.IQ.JQ.KQ.LQ.MQ.NQ.OQ.PQ.;G QQ.r+ RQ.SQ.TQ.UQ.VQ.WQ.XQ.YQ.ZQ.`Q. R..R. j +R.@R.#R.$R.%R.&R.*R.=R.",
"Ji.=z ZN =z ZN wg K5 sb @Z sb wC.sb T0 Vj.@Z sb nF.7- /9 0@ gH.[G.e3 sb #c.J- r2 %{ e3 IK B{.Xv.e5.G{.in w3.K  Y  A. M. .@ f> f> u. f> W# F  F  W# A. j* j* ,  ,  K  v@ E; T% Q6 B= -R.Su.'z ZI tw.Bq !z ;R.>R.,R.'R.)R.E{ !R.Z| ~R.JI.>I.{R.49  . .@ f> o. /9 OE.]R.^R.^R.`< u] `I Jj.RQ.C7 /R.W] W] Lt.Y_.WN qf v7 #=.Kh )=.X0 C| Hv X0 C| @Z 4M 6$ %A.LB. . (R.vC.zK @6 x{.I] >* u/._R./  8G.W# 87.:R.<R.[R.}R.|R.1R.2R.3R.4R.5R.6R.7R.#+ Y  gK.8R.9R.0R.nk aR.bR.yP.j4 cR.dR.l+ eR.fR.gR./w hR.iR.-% jR.kR.j4 lR.mR.!% nR.oR.p9 pR.qR.2J rR.sR.tR.uR.6a vR.wR.xR.yR.!%.zR.AR.BR.UA.>I.CR.DR.ER.FR.GR.HR.IR.JR.KR.LR.MR.#A NR.OR.PR.QR.RR.SR.TR.UR.",
"K5 ~d m/.m/.wg 5e p0.@J &~ 4M i7 0D.0D.W] 0D.=2 sb vM.VR.5H zK DM.VR.#c.Hl e3 %{ xi.WR.|i Y,.;}.<% 0&.K  K  O% Q6 :0 B= IK IK IK v` IK XR.]G.nh  W ;* b$ A. A. ,  ,  ,   @ Y  `  A. V# .> {& ~d T1 XI tg b9.%p }_ YR.ZR.`R. S..S.+S.@S.#S.$S.%S.&S.*S.=S.$Z ,  ,  .@ xi.DL.-S./} ;S.xK Y. e[ XK.bk.lO.Q6 A-.c5 gs 9/ >S.V_ >+ wg Vi 5e ~d )=.mj xe.F. 6$ &~ px f> by.;8 e3 )z -6.Li 9} ,S.'S.OI.M. Y  A+.)S.!S.~S.{S.]S.^S./S.(S._S.:S.<S.p= Y  6. [S.}S.|S.#+ 1S.2S.3S.F  4S.5S.6S.j4 7S.8S.s  9S.0S.p9 aS.bS.eI.cS.dS.eS.fS.gS.hS.iS.jS.V# kS.lS.mS.nS.oS.pS.qS.rS.sS.tS.uS.vS.wS.X~.zX xS.yS.zS.AS.BS.CS.DS.ES.FS.GS.HS.IS.[: JS.KS.LS.MS.NS.OS.PS.",
"sb Wo .^ <q Wo p0.ZN )=.~d ~d @G.Hv e) 4& 61 A= zF vl.xK u$ kn eP.QS.]] ;* In.Xw.RS.9h.ME.O% u. ]] Dc cx ]  SS.TS.US.VS.WS.XS.YS.ZS.t6.`S.wr. T.SE.`w.=: B  x+.,& W# A. ,  ,  (. (. ,  ,  K  K  M. u. >k {$ <7.c$ Y(.)k .T.nX 7P.IL.+T.@S.@T.#T.$T.%T.DG.&T.Vu.Z_.p} K  K  A* *T.=T.zM.,l.i7 T% &( %L.-T.[R @p Gi.kb uS ;T.&c.oe.>T.,T.|n &s Zf.u$ }4.Z_.u$ Z_.=6.7; sB @+ ;* !~.qD.Zu.J] zu ZS.st.k$ M. @_.'T.)T.!T.~T.{T.]T.^T./T.(T._T.:T.W# Y  <T.[T.}T.|T.,  1T.2T.3T.*  4T.5T.6. 6T.7T.8T.9T.0T.aT.l+ bT.cT.s  dT.eT.j4 fT.gT.hT.iT.jT.kT.lT.n4 mT.nT.oT.pT.qT.rT.sT.tT.uT.y2 ga AF vT.wT.xT.yT.zT.AT.BT.CT.DT.ET.FT.GT.HT.IT.JT.KT.LT.MT.NT.OT.",
"T0 @Z i7 OS sb e) 4M =z G[.)k Z,.%~ vu |H }4.M] /G.u$ z-.:^.Xv.A+.zK m> x{.Xw.)5 ;=.   #+ S=  J yw.PT.QT.RT.ST.TT.UT.VT.WT.XT.YT.ZT.`T.vf  U..U.vD.+U.@U.b# #U.B' >* b$ ,  ,  ,  ,  ,  ,  ,  ,  ,  (. ,  K  u+ u+ v@ v@  . u$ $A._d.z-.;I.I| WR.&S.$U.E4 %U.&U.*U.JL.!I.px 7; f> Q6 I| =U.-U.lF.C| h3 h(.;U.7^ B7 >U.@} Em g0 ,U.69 H| !k {& sb )Z A= i# ~~.A= 0m.Xu.y{.'U.^G.x+. _.bQ b; xC.)U.!U.'p.A. (' ~U.{U.]U.^U./U.(U._U.:U.<U.[U.}U.ja  @ 8G.|U.1U.2U.,  Ey.3U.4U.6. 5U.6U.7U.8U.9U.0U.9} aU.bU.*  cU.dU.,% eU.fU.l+ gU.hU.y9 iU.jU.kU.lU.mU.nU.!t oU.pU.qU.rU.sU.tU.uU.vU.!I 29.1) >P.wU.xU.yU.zU.1g.AU.BU.CU.DU.EU.FU.GU.HU.IU.JU.KU.LU.MU.",
"Wo OS sb i7 LB.0D.K5 7d %~ ZN pe.~E.Gh kn :^.z-.u$ NU.vu xK p} @6 _G.H-.xF PS o. f> zK r` [K.d& OU.PU.QU.RU.6r SU.TU.UU.VU.WU.XU.YU.rP.ZU.`U. V..V.+V.@V.#V.$V.%V.&V.oL *V.vK ,  ,  +& ,  ,  ,  ,  +& ,  ,  ,  ,  ,  ,  ,  u+ .@ K  Y  Y  u+ v@ O% !..w= cO.=V.%L.#S.-V.%T.$U.,~.W] B| m@ ;V.>V.-S.hF.T% ah.xA.0N.Z6 Ml ]7.Gj.i< ,V.E3 uS kb <q SS (4.i7 )z )z W] '~.m> y+ 'V.>~.X  qD.)l.Mi  k.)V.ns.B  6. 0&.!V.RI.rN.9Q.~V.{V.]V.^V./V.(V._V.K  *  'C.:V.98 <V.*  [V.}V.|V.!% 1V.2V.l+ 3V.4V.^B 5V.6V.7V.8V.9V.0V.aV.bV.cV.dV.eV.fV.gV.hV.yd iV.jV.kV.lV.mV.nV.3C.oV.pV.qV.rV.Q$.O5 sV.tV.uV.vV.wV.xV.yV.zV.AV.BV.CV.DV.EV.FV.GV.HV.IV.JV.KV.LV.MV.",
"LB.%A.sb 0D.%A.%A.Vj.%A.X5 E7 X5 /9 vl.NV.A+.}4.vu kn A+.p} R<.(G.V] :H PS Q6  W ]G.R+ OV.PV.QV.RV.SV.TV.UV.VV.om.Pn WV.lq.XV.YV.ZV.`V. W..W.+W.@W.#W.$W.%W.&W.OF /, *W.=W.vK ,  ,  ,  ,  ,  ,  ,  (. ,  ,  ,  ,  (. ,  (. `  (. %> (. ,  (. `  (. Y  ,  ,  u. D, Hl )c.-W.<' ;W.>W.,~.C| 6$ jU 5[ -U.es Z6 PS [j.&S.>+ wg ,W.;T.6q T3.XS Va bC =z Bl o/.wP sF =W A+.'W.nh S3._G.X  >~.^c.n5.B  OI.)W.zJ.q$ ,  A9.!W.~W.{W.]W.^W./W.(W._W.:W.<W.n# ,  %w.[W.}W.|W.,  1W.2W.3W.F  4W.5W.6W.8p.7W.8W.,: 9W.SO.!% 0W.aW.6. bW.cW.<6 dW.eW.fW.gW.6W.hW.iW.jW.kW.lW.mW.Qa nW.-_ f; oW.pW.qW.rW.sW.tW.uW.vW.wW.xW.yW.zW.AW.BW.CW.DW.EW.FW.GW.HW.IW.JW.KW.LW.",
"LB.T0 p3 sb 4M Zf.=7 q~ Y% p} MW.lJ.Xu.zK G{.fH.Xu.zK A+.'~.zX G{.:0 7; A= NW.OW.RC.PW.QW.WT.6r RW.XI.SW.TW.UW.VW.WW.XW.YW.jK.ZW.`W. X..X.+X.@X.#X.$X.%X.&X.*X.=X.-X.;X.A. ,  ,  ,  +& ,  ,  ,  ,  +& ,  ,  Y  ,  Y  Y  ,  (. ,  `  ,  ,  ,  %> (. `  F  ,  Y  Y  K  u+ 'E _G.$U.-V.>X.,X.:<.Y. .> 6!.W_ 'X.=W :0 )X.!X.:H :q.~X.}M >+ {X.Tv.[R J#.vT :H t8 Dv Fn.c# X  ]X.>* T0 lO. W R<.^X.d:.<% w9./X.0G.#+ V# >G )V.(X._X.:X.<X.[X.}X.|X.1X.2X.-. ,  3X.4X.5X.Fy.*- 6X.7X.=F.^B 8X.9X.*  0X.aX.p9 bX.cX.dX.eX.fX.gX.hX.iX.Ly.jX.kX.yd lX.mX.nX.oX.pX.qX.rX.sX.q:.h[ rV.tX.o` v* uX.vX. Q.wX.xX.yX.zX.AX.BX.CX.DX.EX.FX.GX.HX.IX.JX.KX.LX.MX.NX.OX.",
"&~ Hl K5 Zf.r2 $A.>I.PX.zK QX.*L.'E u$ B{.V] Jj.zK qx.^, RX.}4. W y+ xC.o).SX.TX.UX.VX.WX.XX.Zw.*A.0G.if gF.{N.YX.ZX.`X. Y..Y.+Y.@Y.#Y.$Y.%Y.&Y.*Y.=Y.-Y.;Y.>Y.,Y.'Y.,  ,  ,  ,  ,  ,  ,  ,  ,  ,  ,  ,  ,  Y  ,  Y  ,  Y  Y  Y  K  K  Y  ,  ,  Y  Y  A. K  Y  Y  (. (. (. M. zK pF.)Y.!Y.9@ ~Y.{~.6$ #l *|.{Y.44 z] dN.]Y.^Y.5e ,W./Y.>+ 3i  u [R bC [R :H ==.i7 w{.X  Jj.K9 zK :z.|H ]] l; ga Y. |r.(Y._Y.44.(. F= CF.:Y.<Y.}R.[Y.}Y.|Y.1Y.2Y.3Y.F  p% 8g.4Y.5Y.6Y.-. 7Y.8Y.9Y.9} 0Y.aY.(Y bY.cY.dY.<6 eY.fY.-% gY.hY. ].iY.jY.kY.lY.yd mY.nY.oY.pY.qY.rY.sY.tY.uY.vY.#C.eH.8^ wY.xY.yY.zY.AY.BY.CY.DY.EY.FY.GY.HY.IY.JY.KY.LY.MY.NY.OY.PY.QY.RY.SY.",
"Xe Rf.,/.bd e) vl.Xu.A+.zX S<.e3 /9 n; w{.u$ |s r2 TY.Bz Dc  W ^E..b.UY. U.{l.gs.@b.VY.WY.XY. W <% FM C4 ~'.t:.0'.YY.ZY.`Y. Z..Z.+Z.@Z.#Z.$Z.%Z.&Z.*Z.=Z.-Z.;Z.7^.A. K  ,  ,  ,  ,  ,  ,  (. ,  (. (. (. (. j* (. j* ,  F  ,  ,  K  u. S= F  F  A. K  K  g. x  u+ Y  ,  ,  (. (. ,  ja w{.fU >Z.,Z.'Z.x[ K  WR.)Z.*f C| %~ M[.!Z.Pj.@} ~Z.6q y~ C# /h.s9.A= Wu.Hv Wo Zf.`I /4.f).>* !, =h (' e5.{Z.ja uu.SW.]Z.7; A. *8 ^Z./Z.(Z._Z.:Z.<Z.[Z.}Z.|Z..* p% F  1Z.2Z.3Z.*  Yb 4Z.5Z.!% 6Z.7Z.8Z.s  9Z.0Z.F  aZ.bZ.F  cZ.dZ.s  eZ.fZ.gZ.hZ.iZ.jZ.kZ.3T.lZ.mZ.nZ.oZ.pZ.qZ./~.^, #L.rZ.9) sZ.tZ.uZ.vZ.wZ.xZ.yZ.zZ.AZ.BZ.CZ.DZ.EZ.FZ.GZ.HZ.IZ.JZ.KZ.LZ.MZ.NZ.",
"&~ |O.m@ PE.=/.@6 xK /| (a.y{.m> OZ.a'.A+.c# PZ.Fn.Cw.]c.ww.In.QZ.gy.Vs.CJ.Cu Ir.Ln.5>.p9 CX ME.FM XM.Ar.'E.*W.RZ.j>.SZ.TZ.UZ.VZ.WZ.XZ.YZ.ZZ.`Z. `..`.+`.@`.#`.,  ,  ,  ,  ,  ,  ,  ,  ,  ,  ,  ,  ,  ,  ,  ,  ,  Y  +& ,  ,  -) S= 7; zK 7| r^ v(.cQ $`.8) $`.U<.v(.s|.G= K  ,  ,  F  M. A* pW.8@ %`.b8.)2 mj PZ.Ig +T.5Y :H &`.*`.Kh =`.d9.`a -`.;`.cP.s9.Dv >`.sg Ji.0D.|s &  S3.y+ ]X.nh Rt.0k.'p.km.,`.!U.st.f> v@ A9.'`.)`.!`.~`.{`.]`.^`./`.(`.(. (. _`.:`.<`.[`.s  }`.|`.1`.s  2`.3`.-% 4`.5`.6`.7`.8`.9`.0`.a`.b`.c`.d`.Yb e`.f`.g`.h`.IP.i`.+@.j`.k`.l`.rV.m`.%_.w] pa n`.o`.p`.q`.r`.s`.t`.u`.v`.w`.x`.y`.z`.A`.B`.C`.D`.E`.bU.F`.G`.H`.I`.",
"J`.6$ LG.ib.e3 =6.dP.I] >* 0:.os.y-.Mi 6! Qi.@_.@_.De.S&.K`.L`.M`.N`.O`.P`.`L.!, cy.85 %5.]& Q`.<| }[.M| U<.R`.S`.T`.U`.V`.W`.X`.Y`.Z`.``.  +. ++ +@ +# +C4 ,  (. (. ,  ,  ,  ,  ,  ,  ,  ,  ,  ,  ,  ,  ,  ,  ,  ,  ,  ,  ,  -) R= 9e bn *4 x_ 2h.h7 (( <Q.)I.JI.$ ++{.T<.Vj.MB.7| K  -. A. I@ a'.#} % +& +PZ.o. +_ * +x3.Vm /h.= +tq 5e ]5.- +=z k2 vT qB.YD Pj.; +vT 2R @Z Jj.'W.;* qx.;1.;* pF.qD.@3.J1.ns.> +Mi N% 7. &_., +' +) +! +~ +{ +] +^ +nk -. N2 / +( +_ +*  &5 : +< +,  [ +} +| +*%.1 +2 +#+ 3 +4 +p9 5 +6 +/H.7 +8 +9 +&V n4 0 +a +b +c +>j.d +e +]X.TY.Gx.f +g +h +i +j +k +l +m +n +o +p +q +r +s +t +u +v +w +x +y +z +A +B +C +D +",
"zK E +,/.%{ Hl 2| l:.;* 0R.Ev.=: ty.F +G +H +I +J +&t K +L +M +N +O +P +Q +n#.R +S +T +;].FM <V.R2 yd B9 U +V +W +X +Y +Z +` + .+..++.+@.+#.+$.+%.+&.+*  F  ,  ,  ,  ,  ,  ,  ,  +& ,  ,  F  ,  ,  F  ,  ,  ,  ,  +& j* ,  ,  ,  f> 7; DM.*.+J5 - +k2 ;6.IL.$U.=.+-.+-W.S}.{Y.-S.;.+;~ `I f> S= S= |s {X.>.+,.+Vu.Q6 t` '.+).+;`.vI.$S.%E vT XK.PZ.vI.m7 #l /Y.$c.!.++k C| 7d @J @6 i# `I Ms.@J p} vr.{Z.y{.o|.t7.Be.b$ u+ x+.VG.~.+{.+].+^.+/.+(.+_.+FM (. #+ :.+<.+[.+}.+9} |.++o.n  MJ 1.+2.+,  3.+4.+,% 5.+6.+j4 7.+8.+!% 9.+0.+Rr.a.+8U.b.+c.+d.+B1 e.+f.+g.+p3 x{.!I h.+i.+j.+k.+l.+m.+n.+o.+p.+q.+r.+s.+t.+u.+v.+w.+x.+y.+z.+A.+PS.B.+C.+D.+E.+",
"F.+LG.6$ F. Vj.@6  W G.+'p.J1.5E.H.+(e I.+J.+K.+L.+M.+N.+O.+P.+Q.+R.+S.+T.+U.+2M.V.+W.+X.+Y.+Z.+`.+ ++.+++++@++#++$++%++&++*++=++-++;++>++,++'++j4 A. u+ Y  ,  ,  F  6. ,  ,  ,  ,  ,  ,  F  ,  ,  ,  ,  ,  ,  ,  ,  ,  ,  ,  ,  M. f> 7; I_ %A.2M )++UK.x2.!++~++x3.{++u* $T.4- ]++^++S}./++'E Y  -. M. [G.<' (++_++i7 A= :++<++cx ;`.$S..T.V~.[++vI.nP y~ ;A.(z.WE ;T.hH.wP A-.W] )z =W YI wC.o. IK Yx pX    ^Z.K0.gm.s  M. ;* }++|++1++2++3++4++5++VA.,  V# 6++7++8++9++,  iE.lR.0++,  a++b++vn c++d++e++<J.f++g++h++i++j++k++l++_t m++n++o++yO p++q++r++N] aO.@G.y` s++t++ER.u++v++w++x++y++z++A++B++C++D++E++F++G++H++I++J++K++L++M++N++O++P++/T ",
"HI.ME.s< PE.Li 2A.Q++R++S++T++1r.p6.)E.U++V++W++X++Y++Z++`++ @+.@++@+@@+#@+$@+%@+&@+*@+=@+-@+;@+>@+,@+'@+)@+!@+~@+{@+]@+^@+/@+(@+_@+:@+<@+[@+s  ,  u+ W# nk W# j* ,  ,  ,  s  Xu }@+|@+1@+2@+B6.R' JB.3@+,& ,  (. -. K  u+ ,  ,  ,  ,  ,  v@ $7 Z= ZV 4@+5@+IL.6@+~++7@+8@+9@+0@+a@+b@+c@+d@+%T./++zK M. Y  s|.p. e@+{].PS  . f@+g@+0m.-l.%U.- +m/.h@+m/.1s i@+Sd j@+uS @a i< =W _4.:0 '~. W cy.;1. W ]^.L3.;* rt.k@+l@+2A.(. nl m@+n@+o@+!`.].+p@+q@+r@+*  ,  6. s@+t@+u@+s  v@+w@+x@+5~ y@+z@+8Z.l+ A@+B@+s  C@+D@+s  E@+F@+G@+H@+R2 I@+J@+K@+$7.L@+M@+N@+Yw.Xw.6!.q@ O@+P@+Q@+M2.R@+S@+T@+U@+V@+W@+X@+Y@+Z@+`@+ #+.#++#+@#+##+$#+%#+&#+*#+=#+-#+FM ",
"@J q7.n5.N<.@F.;#+>#+,#+3J '#+)#+,0 !#+9# J& k`.~#+{#+kX.]#+^#+/#+(#+_#+:#+<#+[#+}#+|#+1#+2#+3#+4#+5#+6#+7#+8#+9#+0#+a#+b#+c#+d#+e#+f#+,  >@ pq `  Ch.nl Q  ,  6. Yb g#+h#+i#+j#+k#+l#+m#+n#+o#+p#+q#+aG.OB.(w F  -. `  K  ,  ,  ,  ,  ,  K  )u 6d.i@+gx -T.r#+s#+t#+u#+v#+1u.w#+x#+y#+z#+A#+'+ B#+C#+'~.o. Y  .> 'R.^t.|: X,.W] +e.D#+)z KA E#+T1 ^Y.h@+#l (( E3 ]z !Z.WN ;W PS PZ.c# m> XA. W 9h.qx.%g pp R<.y{.w/.F#+zJ.#+ F  J^ VG.G#+H#+I#+J#+K#+L#+wF.,  ,  M#+N#+O#+P#+F  Q#+R#+S#+*  T#+U#+s  V#+W#+,: X#+Y#+#+ Z#+`#+ZC. $+_Y .$++$+@$+#$+$$+ZY.%$+&$+'Z R* h- =:.*$+=$+-$+;$+>$+,$+'$+)$+!$+~$+{$+]$+^$+/$+($+_$+:$+<$+[$+}$+|$+1$+2$+3$+In.",
"Xu.|r b:.4$+5$+6$+7$+8$+9$+0$+a$+b$+c$+d$+e$+5>.Zu.f$+g$+h$+i$+j$+k$+l$+m$+n$+o$+p$+q$+r$+s$+t$+u$+v$+w$+x$+y$+z$+A$+B$+C$+D$+,: 6. I@ Y| vK o% m, g. ,  E$+F$+G$+H$+I$+J$+K$+L$+M$+N$+O$+P$+Q$+R$+S$+T$+U$+XG.]c.V# (. (. ,  ,  ,  ,  ,  Y  B| WI f0.=p.;6.tb V$+W$+t#+EG.X$+Y$+* +Z$+`$+ %+.%++%+@%+pB.E{ @6 M. ,  2o #%+$%+z/.6$ Ig %%+_R tq 0- Tv.tq Qj.Va rZ.!.+*`.XS ie.t8 wP Fn.A= sB xK  J ~~.|s R<./G.|s pX &%+*%+J1.6. F  d:.=%+-%+;%+>%+,%+'%+Qt.,  ,  Tx )%+!%+~%+,  {%+]%+^%+,  /%+(%+_%+:%+<%+[%+}%+|%+1%+2%+3%+!% 4%+5%+6%+7%+}@+/;.8%+9%+os.G{.nN.0%+/N.k< a%+b%+c%+d%+e%+f%+g%+kV.h%+i%+j%+k%+l%+m%+n%+o%+p%+q%+r%+s%+kR.t%+y9 B: u%+",
"Ix.ww.'E.WY.:f Mn v%+w%+x%+y%+z%+A%+B%+C%+D%+E%+F%+*  g. F  ,: +y.G%+H%+I%+J%+K%+L%+M%+N%+O%+P%+Q%+R%+S%+T%+U%+V%+W%+R2 ,   @ X%+Y%+g].K  ,  6. Z%+`%+ &+.&++&+@&+#&+$&+%&+<C.&&+*&+=&+-&+;&+>&+,&+'&+)&+!&+~&+{&+g|.k$ (. ,  ,  ,  ,  ,  ,  O% {}.69.vg ]&+@k U0 -W.@S.B[.'c.h&.k2 [;.ZK.^&+/&+@%+(&+_&+:&+<&+tl.(. ,  44 [&+}&+4^ '| |&+1&+:q.(( 0- #l *f }4 2&+Qj.`a XI 3&+YD 4m.vI.x-.A= 2M e3 ;I.@Z .> oF.{E.`I o|.fy.4&+<% ,  M. t8.oN.5&+6&+7&+8&+=: ,  (. F  9&+0&+a&+s  *  b&+c&+=w d&+(%+e&+,% f&+g&+-% h&+i&+pr j&+k&+l&+m&+n&+g+ o&+p&+D< F0.'W.S<.Sf.|~ q&+r&+s&+vZ.t&+u&+v&+w&+x&+y&+z&+A&+B&+C&+D&+E&+F&+G&+H&+[$+I&+J&+K&+L&+q$ a[ M&+",
"N&+O&+P&+mS.Q&+-% -w.R&+S&+xR.T&+U&+V&+W&+X&+Y&+Z&+`&+ *+.*+Yb F  ,  ,  ,  s  hS.+*+@*+#*+$*+%*+&*+_M.R2 ,% *  Y  g. Y  ,  ,  ,  ,  **+=*+-*+;*+>*+,*+'*+)*+!*+~*+{*+]*+^*+/*+(*+_*+:*+<*+[*+}*+5c.|*+1*+2*+3*+4*+5*+vu.b$ ,  ,  A. ,  ,  ,  v@ hU 6*+1n 7*+8*+9*+0*+a*+)I.== .7 b*+:z.V~.z-.pF.c*+d*+_&+e*+f*+g*+h*+>& Y  8) i*+j*+k*+#$ l*+m*+5e n*+0- :q.h@+Av o*+%..rF @u 3&+p*+:q.rX t` 2R xi.e3 &( m@ Ji.q*+B: zK %C.d& Qi.F  ,  n# nJ.r*+s*+t*+u*+-L.F  ,  ,  v*+[3 w*+x*+6. y*+z*+A*+F  B*+C*+,  D*+-y.,% E*+F*+%w.G*+H*+I*+J*+}T K*+L*+M*+EL.'V.zF es N*+t++O*+P*+Q*+R*+S*+T*+U*+V*+W*+X*+Y*+Z*+`*+ =+.=++=+@=+#=+$=+%=+&=+*=+dc ,% @l.t0.==+",
"-=+;=+>=+,=+'=+)=+!=+(v.,% s  8U.~=+{=+]=+^=+/=+(=+_=+:=+<=+[=+}=+|=+1=+2=+l+ ,  ,  ,  ,  ,  ,  ,  ,  ,  ,  F  *  !% 3=+4=+5=+6=+7=+8=+9=+0=+a=+b=+c=+d=+e=+f=+g=+h=+i=+j=+k=+l=+m=+n=+o=+p=+q=+r=+s=+t=+u=+v=+w=+x=+y=+x6.k$ ,  (. ,  Y  ,  K  L<.z=+iU Go.vb A=+-.+)..rr.L8 M3.R= Y& F= Y. $Z ]] Gh B=+C=+D=+E=+F=+G=+H=+K  Ej.I=+J=+K=+;) L=+K'.<e M=+s2 #l 4< s` Ax.r+.wt 9n /h.YD wP o/.h3 &( >g e) 7- %{ (4.qD.    J N=+O=+q$ ,  j* J] P=+Q=+R=+S=+`A.W# #+ V# ]u.T=+U=+V=+*  W=+X=+vz.F  Y=+Z=+`=+ -+.-+fz +-+@-+J^ #-+$-+%-+&-+_`.*-+=-+--+24.;-+jF.*J h.+i.+Q@+>-+,-+'-+)-+!-+~-+{-+]-+^-+/-+(-+_-+:-+<-+[-+}-+|-+1-+2-+3-+4-+5-+F= 6-+Y1 7-+"};
