/* XPM */
static char * wall_east_xpm[] = {
"64 64 3555 2",
"  	c #245626",
". 	c #1F4A21",
"+ 	c #3E623C",
"@ 	c #93B188",
"# 	c #47613C",
"$ 	c #000A00",
"% 	c #324A2B",
"& 	c #94AE90",
"* 	c #7A9378",
"= 	c #495D43",
"- 	c #24391D",
"; 	c #000F00",
"> 	c #152C0C",
", 	c #253619",
"' 	c #1F2E11",
") 	c #596B49",
"! 	c #879D83",
"~ 	c #6C857C",
"{ 	c #5F7C82",
"] 	c #6B8693",
"^ 	c #3F5055",
"/ 	c #24251B",
"( 	c #494229",
"_ 	c #33412E",
": 	c #283E34",
"< 	c #354639",
"[ 	c #142116",
"} 	c #000000",
"| 	c #142413",
"1 	c #334C31",
"2 	c #8FB18F",
"3 	c #789C7B",
"4 	c #749D7D",
"5 	c #4F805A",
"6 	c #244E2A",
"7 	c #213A24",
"8 	c #000200",
"9 	c #000500",
"0 	c #222D14",
"a 	c #31381D",
"b 	c #2A2E14",
"c 	c #292E15",
"d 	c #2E3825",
"e 	c #25352D",
"f 	c #22302E",
"g 	c #3F4E4C",
"h 	c #819487",
"i 	c #759275",
"j 	c #679067",
"k 	c #75A478",
"l 	c #465E37",
"m 	c #303716",
"n 	c #2D3319",
"o 	c #111305",
"p 	c #181D1A",
"q 	c #2A362B",
"r 	c #1F3326",
"s 	c #3A5842",
"t 	c #326236",
"u 	c #89B899",
"v 	c #486953",
"w 	c #122610",
"x 	c #1D310F",
"y 	c #3D502A",
"z 	c #7D976B",
"A 	c #688464",
"B 	c #162D1A",
"C 	c #001100",
"D 	c #0C290F",
"E 	c #325D35",
"F 	c #91B88A",
"G 	c #89A373",
"H 	c #759160",
"I 	c #466139",
"J 	c #1B2C18",
"K 	c #182A24",
"L 	c #182834",
"M 	c #172032",
"N 	c #101520",
"O 	c #000100",
"P 	c #141C05",
"Q 	c #404735",
"R 	c #3B4635",
"S 	c #657C64",
"T 	c #85A483",
"U 	c #6A886B",
"V 	c #233F30",
"W 	c #08211C",
"X 	c #000900",
"Y 	c #000400",
"Z 	c #343E2D",
"` 	c #3A4B41",
" .	c #274241",
"..	c #2B4C4C",
"+.	c #29453E",
"@.	c #202F17",
"#.	c #85845C",
"$.	c #AE9C73",
"%.	c #AB986F",
"&.	c #99A16A",
"*.	c #83A56F",
"=.	c #6B9674",
"-.	c #6D8F88",
";.	c #5B6A71",
">.	c #282D2D",
",.	c #171E14",
"'.	c #0F230E",
").	c #031C08",
"!.	c #343E23",
"~.	c #3D4A28",
"{.	c #37472A",
"].	c #35453A",
"^.	c #768B73",
"/.	c #88A477",
"(.	c #76907C",
"_.	c #496155",
":.	c #9DC79E",
"<.	c #4F764D",
"[.	c #001000",
"}.	c #1F371F",
"|.	c #93B493",
"1.	c #748E6E",
"2.	c #1B2912",
"3.	c #000D00",
"4.	c #0F2707",
"5.	c #395F3A",
"6.	c #89B392",
"7.	c #7CA486",
"8.	c #516D5D",
"9.	c #182822",
"0.	c #10190F",
"a.	c #001208",
"b.	c #000607",
"c.	c #18200D",
"d.	c #5C633B",
"e.	c #626B3A",
"f.	c #4D634C",
"g.	c #3D5A50",
"h.	c #3E5542",
"i.	c #576947",
"j.	c #8B9B73",
"k.	c #6E8061",
"l.	c #2A3B29",
"m.	c #0D1812",
"n.	c #000F09",
"o.	c #1C2913",
"p.	c #4C6147",
"q.	c #4F5E45",
"r.	c #4E5A39",
"s.	c #798264",
"t.	c #7B8C7A",
"u.	c #63807A",
"v.	c #597A7E",
"w.	c #557373",
"x.	c #222F24",
"y.	c #130E07",
"z.	c #1F1309",
"A.	c #201B06",
"B.	c #131D04",
"C.	c #0E2508",
"D.	c #051C06",
"E.	c #071E0C",
"F.	c #07160A",
"G.	c #000300",
"H.	c #222C21",
"I.	c #4C5E4F",
"J.	c #3B5140",
"K.	c #4F5E46",
"L.	c #7A8562",
"M.	c #889770",
"N.	c #7D8E6F",
"O.	c #5D6E6A",
"P.	c #223628",
"Q.	c #071901",
"R.	c #091B0B",
"S.	c #203527",
"T.	c #4E6F46",
"U.	c #1A3C09",
"V.	c #536F49",
"W.	c #5D7E5A",
"X.	c #537652",
"Y.	c #102C12",
"Z.	c #16240C",
"`.	c #8AA380",
" +	c #8CB08D",
".+	c #486F51",
"++	c #18351F",
"@+	c #000801",
"#+	c #000909",
"$+	c #000601",
"%+	c #2B3F35",
"&+	c #657C6F",
"*+	c #556960",
"=+	c #57665F",
"-+	c #3F4B3E",
";+	c #364028",
">+	c #767E56",
",+	c #7E8752",
"'+	c #6C816A",
")+	c #59706F",
"!+	c #62726D",
"~+	c #3F4E3A",
"{+	c #081600",
"]+	c #031700",
"^+	c #000C00",
"/+	c #000502",
"(+	c #122824",
"_+	c #536A50",
":+	c #859D77",
"<+	c #92AD99",
"[+	c #647864",
"}+	c #566046",
"|+	c #22260D",
"1+	c #030A00",
"2+	c #00120A",
"3+	c #00130F",
"4+	c #00100C",
"5+	c #040600",
"6+	c #000905",
"7+	c #030608",
"8+	c #4D5345",
"9+	c #6D7756",
"0+	c #607047",
"a+	c #576A48",
"b+	c #627861",
"c+	c #6B8675",
"d+	c #5C7763",
"e+	c #4D5D4A",
"f+	c #111E05",
"g+	c #041400",
"h+	c #001300",
"i+	c #08190D",
"j+	c #3E553B",
"k+	c #637E51",
"l+	c #4E6650",
"m+	c #556B5A",
"n+	c #173209",
"o+	c #89A77A",
"p+	c #89AD8D",
"q+	c #183316",
"r+	c #102703",
"s+	c #5F7A4F",
"t+	c #657F60",
"u+	c #506554",
"v+	c #24352A",
"w+	c #000600",
"x+	c #000E00",
"y+	c #173316",
"z+	c #688168",
"A+	c #5E775B",
"B+	c #5C7659",
"C+	c #556A54",
"D+	c #546655",
"E+	c #536258",
"F+	c #37413B",
"G+	c #020B02",
"H+	c #000704",
"I+	c #060D0E",
"J+	c #0D1310",
"K+	c #071006",
"L+	c #465A3E",
"M+	c #769576",
"N+	c #5F8369",
"O+	c #53775F",
"P+	c #4F7356",
"Q+	c #47674F",
"R+	c #19312F",
"S+	c #050B03",
"T+	c #030600",
"U+	c #091408",
"V+	c #051306",
"W+	c #0C1C0C",
"X+	c #54674C",
"Y+	c #8A966E",
"Z+	c #728A63",
"`+	c #567963",
" @	c #67777E",
".@	c #313442",
"+@	c #494744",
"@@	c #707756",
"#@	c #5A6A3B",
"$@	c #496038",
"%@	c #1D351B",
"&@	c #010E02",
"*@	c #212F1F",
"=@	c #6B7D61",
"-@	c #728761",
";@	c #5E735F",
">@	c #556C4C",
",@	c #556F41",
"'@	c #4E644D",
")@	c #2E432F",
"!@	c #7E9771",
"~@	c #85A182",
"{@	c #143319",
"]@	c #051402",
"^@	c #6A7E55",
"/@	c #9AAF7D",
"(@	c #94B184",
"_@	c #29482C",
":@	c #152117",
"<@	c #6A8769",
"[@	c #84A487",
"}@	c #899F8E",
"|@	c #445D48",
"1@	c #1A2C18",
"2@	c #151F12",
"3@	c #171D14",
"4@	c #171E13",
"5@	c #112216",
"6@	c #1A3525",
"7@	c #718A76",
"8@	c #7D9180",
"9@	c #6E7E73",
"0@	c #5A6E64",
"a@	c #475F49",
"b@	c #3E5839",
"c@	c #2E4629",
"d@	c #0F1B07",
"e@	c #191D0F",
"f@	c #3B3E28",
"g@	c #89927F",
"h@	c #7A897B",
"i@	c #667A6D",
"j@	c #536557",
"k@	c #4A5947",
"l@	c #3B523B",
"m@	c #2F4D39",
"n@	c #344648",
"o@	c #101625",
"p@	c #0C2204",
"q@	c #13280E",
"r@	c #132714",
"s@	c #5F7260",
"t@	c #8A9E82",
"u@	c #627558",
"v@	c #4A5C45",
"w@	c #3A4A37",
"x@	c #34463F",
"y@	c #17281F",
"z@	c #0E200E",
"A@	c #061409",
"B@	c #2D4427",
"C@	c #435B3D",
"D@	c #041B04",
"E@	c #041D00",
"F@	c #6A8D63",
"G@	c #99BC96",
"H@	c #4C6A46",
"I@	c #172B0F",
"J@	c #071805",
"K@	c #233824",
"L@	c #5F7662",
"M@	c #94A794",
"N@	c #4B5E52",
"O@	c #162C25",
"P@	c #000700",
"Q@	c #132716",
"R@	c #283925",
"S@	c #25321D",
"T@	c #3F4E32",
"U@	c #829273",
"V@	c #8F9D7E",
"W@	c #7A886C",
"X@	c #6E8A7C",
"Y@	c #597D68",
"Z@	c #3B5C35",
"`@	c #28431D",
" #	c #203720",
".#	c #00110B",
"+#	c #0E160B",
"@#	c #2E372B",
"##	c #213827",
"$#	c #1D331E",
"%#	c #6C7960",
"&#	c #91977A",
"*#	c #64694F",
"=#	c #3B422E",
"-#	c #394536",
";#	c #233327",
">#	c #000800",
",#	c #243419",
"'#	c #1F3221",
")#	c #1C332D",
"!#	c #193032",
"~#	c #18312C",
"{#	c #3B553E",
"]#	c #839974",
"^#	c #80946D",
"/#	c #6D7C60",
"(#	c #475546",
"_#	c #2B3D2E",
":#	c #192D20",
"<#	c #021404",
"[#	c #162C0E",
"}#	c #667E5C",
"|#	c #879F73",
"1#	c #71886F",
"2#	c #506746",
"3#	c #001400",
"4#	c #263C25",
"5#	c #516943",
"6#	c #82A179",
"7#	c #2E5230",
"8#	c #2D3724",
"9#	c #55664D",
"0#	c #789379",
"a#	c #344E38",
"b#	c #122111",
"c#	c #081D08",
"d#	c #2C4230",
"e#	c #809381",
"f#	c #99AA95",
"g#	c #77886E",
"h#	c #5B6A50",
"i#	c #27341E",
"j#	c #283222",
"k#	c #212A1D",
"l#	c #122516",
"m#	c #0A200B",
"n#	c #0C1E03",
"o#	c #33472B",
"p#	c #334736",
"q#	c #314645",
"r#	c #30484A",
"s#	c #1C2C28",
"t#	c #30402D",
"u#	c #85957F",
"v#	c #788F84",
"w#	c #62776B",
"x#	c #384638",
"y#	c #273120",
"z#	c #101705",
"A#	c #12260E",
"B#	c #374E34",
"C#	c #2D432A",
"D#	c #4F5E40",
"E#	c #929673",
"F#	c #8B9E77",
"G#	c #709275",
"H#	c #638C82",
"I#	c #668B91",
"J#	c #506D6D",
"K#	c #223624",
"L#	c #1F2C11",
"M#	c #192210",
"N#	c #020B00",
"O#	c #1F361E",
"P#	c #263E2C",
"Q#	c #4B6254",
"R#	c #829C78",
"S#	c #6E866B",
"T#	c #2B3F24",
"U#	c #15250A",
"V#	c #1C2A18",
"W#	c #1D3310",
"X#	c #506D58",
"Y#	c #9BB998",
"Z#	c #466043",
"`#	c #0B2106",
" $	c #304226",
".$	c #71866C",
"+$	c #9FB49E",
"@$	c #495A4E",
"#$	c #101911",
"$$	c #000B00",
"%$	c #061B00",
"&$	c #3A562B",
"*$	c #7F9B72",
"=$	c #93AA8D",
"-$	c #71856F",
";$	c #2C3D2A",
">$	c #0D1A0B",
",$	c #101F0D",
"'$	c #000304",
")$	c #263920",
"!$	c #4A5D3F",
"~$	c #444D43",
"{$	c #5C6856",
"]$	c #899880",
"^$	c #859B7F",
"/$	c #69826E",
"($	c #708982",
"_$	c #526763",
":$	c #0A190C",
"<$	c #101F0E",
"[$	c #142419",
"}$	c #091812",
"|$	c #0C1B0B",
"1$	c #46563F",
"2$	c #475940",
"3$	c #8EA586",
"4$	c #96B291",
"5$	c #658562",
"6$	c #536344",
"7$	c #24240D",
"8$	c #112008",
"9$	c #071D04",
"0$	c #011E0D",
"a$	c #011E1F",
"b$	c #001A1F",
"c$	c #1F2C19",
"d$	c #4C543F",
"e$	c #4E5641",
"f$	c #758E67",
"g$	c #6F8F72",
"h$	c #3B5645",
"i$	c #071C05",
"j$	c #0C1F0D",
"k$	c #2F4233",
"l$	c #455446",
"m$	c #344337",
"n$	c #526940",
"o$	c #A4BDA7",
"p$	c #466244",
"q$	c #4D5937",
"r$	c #A9BC90",
"s$	c #7A9771",
"t$	c #385742",
"u$	c #03100E",
"v$	c #070D03",
"w$	c #081502",
"x$	c #648456",
"y$	c #9FC094",
"z$	c #6A8466",
"A$	c #2D4331",
"B$	c #000D03",
"C$	c #22331B",
"D$	c #657760",
"E$	c #5F735F",
"F$	c #92B58E",
"G$	c #739B75",
"H$	c #527060",
"I$	c #334844",
"J$	c #001005",
"K$	c #021600",
"L$	c #051800",
"M$	c #091705",
"N$	c #080B00",
"O$	c #070000",
"P$	c #030000",
"Q$	c #001200",
"R$	c #4A6446",
"S$	c #5B765D",
"T$	c #77917B",
"U$	c #96AD99",
"V$	c #617763",
"W$	c #566E5A",
"X$	c #102A17",
"Y$	c #001504",
"Z$	c #001606",
"`$	c #344225",
" %	c #6D7C52",
".%	c #627450",
"+%	c #5B715C",
"@%	c #4F675F",
"#%	c #526964",
"$%	c #5D7064",
"%%	c #76836A",
"&%	c #596344",
"*%	c #122D0D",
"=%	c #1A3327",
"-%	c #5A764F",
";%	c #677D5C",
">%	c #6C8063",
",%	c #627561",
"'%	c #3D532B",
")%	c #3A5136",
"!%	c #384630",
"~%	c #6A7F63",
"{%	c #5D7156",
"]%	c #4C5D44",
"^%	c #041502",
"/%	c #051404",
"(%	c #495B44",
"_%	c #6C8060",
":%	c #5D7353",
"<%	c #385335",
"[%	c #000708",
"}%	c #020E09",
"|%	c #172613",
"1%	c #627254",
"2%	c #667851",
"3%	c #627853",
"4%	c #576D4C",
"5%	c #39503F",
"6%	c #091C10",
"7%	c #071705",
"8%	c #071304",
"9%	c #05150B",
"0%	c #031205",
"a%	c #0E1E09",
"b%	c #6B7751",
"c%	c #8A8D60",
"d%	c #85885C",
"e%	c #6F7D5F",
"f%	c #5B7356",
"g%	c #5E7863",
"h%	c #4F6B5A",
"i%	c #496755",
"j%	c #223E29",
"k%	c #021103",
"l%	c #001800",
"m%	c #4C6A4A",
"n%	c #6F8E6F",
"o%	c #587B67",
"p%	c #2A483D",
"q%	c #313D2C",
"r%	c #737058",
"s%	c #7A7552",
"t%	c #676D4A",
"u%	c #50634E",
"v%	c #4F6A66",
"w%	c #1B3332",
"x%	c #020E00",
"y%	c #0E2D07",
"z%	c #5A7960",
"A%	c #839E91",
"B%	c #91AE87",
"C%	c #536A48",
"D%	c #0F1E09",
"E%	c #010E01",
"F%	c #283E15",
"G%	c #2E4431",
"H%	c #9AAA8F",
"I%	c #73886E",
"J%	c #0D200F",
"K%	c #020D03",
"L%	c #0F170B",
"M%	c #3D4F34",
"N%	c #708769",
"O%	c #536951",
"P%	c #3C473A",
"Q%	c #000D01",
"R%	c #021201",
"S%	c #162817",
"T%	c #637564",
"U%	c #6E7D6A",
"V%	c #55664E",
"W%	c #253A1D",
"X%	c #031606",
"Y%	c #101D0D",
"Z%	c #2B3F1D",
"`%	c #7A8E64",
" &	c #73876A",
".&	c #6B7D74",
"+&	c #5A6B6B",
"@&	c #1D2E25",
"#&	c #424F37",
"$&	c #606942",
"%&	c #525A36",
"&&	c #46533A",
"*&	c #344A32",
"=&	c #0B220A",
"-&	c #081F0B",
";&	c #06200A",
">&	c #335535",
",&	c #6F906E",
"'&	c #5B785B",
")&	c #4E6A50",
"!&	c #3D5639",
"~&	c #3B5D47",
"{&	c #234436",
"]&	c #151F0B",
"^&	c #1A1000",
"/&	c #231500",
"(&	c #181800",
"_&	c #0B1C02",
":&	c #082717",
"<&	c #05261C",
"[&	c #4A6550",
"}&	c #899A73",
"|&	c #677C56",
"1&	c #435B44",
"2&	c #38533C",
"3&	c #17370F",
"4&	c #082607",
"5&	c #0B280D",
"6&	c #56725D",
"7&	c #6E8476",
"8&	c #54684A",
"9&	c #2A4642",
"0&	c #4C6860",
"a&	c #2E4330",
"b&	c #0B1B08",
"c&	c #0D1D0B",
"d&	c #374834",
"e&	c #798A72",
"f&	c #5C6C56",
"g&	c #30402A",
"h&	c #0A1808",
"i&	c #010A00",
"j&	c #1A2911",
"k&	c #5F7755",
"l&	c #8DA784",
"m&	c #8BA287",
"n&	c #3C4F41",
"o&	c #021606",
"p&	c #18351C",
"q&	c #769878",
"r&	c #8CAE87",
"s&	c #5C7B4C",
"t&	c #3A542A",
"u&	c #2D4525",
"v&	c #243528",
"w&	c #252F31",
"x&	c #00070F",
"y&	c #172309",
"z&	c #18280F",
"A&	c #1C3215",
"B&	c #67845F",
"C&	c #82A480",
"D&	c #638864",
"E&	c #476D44",
"F&	c #1F441F",
"G&	c #36543A",
"H&	c #243C29",
"I&	c #192C1D",
"J&	c #011808",
"K&	c #2E442D",
"L&	c #9CA47C",
"M&	c #A3A066",
"N&	c #9F9B5B",
"O&	c #9DA66E",
"P&	c #809E78",
"Q&	c #5E8B72",
"R&	c #66927D",
"S&	c #3E5D45",
"T&	c #283B23",
"U&	c #25331E",
"V&	c #1A2913",
"W&	c #152D0C",
"X&	c #3F6035",
"Y&	c #749C6F",
"Z&	c #658D6A",
"`&	c #2F503B",
" *	c #1D3726",
".*	c #1C2E1C",
"+*	c #637F77",
"@*	c #0F212C",
"#*	c #293A23",
"$*	c #96AC86",
"%*	c #6D8060",
"&*	c #293B26",
"**	c #0F1A12",
"=*	c #27341B",
"-*	c #606D4C",
";*	c #A5B897",
">*	c #90A78C",
",*	c #4B624D",
"'*	c #112519",
")*	c #04110F",
"!*	c #273528",
"~*	c #6D866E",
"{*	c #8DAF8C",
"]*	c #6B8F73",
"^*	c #375A3D",
"/*	c #092205",
"(*	c #081A00",
"_*	c #2E3B2A",
":*	c #353F39",
"<*	c #303A38",
"[*	c #2B3A2E",
"}*	c #475B3E",
"|*	c #8EA57D",
"1*	c #819777",
"2*	c #5B725C",
"3*	c #263F2A",
"4*	c #1D3D15",
"5*	c #406835",
"6*	c #385D3A",
"7*	c #1F4124",
"8*	c #587958",
"9*	c #819E78",
"0*	c #6E8471",
"a*	c #435647",
"b*	c #0D1E07",
"c*	c #1E2913",
"d*	c #242B11",
"e*	c #253212",
"f*	c #1F351B",
"g*	c #183321",
"h*	c #092A1C",
"i*	c #123420",
"j*	c #1F3A20",
"k*	c #28351F",
"l*	c #395133",
"m*	c #9BB494",
"n*	c #849E78",
"o*	c #415B35",
"p*	c #132912",
"q*	c #102813",
"r*	c #233726",
"s*	c #2A3C2D",
"t*	c #465A41",
"u*	c #0F2A19",
"v*	c #132419",
"w*	c #3B4E3A",
"x*	c #6E816B",
"y*	c #758A6F",
"z*	c #1B2E16",
"A*	c #2B3928",
"B*	c #536150",
"C*	c #9DAB8D",
"D*	c #95A57D",
"E*	c #53654D",
"F*	c #0B1F16",
"G*	c #000D06",
"H*	c #334526",
"I*	c #6D8258",
"J*	c #9FB791",
"K*	c #778E7B",
"L*	c #354E4A",
"M*	c #031410",
"N*	c #001303",
"O*	c #31472F",
"P*	c #3F5F38",
"Q*	c #698D61",
"R*	c #9BBD9A",
"S*	c #77957D",
"T*	c #6C8571",
"U*	c #687B65",
"V*	c #4B5B39",
"W*	c #112206",
"X*	c #091C07",
"Y*	c #3C573E",
"Z*	c #385639",
"`*	c #50724C",
" =	c #92BA8D",
".=	c #6C926A",
"+=	c #50764E",
"@=	c #274924",
"#=	c #112D0E",
"$=	c #496347",
"%=	c #576A4F",
"&=	c #404A32",
"*=	c #394736",
"==	c #32483E",
"-=	c #2D4D47",
";=	c #2D5250",
">=	c #254847",
",=	c #294D46",
"'=	c #2F4E3A",
")=	c #5D7656",
"!=	c #899E73",
"~=	c #739174",
"{=	c #4C6D53",
"]=	c #0C2706",
"^=	c #243910",
"/=	c #43502C",
"(=	c #3D4926",
"_=	c #7A8868",
":=	c #849578",
"<=	c #485F42",
"[=	c #12280D",
"}=	c #879E82",
"|=	c #8CA18D",
"1=	c #1C2D20",
"2=	c #010D02",
"3=	c #172911",
"4=	c #5B6F4D",
"5=	c #596B4A",
"6=	c #62745B",
"7=	c #6B796B",
"8=	c #556254",
"9=	c #0F1C08",
"0=	c #2B472A",
"a=	c #6B865D",
"b=	c #A6C08C",
"c=	c #809764",
"d=	c #3F5531",
"e=	c #011608",
"f=	c #00070A",
"g=	c #2C4745",
"h=	c #678271",
"i=	c #A3C1A2",
"j=	c #6B8A5F",
"k=	c #59784B",
"l=	c #2A4720",
"m=	c #132E0F",
"n=	c #57734F",
"o=	c #4F6D48",
"p=	c #3E5B45",
"q=	c #5C7D5D",
"r=	c #6C9069",
"s=	c #597E5C",
"t=	c #3C623E",
"u=	c #274D1D",
"v=	c #5D844F",
"w=	c #44683F",
"x=	c #476649",
"y=	c #62815C",
"z=	c #758A64",
"A=	c #717C60",
"B=	c #6A7E6E",
"C=	c #597877",
"D=	c #527A84",
"E=	c #527C87",
"F=	c #507679",
"G=	c #55756E",
"H=	c #5A755F",
"I=	c #263D1D",
"J=	c #0A2B07",
"K=	c #517350",
"L=	c #516D46",
"M=	c #5C704A",
"N=	c #7D8B65",
"O=	c #646D4E",
"P=	c #172106",
"Q=	c #011000",
"R=	c #1F3612",
"S=	c #0F2308",
"T=	c #84A070",
"U=	c #97AF93",
"V=	c #1E3322",
"W=	c #132312",
"X=	c #83967C",
"Y=	c #A1B595",
"Z=	c #5D7052",
"`=	c #1E2F18",
" -	c #2A3F29",
".-	c #63805C",
"+-	c #8FAE81",
"@-	c #819D6D",
"#-	c #3A5229",
"$-	c #031600",
"%-	c #344B3A",
"&-	c #628072",
"*-	c #517462",
"=-	c #4F6F5C",
"--	c #315031",
";-	c #041C00",
">-	c #41582F",
",-	c #6F8766",
"'-	c #5C785A",
")-	c #507053",
"!-	c #567C5C",
"~-	c #4C7054",
"{-	c #466A54",
"]-	c #163418",
"^-	c #062606",
"/-	c #4D744E",
"(-	c #567B55",
"_-	c #4D7343",
":-	c #5C824E",
"<-	c #53784C",
"[-	c #416340",
"}-	c #0B2C09",
"|-	c #011200",
"1-	c #011408",
"2-	c #001112",
"3-	c #00101A",
"4-	c #000D14",
"5-	c #000705",
"6-	c #768669",
"7-	c #6C8463",
"8-	c #5C7859",
"9-	c #537048",
"0-	c #5E7A50",
"a-	c #5F7954",
"b-	c #28401E",
"c-	c #021500",
"d-	c #53664B",
"e-	c #778B6F",
"f-	c #576A4D",
"g-	c #5B7249",
"h-	c #869E75",
"i-	c #92AB89",
"j-	c #23352C",
"k-	c #11240F",
"l-	c #637B5A",
"m-	c #6A7F5F",
"n-	c #4E6248",
"o-	c #1A2B1B",
"p-	c #031400",
"q-	c #0D1D06",
"r-	c #263819",
"s-	c #6D7F5C",
"t-	c #5D7652",
"u-	c #456145",
"v-	c #2F4D30",
"w-	c #0B270B",
"x-	c #031603",
"y-	c #2B3E23",
"z-	c #6C8163",
"A-	c #5B7555",
"B-	c #3B563C",
"C-	c #081C09",
"D-	c #010D00",
"E-	c #26401F",
"F-	c #779C6E",
"G-	c #648E5D",
"H-	c #82B080",
"I-	c #669369",
"J-	c #325636",
"K-	c #28472E",
"L-	c #091E0E",
"M-	c #031506",
"N-	c #365B3D",
"O-	c #5C8168",
"P-	c #4D7055",
"Q-	c #45693E",
"R-	c #4D723E",
"S-	c #26481E",
"T-	c #456641",
"U-	c #7A9C71",
"V-	c #698E5E",
"W-	c #5C7F5B",
"X-	c #5F795F",
"Y-	c #334732",
"Z-	c #252414",
"`-	c #545E40",
" ;	c #435E3E",
".;	c #3E6643",
"+;	c #40573C",
"@;	c #0F1F06",
"#;	c #021800",
"$;	c #32512C",
"%;	c #688E5C",
"&;	c #8AB17B",
"*;	c #618652",
"=;	c #3B592D",
"-;	c #374B27",
";;	c #90A787",
">;	c #1E3521",
",;	c #000901",
"';	c #06190F",
");	c #718973",
"!;	c #A2B89B",
"~;	c #344B2D",
"{;	c #22351E",
"];	c #71846A",
"^;	c #95A987",
"/;	c #607255",
"(;	c #475843",
"_;	c #12270C",
":;	c #113407",
"<;	c #77946C",
"[;	c #8DA290",
"};	c #5D6C65",
"|;	c #354738",
"1;	c #102B0C",
"2;	c #072A00",
"3;	c #224419",
"4;	c #62865E",
"5;	c #82A67B",
"6;	c #74946A",
"7;	c #2A461F",
"8;	c #203B18",
"9;	c #0F2C0B",
"0;	c #082509",
"a;	c #22412B",
"b;	c #6C917D",
"c;	c #618873",
"d;	c #406949",
"e;	c #385F42",
"f;	c #375B3D",
"g;	c #24471D",
"h;	c #789969",
"i;	c #74916A",
"j;	c #7F9D7A",
"k;	c #5C7A55",
"l;	c #2E4A25",
"m;	c #264627",
"n;	c #48654C",
"o;	c #374E36",
"p;	c #272A14",
"q;	c #2C2811",
"r;	c #2E2311",
"s;	c #332811",
"t;	c #29280C",
"u;	c #152204",
"v;	c #0A2809",
"w;	c #0A3112",
"x;	c #6C815B",
"y;	c #87966F",
"z;	c #66815D",
"A;	c #476847",
"B;	c #1D4625",
"C;	c #32613C",
"D;	c #0D3812",
"E;	c #20431D",
"F;	c #7E9571",
"G;	c #0C1E0C",
"H;	c #051907",
"I;	c #5D7464",
"J;	c #8DA396",
"K;	c #2E4435",
"L;	c #071305",
"M;	c #657C57",
"N;	c #9EB48D",
"O;	c #8FA682",
"P;	c #485A42",
"Q;	c #122012",
"R;	c #1F331D",
"S;	c #678959",
"T;	c #9FC48B",
"U;	c #83A270",
"V;	c #374E30",
"W;	c #172816",
"X;	c #1C2C18",
"Y;	c #647E5E",
"Z;	c #9CBD91",
"`;	c #65895C",
" >	c #2B4C27",
".>	c #163214",
"+>	c #112F0E",
"@>	c #223E22",
"#>	c #1B341C",
"$>	c #658264",
"%>	c #79977B",
"&>	c #607E66",
"*>	c #182F21",
"=>	c #294A35",
"->	c #2E583A",
";>	c #759E74",
">>	c #8BB085",
",>	c #567551",
"'>	c #253E21",
")>	c #364E29",
"!>	c #445F36",
"~>	c #274025",
"{>	c #17291E",
"]>	c #2B4831",
"^>	c #759176",
"/>	c #8EA182",
"(>	c #979F7A",
"_>	c #A19C6F",
":>	c #A6986A",
"<>	c #A69A6D",
"[>	c #9E9B72",
"}>	c #969F7A",
"|>	c #819674",
"1>	c #688866",
"2>	c #597D59",
"3>	c #2F4921",
"4>	c #233813",
"5>	c #446040",
"6>	c #35543A",
"7>	c #193B1F",
"8>	c #548261",
"9>	c #709B76",
"0>	c #4F724E",
"a>	c #263F20",
"b>	c #021506",
"c>	c #354B38",
"d>	c #4C644F",
"e>	c #3B5442",
"f>	c #0C2015",
"g>	c #000F04",
"h>	c #314433",
"i>	c #506748",
"j>	c #839C72",
"k>	c #4E653A",
"l>	c #0F2105",
"m>	c #2B3D21",
"n>	c #6C865E",
"o>	c #95B38E",
"p>	c #719373",
"q>	c #305133",
"r>	c #001C00",
"s>	c #334E26",
"t>	c #536A3E",
"u>	c #728A5D",
"v>	c #738F68",
"w>	c #2D4B2C",
"x>	c #092405",
"y>	c #2E482B",
"z>	c #2E4831",
"A>	c #4B6B54",
"B>	c #668974",
"C>	c #5E836B",
"D>	c #25492C",
"E>	c #051E06",
"F>	c #142D11",
"G>	c #394D33",
"H>	c #50694E",
"I>	c #69916E",
"J>	c #5C8658",
"K>	c #2C4F20",
"L>	c #3F5A37",
"M>	c #3F5439",
"N>	c #516642",
"O>	c #7D946E",
"P>	c #6F866F",
"Q>	c #688478",
"R>	c #537061",
"S>	c #1A321A",
"T>	c #152209",
"U>	c #1D1E02",
"V>	c #241A00",
"W>	c #2C2000",
"X>	c #1C1A01",
"Y>	c #101D03",
"Z>	c #0D290B",
"`>	c #09260B",
" ,	c #3C5B38",
".,	c #5A774C",
"+,	c #2D4D25",
"@,	c #507351",
"#,	c #8FAF92",
"$,	c #72947B",
"%,	c #55785B",
"&,	c #1D3F1C",
"*,	c #0F320C",
"=,	c #41603D",
"-,	c #39563E",
";,	c #68806B",
">,	c #9FB6A8",
",,	c #394E46",
"',	c #000A01",
"),	c #4F664A",
"!,	c #A3BB9D",
"~,	c #4F684B",
"{,	c #071A03",
"],	c #506544",
"^,	c #ADC894",
"/,	c #83A065",
"(,	c #39572D",
"_,	c #011D04",
":,	c #2C4A39",
"<,	c #4B6456",
"[,	c #6D846D",
"},	c #495E3A",
"|,	c #001700",
"1,	c #284516",
"2,	c #50713F",
"3,	c #41633C",
"4,	c #628266",
"5,	c #6C8874",
"6,	c #3D584A",
"7,	c #00170B",
"8,	c #021809",
"9,	c #345038",
"0,	c #516D4E",
"a,	c #4E6C45",
"b,	c #6B895F",
"c,	c #315027",
"d,	c #001E00",
"e,	c #264F2A",
"f,	c #597B57",
"g,	c #9AB78D",
"h,	c #768F65",
"i,	c #3A4D30",
"j,	c #021601",
"k,	c #081E0C",
"l,	c #000F07",
"m,	c #112610",
"n,	c #586134",
"o,	c #6F6B3D",
"p,	c #6B5F32",
"q,	c #6D6532",
"r,	c #60663B",
"s,	c #4C6749",
"t,	c #335D48",
"u,	c #39644C",
"v,	c #577754",
"w,	c #778E62",
"x,	c #6F9664",
"y,	c #5F8C5E",
"z,	c #365B3B",
"A,	c #001500",
"B,	c #385342",
"C,	c #506855",
"D,	c #465E45",
"E,	c #6B866A",
"F,	c #6D8D76",
"G,	c #A9C0A6",
"H,	c #3C5040",
"I,	c #011100",
"J,	c #4C5F42",
"K,	c #AAC0A1",
"L,	c #567056",
"M,	c #081D0D",
"N,	c #384B31",
"O,	c #657A57",
"P,	c #607957",
"Q,	c #44603F",
"R,	c #204015",
"S,	c #59754C",
"T,	c #597650",
"U,	c #546C4D",
"V,	c #071A00",
"W,	c #1C3007",
"X,	c #647E4A",
"Y,	c #91AE76",
"Z,	c #91AF7C",
"`,	c #4D6644",
" '	c #0B1F08",
".'	c #010D01",
"+'	c #2B3F2C",
"@'	c #5A725C",
"#'	c #90B194",
"$'	c #7B9E7A",
"%'	c #35552D",
"&'	c #011500",
"*'	c #2F4625",
"='	c #588161",
"-'	c #88B497",
";'	c #6D9475",
">'	c #395C37",
",'	c #001900",
"''	c #284225",
")'	c #607D60",
"!'	c #557259",
"~'	c #506D59",
"{'	c #3B574B",
"]'	c #203920",
"^'	c #6D764F",
"/'	c #7F7E5B",
"('	c #7E794A",
"_'	c #787542",
":'	c #717851",
"<'	c #617461",
"['	c #516E63",
"}'	c #4C715D",
"|'	c #1B3C24",
"1'	c #122C0C",
"2'	c #597C4A",
"3'	c #5D8553",
"4'	c #46704A",
"5'	c #49725F",
"6'	c #55756A",
"7'	c #3D5D49",
"8'	c #0A220A",
"9'	c #001600",
"0'	c #2F422D",
"a'	c #3F5334",
"b'	c #718A6D",
"c'	c #537155",
"d'	c #3B543D",
"e'	c #061704",
"f'	c #061000",
"g'	c #3C5139",
"h'	c #9AB69C",
"i'	c #6C876D",
"j'	c #011400",
"k'	c #1F3D1E",
"l'	c #93B291",
"m'	c #76926F",
"n'	c #0B2100",
"o'	c #6E8453",
"p'	c #9AB182",
"q'	c #8FA879",
"r'	c #4A6437",
"s'	c #0D2503",
"t'	c #040E00",
"u'	c #252E18",
"v'	c #6F8064",
"w'	c #728C71",
"x'	c #557359",
"y'	c #47664B",
"z'	c #395439",
"A'	c #1D3514",
"B'	c #799168",
"C'	c #96B58A",
"D'	c #6B9672",
"E'	c #295231",
"F'	c #002501",
"G'	c #143714",
"H'	c #668765",
"I'	c #8CAB89",
"J'	c #809F82",
"K'	c #3F5E48",
"L'	c #3A5A4B",
"M'	c #2F4F44",
"N'	c #040000",
"O'	c #111000",
"P'	c #0A1100",
"Q'	c #0C1A08",
"R'	c #081C0B",
"S'	c #345735",
"T'	c #769D74",
"U'	c #6A8E78",
"V'	c #5D765E",
"W'	c #4A623F",
"X'	c #3F6136",
"Y'	c #3E6738",
"Z'	c #214422",
"`'	c #001502",
" )	c #112D19",
".)	c #698460",
"+)	c #74926B",
"@)	c #3E5736",
"#)	c #A6BA95",
"$)	c #6D866A",
"%)	c #081F10",
"&)	c #2B3C23",
"*)	c #899B79",
"=)	c #5A7055",
"-)	c #2F4A3A",
";)	c #001806",
">)	c #203219",
",)	c #657E5F",
"')	c #324637",
"))	c #0F2615",
"!)	c #0F220D",
"~)	c #6D875C",
"{)	c #98B585",
"])	c #4B6143",
"^)	c #0D230C",
"/)	c #182E0F",
"()	c #6D7656",
"_)	c #737B60",
":)	c #4B5F43",
"<)	c #3C5841",
"[)	c #14331C",
"})	c #011801",
"|)	c #23361E",
"1)	c #839A75",
"2)	c #8DA77F",
"3)	c #314F2B",
"4)	c #082E09",
"5)	c #0E3310",
"6)	c #5C7F5C",
"7)	c #61825F",
"8)	c #375234",
"9)	c #2C452A",
"0)	c #071D08",
"a)	c #011402",
"b)	c #0D250F",
"c)	c #0D2613",
"d)	c #0D2219",
"e)	c #12252A",
"f)	c #15202C",
"g)	c #0E140F",
"h)	c #666C4C",
"i)	c #97A27A",
"j)	c #819278",
"k)	c #688061",
"l)	c #496736",
"m)	c #365724",
"n)	c #36522A",
"o)	c #345437",
"p)	c #112E20",
"q)	c #39562C",
"r)	c #86A06B",
"s)	c #7A8C6B",
"t)	c #687560",
"u)	c #40542F",
"v)	c #2A4B20",
"w)	c #395134",
"x)	c #86A083",
"y)	c #638262",
"z)	c #364830",
"A)	c #95B298",
"B)	c #77987E",
"C)	c #112911",
"D)	c #1D2A13",
"E)	c #8BA786",
"F)	c #8CA58B",
"G)	c #202D1C",
"H)	c #677F65",
"I)	c #87A488",
"J)	c #365339",
"K)	c #132712",
"L)	c #19321A",
"M)	c #778975",
"N)	c #42563D",
"O)	c #21311C",
"P)	c #0C180A",
"Q)	c #2E4531",
"R)	c #789B80",
"S)	c #6B9170",
"T)	c #284726",
"U)	c #0A1803",
"V)	c #6C8A6F",
"W)	c #7B9A81",
"X)	c #335138",
"Y)	c #152416",
"Z)	c #20341F",
"`)	c #22371D",
" !	c #5F7656",
".!	c #91A982",
"+!	c #80986D",
"@!	c #668A72",
"#!	c #598789",
"$!	c #61868A",
"%!	c #274136",
"&!	c #182C14",
"*!	c #2B3A21",
"=!	c #2A3725",
"-!	c #324322",
";!	c #445625",
">!	c #283514",
",!	c #2A3512",
"'!	c #6B8A65",
")!	c #769D90",
"!!	c #688981",
"~!	c #476942",
"{!	c #253B15",
"]!	c #29371A",
"^!	c #282F1F",
"/!	c #283117",
"(!	c #263B17",
"_!	c #65805B",
":!	c #1A321C",
"<!	c #011803",
"[!	c #142A0E",
"}!	c #3C5630",
"|!	c #708868",
"1!	c #728A76",
"2!	c #061C0E",
"3!	c #1E3516",
"4!	c #93AC85",
"5!	c #90A88E",
"6!	c #162518",
"7!	c #748469",
"8!	c #A1B998",
"9!	c #36553A",
"0!	c #4A6C52",
"a!	c #98B497",
"b!	c #435743",
"c!	c #14201A",
"d!	c #0B1809",
"e!	c #344834",
"f!	c #506652",
"g!	c #76907B",
"h!	c #728D73",
"i!	c #233C22",
"j!	c #2A4123",
"k!	c #5B744C",
"l!	c #83A26F",
"m!	c #2D4A1C",
"n!	c #223D16",
"o!	c #3D5037",
"p!	c #50644E",
"q!	c #788B77",
"r!	c #73846F",
"s!	c #374732",
"t!	c #101E0C",
"u!	c #102304",
"v!	c #0A240D",
"w!	c #05231A",
"x!	c #0C2419",
"y!	c #031404",
"z!	c #243418",
"A!	c #3F5134",
"B!	c #293F27",
"C!	c #4B684A",
"D!	c #7B9974",
"E!	c #81A070",
"F!	c #6A8358",
"G!	c #273012",
"H!	c #161A0B",
"I!	c #0E1B15",
"J!	c #233A1F",
"K!	c #364F30",
"L!	c #2F4731",
"M!	c #364B44",
"N!	c #789172",
"O!	c #89AA71",
"P!	c #0E230B",
"Q!	c #1E3015",
"R!	c #8EA688",
"S!	c #7F9E7E",
"T!	c #163015",
"U!	c #0F1D0B",
"V!	c #455A42",
"W!	c #5F7C60",
"X!	c #698768",
"Y!	c #1B3116",
"Z!	c #061300",
"`!	c #777F67",
" ~	c #A7B59B",
".~	c #374C33",
"+~	c #2B4D32",
"@~	c #466B52",
"#~	c #61826D",
"$~	c #445F4D",
"%~	c #001305",
"&~	c #3D4535",
"*~	c #545E49",
"=~	c #576A54",
"-~	c #6B866F",
";~	c #3D5A43",
">~	c #071B08",
",~	c #657B5E",
"'~	c #A1BC9A",
")~	c #385733",
"!~	c #37512A",
"~~	c #9EB695",
"{~	c #889E84",
"]~	c #425541",
"^~	c #0C1D0A",
"/~	c #031300",
"(~	c #384923",
"_~	c #586A3C",
":~	c #4A6741",
"<~	c #43684D",
"[~	c #3E5E3D",
"}~	c #47603C",
"|~	c #677F59",
"1~	c #778E6C",
"2~	c #627D60",
"3~	c #355139",
"4~	c #011403",
"5~	c #0C1E05",
"6~	c #4D562E",
"7~	c #596143",
"8~	c #445542",
"9~	c #536F57",
"0~	c #749678",
"a~	c #698775",
"b~	c #50675E",
"c~	c #152817",
"d~	c #071601",
"e~	c #193413",
"f~	c #89A27B",
"g~	c #89A186",
"h~	c #1D3225",
"i~	c #10240B",
"j~	c #7E9674",
"k~	c #98B095",
"l~	c #243B2A",
"m~	c #071B04",
"n~	c #5C7046",
"o~	c #737E58",
"p~	c #394632",
"q~	c #39563A",
"r~	c #9FC39B",
"s~	c #587D58",
"t~	c #041C07",
"u~	c #000C01",
"v~	c #3C4D36",
"w~	c #A7B69E",
"x~	c #84937F",
"y~	c #435241",
"z~	c #0E1F0D",
"A~	c #3E553D",
"B~	c #5E775A",
"C~	c #627C5D",
"D~	c #354D30",
"E~	c #253E1C",
"F~	c #5C7353",
"G~	c #617958",
"H~	c #586E54",
"I~	c #071B06",
"J~	c #1B2D1B",
"K~	c #637660",
"L~	c #5B6D53",
"M~	c #5E704E",
"N~	c #6B7D50",
"O~	c #738452",
"P~	c #6A875C",
"Q~	c #567F61",
"R~	c #537751",
"S~	c #162F10",
"T~	c #1C361B",
"U~	c #5B785D",
"V~	c #546C59",
"W~	c #556757",
"X~	c #54664C",
"Y~	c #637A51",
"Z~	c #5D7650",
"`~	c #5B775C",
" {	c #284730",
".{	c #001101",
"+{	c #041403",
"@{	c #041101",
"#{	c #010700",
"${	c #000305",
"%{	c #657F62",
"&{	c #5E7C5C",
"*{	c #476946",
"={	c #162D14",
"-{	c #020A00",
";{	c #12200E",
">{	c #759478",
",{	c #90B395",
"'{	c #213820",
"){	c #030F00",
"!{	c #53614A",
"~{	c #738F6F",
"{{	c #3F5934",
"]{	c #031500",
"^{	c #425A39",
"/{	c #9FBC9A",
"({	c #547453",
"_{	c #2F4832",
":{	c #728771",
"<{	c #5B6E57",
"[{	c #051805",
"}{	c #020600",
"|{	c #0D1207",
"1{	c #4C6348",
"2{	c #A1C1A2",
"3{	c #4B6F4E",
"4{	c #273821",
"5{	c #A2B590",
"6{	c #7E9863",
"7{	c #062200",
"8{	c #0E2900",
"9{	c #5C7752",
"0{	c #5F775B",
"a{	c #516750",
"b{	c #4A5E46",
"c{	c #43543B",
"d{	c #101F05",
"e{	c #071406",
"f{	c #000C03",
"g{	c #071201",
"h{	c #505D43",
"i{	c #7E8D78",
"j{	c #6B826A",
"k{	c #50724D",
"l{	c #49734E",
"m{	c #3C6848",
"n{	c #3A6541",
"o{	c #3E6737",
"p{	c #062201",
"q{	c #011503",
"r{	c #051708",
"s{	c #475035",
"t{	c #90956E",
"u{	c #898D6C",
"v{	c #788175",
"w{	c #64787D",
"x{	c #9FB997",
"y{	c #243B28",
"z{	c #618158",
"A{	c #789472",
"B{	c #455746",
"C{	c #1F2B23",
"D{	c #52714B",
"E{	c #ACCAA2",
"F{	c #4F644B",
"G{	c #31492D",
"H{	c #88A575",
"I{	c #597646",
"J{	c #30462A",
"K{	c #011707",
"L{	c #071B0D",
"M{	c #94AE8B",
"N{	c #7B9375",
"O{	c #091A09",
"P{	c #0B2109",
"Q{	c #3B533B",
"R{	c #789473",
"S{	c #51684C",
"T{	c #324328",
"U{	c #0C1D01",
"V{	c #2E4225",
"W{	c #8FAD88",
"X{	c #70916A",
"Y{	c #122D05",
"Z{	c #6A8460",
"`{	c #75916C",
" ]	c #445D41",
".]	c #213B1E",
"+]	c #092406",
"@]	c #041B02",
"#]	c #112609",
"$]	c #6A7D5A",
"%]	c #96A680",
"&]	c #7F9683",
"*]	c #6A8A82",
"=]	c #658166",
"-]	c #496148",
";]	c #3A4D3D",
">]	c #334C36",
",]	c #2D4E25",
"']	c #082407",
")]	c #071F07",
"!]	c #4E6746",
"~]	c #849C68",
"{]	c #7AA17C",
"]]	c #678E86",
"^]	c #6B8B8E",
"/]	c #354C43",
"(]	c #273417",
"_]	c #535734",
":]	c #58543B",
"<]	c #4F4E46",
"[]	c #404B4B",
"}]	c #254024",
"|]	c #10200D",
"1]	c #6C8767",
"2]	c #A0BE9D",
"3]	c #395438",
"4]	c #4C6149",
"5]	c #8EAC8D",
"6]	c #456141",
"7]	c #384F31",
"8]	c #9CBD96",
"9]	c #6A8963",
"0]	c #0F2408",
"a]	c #2C3C2A",
"b]	c #8B9D8C",
"c]	c #697C67",
"d]	c #31462D",
"e]	c #051701",
"f]	c #172614",
"g]	c #34432F",
"h]	c #6D8267",
"i]	c #597153",
"j]	c #2E472C",
"k]	c #1B2D11",
"l]	c #839775",
"m]	c #68805B",
"n]	c #1F3D1D",
"o]	c #123310",
"p]	c #55724D",
"q]	c #8BA884",
"r]	c #395833",
"s]	c #0E280B",
"t]	c #355232",
"u]	c #7E9E7A",
"v]	c #769271",
"w]	c #576F50",
"x]	c #3D5134",
"y]	c #26361D",
"z]	c #243C27",
"A]	c #1F392B",
"B]	c #375D36",
"C]	c #2E4D2C",
"D]	c #162A18",
"E]	c #243D29",
"F]	c #6F8E68",
"G]	c #7B9774",
"H]	c #687C69",
"I]	c #495641",
"J]	c #313C1C",
"K]	c #254122",
"L]	c #1A3A3C",
"M]	c #203450",
"N]	c #0E1E23",
"O]	c #0B2008",
"P]	c #5E7753",
"Q]	c #909F86",
"R]	c #394634",
"S]	c #203D20",
"T]	c #416346",
"U]	c #436248",
"V]	c #122511",
"W]	c #1E3018",
"X]	c #385236",
"Y]	c #749571",
"Z]	c #63895D",
"`]	c #022004",
" ^	c #0D2311",
".^	c #304830",
"+^	c #72856A",
"@^	c #7F9276",
"#^	c #192B18",
"$^	c #0A220E",
"%^	c #314D31",
"&^	c #6B846A",
"*^	c #687D64",
"=^	c #2A3920",
"-^	c #051104",
";^	c #081700",
">^	c #3A512E",
",^	c #92B08A",
"'^	c #81A57E",
")^	c #1E3F17",
"!^	c #1F3C16",
"~^	c #506B43",
"{^	c #47683A",
"]^	c #284A1C",
"^^	c #46693D",
"/^	c #92B88B",
"(^	c #52744B",
"_^	c #082608",
":^	c #10290D",
"<^	c #364E31",
"[^	c #3A4D35",
"}^	c #33452F",
"|^	c #244032",
"1^	c #1D3D32",
"2^	c #4E714A",
"3^	c #86A17B",
"4^	c #798F77",
"5^	c #5F7661",
"6^	c #1B3B17",
"7^	c #0A270B",
"8^	c #0E271D",
"9^	c #25362D",
"0^	c #3A472C",
"a^	c #2F4228",
"b^	c #263D45",
"c^	c #27395F",
"d^	c #2A4352",
"e^	c #2E503D",
"f^	c #314E3E",
"g^	c #334848",
"h^	c #36453A",
"i^	c #41512D",
"j^	c #364D34",
"k^	c #597052",
"l^	c #505944",
"m^	c #111506",
"n^	c #445936",
"o^	c #9EC0A4",
"p^	c #49705D",
"q^	c #001202",
"r^	c #1D3917",
"s^	c #98B08A",
"t^	c #758C77",
"u^	c #102E19",
"v^	c #123014",
"w^	c #819E86",
"x^	c #879F89",
"y^	c #20341E",
"z^	c #0B2208",
"A^	c #365435",
"B^	c #7B9E82",
"C^	c #83A78E",
"D^	c #253E2D",
"E^	c #041202",
"F^	c #112006",
"G^	c #8B9D70",
"H^	c #9FB98D",
"I^	c #65875B",
"J^	c #12380E",
"K^	c #4A6E44",
"L^	c #9EBE92",
"M^	c #395729",
"N^	c #204310",
"O^	c #8CB380",
"P^	c #80AB7B",
"Q^	c #497145",
"R^	c #12360D",
"S^	c #3C5637",
"T^	c #445837",
"U^	c #677857",
"V^	c #829475",
"W^	c #7C916D",
"X^	c #5E8076",
"Y^	c #5D8991",
"Z^	c #2D4D36",
"`^	c #061A00",
" /	c #091703",
"./	c #10250C",
"+/	c #325433",
"@/	c #2F563E",
"#/	c #32534D",
"$/	c #647973",
"%/	c #839175",
"&/	c #688573",
"*/	c #5A7E85",
"=/	c #597E91",
"-/	c #5B848B",
";/	c #5B847E",
">/	c #5C7E7A",
",/	c #627E7B",
"'/	c #667D63",
")/	c #889B62",
"!/	c #A4BD9D",
"~/	c #435644",
"{/	c #080702",
"]/	c #46623A",
"^/	c #A3C1A0",
"//	c #5D7264",
"(/	c #24401C",
"_/	c #89B386",
":/	c #779A76",
"</	c #0C220B",
"[/	c #0A2206",
"}/	c #50704E",
"|/	c #82A385",
"1/	c #89A58E",
"2/	c #213723",
"3/	c #0C1B07",
"4/	c #789171",
"5/	c #99B694",
"6/	c #547559",
"7/	c #203F28",
"8/	c #0E1D0D",
"9/	c #596850",
"0/	c #63744C",
"a/	c #637751",
"b/	c #223F13",
"c/	c #587E53",
"d/	c #9FC498",
"e/	c #3C5C31",
"f/	c #234316",
"g/	c #94B889",
"h/	c #6E9566",
"i/	c #113A0E",
"j/	c #426C43",
"k/	c #799C77",
"l/	c #9CB595",
"m/	c #5C6D52",
"n/	c #293820",
"o/	c #030E00",
"p/	c #011300",
"q/	c #00200E",
"r/	c #00140B",
"s/	c #2A492F",
"t/	c #708167",
"u/	c #566859",
"v/	c #5C7A69",
"w/	c #4C6E61",
"x/	c #4D6D62",
"y/	c #223825",
"z/	c #010F00",
"A/	c #001C10",
"B/	c #001818",
"C/	c #00160F",
"D/	c #00150B",
"E/	c #000E0E",
"F/	c #020D13",
"G/	c #000B04",
"H/	c #071000",
"I/	c #344D2F",
"J/	c #050D04",
"K/	c #465741",
"L/	c #A4C0A1",
"M/	c #58745B",
"N/	c #22351C",
"O/	c #96B488",
"P/	c #83A87C",
"Q/	c #07260A",
"R/	c #071E00",
"S/	c #759264",
"T/	c #99BF99",
"U/	c #456648",
"V/	c #17331B",
"W/	c #566B53",
"X/	c #697E5F",
"Y/	c #576D4D",
"Z/	c #30492A",
"`/	c #4D6653",
" (	c #697D69",
".(	c #5D6E51",
"+(	c #31421C",
"@(	c #3F5B2F",
"#(	c #6E9164",
"$(	c #496F45",
"%(	c #2D5327",
"&(	c #27491D",
"*(	c #658359",
"=(	c #4A6B42",
"-(	c #0C310A",
";(	c #537C56",
">(	c #97BD9B",
",(	c #4F7053",
"'(	c #1C351B",
")(	c #021200",
"!(	c #091406",
"~(	c #5C6C55",
"{(	c #74886E",
"](	c #52765D",
"^(	c #4E7D64",
"/(	c #57775B",
"((	c #5F7154",
"_(	c #536149",
":(	c #3D4E40",
"<(	c #051D17",
"[(	c #00150E",
"}(	c #021C09",
"|(	c #465A38",
"1(	c #7D8B5B",
"2(	c #778A56",
"3(	c #6E835C",
"4(	c #657960",
"5(	c #788F70",
"6(	c #6A8161",
"7(	c #233425",
"8(	c #000606",
"9(	c #0C130E",
"0(	c #080B02",
"a(	c #37522F",
"b(	c #799777",
"c(	c #596D62",
"d(	c #3B4944",
"e(	c #020F00",
"f(	c #1D3713",
"g(	c #87A77C",
"h(	c #809877",
"i(	c #0F210A",
"j(	c #0A2003",
"k(	c #779667",
"l(	c #94BD8D",
"m(	c #254526",
"n(	c #617963",
"o(	c #A9BEA5",
"p(	c #47593D",
"q(	c #081D05",
"r(	c #526B4D",
"s(	c #769178",
"t(	c #4A624E",
"u(	c #324732",
"v(	c #344722",
"w(	c #92A97D",
"x(	c #95B185",
"y(	c #51744A",
"z(	c #163C13",
"A(	c #6D9369",
"B(	c #5C7E53",
"C(	c #1A390F",
"D(	c #43633D",
"E(	c #6C8F6B",
"F(	c #3F6544",
"G(	c #1D4223",
"H(	c #011E05",
"I(	c #37503B",
"J(	c #798A77",
"K(	c #6A7964",
"L(	c #556653",
"M(	c #435642",
"N(	c #304D35",
"O(	c #32553D",
"P(	c #0A2111",
"Q(	c #021100",
"R(	c #0F1F00",
"S(	c #213114",
"T(	c #6D8376",
"U(	c #738D80",
"V(	c #617B60",
"W(	c #5D6F4B",
"X(	c #586041",
"Y(	c #59613A",
"Z(	c #4E5636",
"`(	c #49513A",
" _	c #576243",
"._	c #4B5A36",
"+_	c #18230F",
"@_	c #0F1612",
"#_	c #676B62",
"$_	c #929485",
"%_	c #3A4F36",
"&_	c #A6C39C",
"*_	c #658C63",
"=_	c #02170C",
"-_	c #283625",
";_	c #688556",
">_	c #324F2A",
",_	c #0A1E09",
"'_	c #0D190C",
")_	c #67785E",
"!_	c #8CAF89",
"~_	c #254825",
"{_	c #132C14",
"]_	c #536D57",
"^_	c #97AE98",
"/_	c #445940",
"(_	c #3E4F32",
"__	c #9AB08D",
":_	c #A0B597",
"<_	c #556C53",
"[_	c #102711",
"}_	c #384F2F",
"|_	c #99AE87",
"1_	c #6E855C",
"2_	c #2C481F",
"3_	c #20431C",
"4_	c #6F966E",
"5_	c #81A67E",
"6_	c #17390E",
"7_	c #4F6E44",
"8_	c #A4C49D",
"9_	c #476A45",
"0_	c #042906",
"a_	c #244929",
"b_	c #729478",
"c_	c #59725A",
"d_	c #2B3D2A",
"e_	c #202F1D",
"f_	c #132411",
"g_	c #1A311F",
"h_	c #142A20",
"i_	c #1C312B",
"j_	c #63765B",
"k_	c #94A671",
"l_	c #6B7E4C",
"m_	c #364931",
"n_	c #2D402E",
"o_	c #1E321C",
"p_	c #051200",
"q_	c #000001",
"r_	c #000007",
"s_	c #030505",
"t_	c #272C27",
"u_	c #3E4338",
"v_	c #80997A",
"w_	c #657F64",
"x_	c #0D2912",
"y_	c #2E4C3B",
"z_	c #536C5D",
"A_	c #2C3D26",
"B_	c #10230A",
"C_	c #4D6761",
"D_	c #364D50",
"E_	c #0A2212",
"F_	c #4B694A",
"G_	c #90AF90",
"H_	c #46614A",
"I_	c #112811",
"J_	c #415639",
"K_	c #AAC09B",
"L_	c #728864",
"M_	c #0C1F07",
"N_	c #142B10",
"O_	c #304A33",
"P_	c #6E8A6F",
"Q_	c #5E7756",
"R_	c #132808",
"S_	c #122C05",
"T_	c #749269",
"U_	c #80A47E",
"V_	c #193F1B",
"W_	c #002300",
"X_	c #53754C",
"Y_	c #A7C79C",
"Z_	c #426238",
"`_	c #15380F",
" :	c #84AA82",
".:	c #618962",
"+:	c #1D3C1F",
"@:	c #142710",
"#:	c #34432C",
"$:	c #374B32",
"%:	c #768F70",
"&:	c #7A9A84",
"*:	c #658580",
"=:	c #6E8686",
"-:	c #384B35",
";:	c #20330E",
">:	c #162B00",
",:	c #031304",
"':	c #31442F",
"):	c #324032",
"!:	c #394146",
"~:	c #2C2D31",
"{:	c #0F0E13",
"]:	c #04050A",
"^:	c #030702",
"/:	c #040B01",
"(:	c #272F19",
"_:	c #353D2C",
"::	c #031000",
"<:	c #1A3016",
"[:	c #000E02",
"}:	c #122B0F",
"|:	c #7FA180",
"1:	c #7CA285",
"2:	c #0E2916",
"3:	c #404F31",
"4:	c #50644D",
"5:	c #3A5756",
"6:	c #00111F",
"7:	c #00090B",
"8:	c #546B56",
"9:	c #A8C4A4",
"0:	c #506B4E",
"a:	c #2C4429",
"b:	c #77916D",
"c:	c #5C754E",
"d:	c #162F13",
"e:	c #93AC8D",
"f:	c #769479",
"g:	c #163119",
"h:	c #10270A",
"i:	c #3A5334",
"j:	c #57724A",
"k:	c #75946D",
"l:	c #274D29",
"m:	c #244B28",
"n:	c #3B603C",
"o:	c #75986F",
"p:	c #39582E",
"q:	c #234117",
"r:	c #96B98E",
"s:	c #7DA379",
"t:	c #031E02",
"u:	c #3A5236",
"v:	c #62755A",
"w:	c #8C9E83",
"x:	c #61775A",
"y:	c #1E371B",
"z:	c #081D0A",
"A:	c #03190B",
"B:	c #071711",
"C:	c #253922",
"D:	c #4B5D42",
"E:	c #404F41",
"F:	c #5E6E64",
"G:	c #859785",
"H:	c #6F8372",
"I:	c #6E7D7C",
"J:	c #636D6A",
"K:	c #0F1317",
"L:	c #000307",
"M:	c #010801",
"N:	c #050D00",
"O:	c #59624D",
"P:	c #778079",
"Q:	c #0F1911",
"R:	c #18231B",
"S:	c #1C311A",
"T:	c #8EAA89",
"U:	c #8FA98D",
"V:	c #193119",
"W:	c #5F805C",
"X:	c #9DBCA1",
"Y:	c #344F40",
"Z:	c #010E0D",
"`:	c #364B51",
" <	c #6D847C",
".<	c #445D40",
"+<	c #2D442E",
"@<	c #607761",
"#<	c #496547",
"$<	c #0F260B",
"%<	c #0E2805",
"&<	c #54734B",
"*<	c #5D7B54",
"=<	c #5D785A",
"-<	c #1D3E20",
";<	c #416043",
"><	c #597554",
",<	c #647F5A",
"'<	c #314D26",
")<	c #274723",
"!<	c #597F5D",
"~<	c #90B896",
"{<	c #4F7550",
"]<	c #547249",
"^<	c #5E7B53",
"/<	c #11360F",
"(<	c #3C5D3D",
"_<	c #789979",
":<	c #94AF93",
"<<	c #2F452B",
"[<	c #020B01",
"}<	c #041A00",
"|<	c #142911",
"1<	c #5D7357",
"2<	c #556854",
"3<	c #4C5E4E",
"4<	c #6B7E6C",
"5<	c #6D7E70",
"6<	c #606E66",
"7<	c #37483C",
"8<	c #041005",
"9<	c #031405",
"0<	c #001402",
"a<	c #020E02",
"b<	c #000A03",
"c<	c #000302",
"d<	c #040703",
"e<	c #080F14",
"f<	c #000508",
"g<	c #1D2A28",
"h<	c #617866",
"i<	c #5E7959",
"j<	c #526E4E",
"k<	c #1B2D1A",
"l<	c #668158",
"m<	c #9BC799",
"n<	c #346245",
"o<	c #3D5039",
"p<	c #6D7D63",
"q<	c #465C56",
"r<	c #081B15",
"s<	c #2F462E",
"t<	c #9DB69F",
"u<	c #769279",
"v<	c #0A210A",
"w<	c #082305",
"x<	c #7B9E72",
"y<	c #91B388",
"z<	c #193C14",
"A<	c #4D7151",
"B<	c #9EC2A1",
"C<	c #456541",
"D<	c #2D4924",
"E<	c #98B995",
"F<	c #6A9170",
"G<	c #305938",
"H<	c #193F1D",
"I<	c #7C9E77",
"J<	c #8DAC82",
"K<	c #153110",
"L<	c #608261",
"M<	c #93BA99",
"N<	c #59795D",
"O<	c #1E3621",
"P<	c #526651",
"Q<	c #637E64",
"R<	c #5E765A",
"S<	c #65775A",
"T<	c #5C7051",
"U<	c #4A6047",
"V<	c #112114",
"W<	c #001001",
"X<	c #001705",
"Y<	c #01150A",
"Z<	c #466651",
"`<	c #7C9B73",
" [	c #67805D",
".[	c #5E6F56",
"+[	c #6C7B58",
"@[	c #7F8B62",
"#[	c #7C8269",
"$[	c #20241B",
"%[	c #060E03",
"&[	c #9BB19E",
"*[	c #2C4031",
"=[	c #658254",
"-[	c #9ABE90",
";[	c #355938",
">[	c #345730",
",[	c #A0C698",
"'[	c #5F7E57",
")[	c #061608",
"![	c #283D23",
"~[	c #8FA68C",
"{[	c #7A937C",
"][	c #071E08",
"^[	c #092508",
"/[	c #7A9C74",
"([	c #8FB487",
"_[	c #1E4417",
":[	c #395F36",
"<[	c #719771",
"[[	c #49704F",
"}[	c #2E5332",
"|[	c #244421",
"1[	c #65835C",
"2[	c #4F6C46",
"3[	c #3B5D3B",
"4[	c #18401E",
"5[	c #4F7957",
"6[	c #587E5B",
"7[	c #43633F",
"8[	c #17350D",
"9[	c #4B6447",
"0[	c #708E70",
"a[	c #486A4D",
"b[	c #284430",
"c[	c #0B2312",
"d[	c #49584C",
"e[	c #748775",
"f[	c #4D6150",
"g[	c #3E5644",
"h[	c #27362B",
"i[	c #040F00",
"j[	c #0A1E03",
"k[	c #082102",
"l[	c #1A2F15",
"m[	c #677E59",
"n[	c #829C62",
"o[	c #6E8656",
"p[	c #667F6A",
"q[	c #5E7D79",
"r[	c #496E5F",
"s[	c #4D694C",
"t[	c #485F44",
"u[	c #425542",
"v[	c #505B43",
"w[	c #5C6345",
"x[	c #535640",
"y[	c #2C2C23",
"z[	c #686D5C",
"A[	c #5A6446",
"B[	c #1B2A1C",
"C[	c #0E120D",
"D[	c #668160",
"E[	c #9DC894",
"F[	c #32542E",
"G[	c #3C5631",
"H[	c #A0CC96",
"I[	c #558150",
"J[	c #001B00",
"K[	c #0A1D09",
"L[	c #314733",
"M[	c #576C60",
"N[	c #2E4437",
"O[	c #0B1E0C",
"P[	c #0B210D",
"Q[	c #6C8C6B",
"R[	c #8BAC84",
"S[	c #14370C",
"T[	c #3E6133",
"U[	c #A9CC9E",
"V[	c #4C7247",
"W[	c #0E360B",
"X[	c #7DA478",
"Y[	c #61855B",
"Z[	c #305127",
"`[	c #23441C",
" }	c #60825B",
".}	c #7DA178",
"+}	c #2E4F2D",
"@}	c #153115",
"#}	c #122910",
"$}	c #455F42",
"%}	c #9AB898",
"&}	c #456345",
"*}	c #061A03",
"=}	c #3B553D",
"-}	c #7E937F",
";}	c #586A54",
">}	c #2A362A",
",}	c #081F00",
"'}	c #162810",
")}	c #455841",
"!}	c #86A07C",
"~}	c #7E9A79",
"{}	c #68846A",
"]}	c #445D43",
"^}	c #374B2B",
"/}	c #34462C",
"(}	c #29372B",
"_}	c #24312B",
":}	c #000C02",
"<}	c #2D3A29",
"[}	c #293921",
"}}	c #031003",
"|}	c #21321B",
"1}	c #546551",
"2}	c #8CA68C",
"3}	c #3B5936",
"4}	c #3D5330",
"5}	c #A1C192",
"6}	c #62885A",
"7}	c #163217",
"8}	c #87AA8E",
"9}	c #688878",
"0}	c #142829",
"a}	c #081F12",
"b}	c #4D6A51",
"c}	c #385535",
"d}	c #022000",
"e}	c #446338",
"f}	c #A6C696",
"g}	c #4E6E3E",
"h}	c #153806",
"i}	c #7FA772",
"j}	c #86B07A",
"k}	c #173D0F",
"l}	c #4A6F44",
"m}	c #9DC096",
"n}	c #82A578",
"o}	c #3E5D31",
"p}	c #132E0A",
"q}	c #3B5333",
"r}	c #788D75",
"s}	c #495F49",
"t}	c #092B05",
"u}	c #0F2F07",
"v}	c #385336",
"w}	c #90AA8F",
"x}	c #63775E",
"y}	c #23351B",
"z}	c #112500",
"A}	c #3D5429",
"B}	c #97B281",
"C}	c #8EA77C",
"D}	c #54694A",
"E}	c #273B23",
"F}	c #1B321A",
"G}	c #0B1907",
"H}	c #323E1F",
"I}	c #36401D",
"J}	c #283C2C",
"K}	c #253D3A",
"L}	c #273C39",
"M}	c #283E3A",
"N}	c #283C38",
"O}	c #2B3E38",
"P}	c #2A3A31",
"Q}	c #000F02",
"R}	c #566B54",
"S}	c #97B098",
"T}	c #3E6341",
"U}	c #0F1B0E",
"V}	c #425C32",
"W}	c #96C58A",
"X}	c #588054",
"Y}	c #193016",
"Z}	c #8BAF88",
"`}	c #7EA38C",
" |	c #102820",
".|	c #0F2521",
"+|	c #384E45",
"@|	c #516D5C",
"#|	c #324D35",
"$|	c #3F5D39",
"%|	c #A8C99D",
"&|	c #4E6F41",
"*|	c #19390D",
"=|	c #8BAD7F",
"-|	c #7FA574",
";|	c #093103",
">|	c #51784C",
",|	c #9EC399",
"'|	c #466A40",
")|	c #26481D",
"!|	c #426336",
"~|	c #6C885F",
"{|	c #56704D",
"]|	c #122412",
"^|	c #182F15",
"/|	c #446837",
"(|	c #8FB188",
"_|	c #809C89",
":|	c #5D7269",
"<|	c #112214",
"[|	c #112307",
"}|	c #475A38",
"||	c #93AC72",
"1|	c #96AE7C",
"2|	c #637A55",
"3|	c #1F2D18",
"4|	c #050B00",
"5|	c #222F14",
"6|	c #4D5B3D",
"7|	c #475A3E",
"8|	c #40573B",
"9|	c #3A5536",
"0|	c #58764D",
"a|	c #7EA16B",
"b|	c #759C62",
"c|	c #508769",
"d|	c #4A897B",
"e|	c #528A7D",
"f|	c #57877C",
"g|	c #567E76",
"h|	c #638079",
"i|	c #64756E",
"j|	c #242D25",
"k|	c #45463C",
"l|	c #ABC3A5",
"m|	c #535F59",
"n|	c #425136",
"o|	c #A2C098",
"p|	c #5D8457",
"q|	c #1B2E14",
"r|	c #8AAA8D",
"s|	c #7CA98F",
"t|	c #0D2A1A",
"u|	c #2E493F",
"v|	c #92B2A4",
"w|	c #344E3B",
"x|	c #456843",
"y|	c #A6C99E",
"z|	c #476B40",
"A|	c #0B2F05",
"B|	c #628457",
"C|	c #68895E",
"D|	c #4C7145",
"E|	c #658A61",
"F|	c #375A35",
"G|	c #1C3D18",
"H|	c #92B38B",
"I|	c #749669",
"J|	c #0A2801",
"K|	c #0B2705",
"L|	c #455D42",
"M|	c #7D987D",
"N|	c #9CBD95",
"O|	c #62805F",
"P|	c #19311C",
"Q|	c #102110",
"R|	c #859A7D",
"S|	c #A9BF97",
"T|	c #657C4F",
"U|	c #1A2F0E",
"V|	c #546D45",
"W|	c #556B43",
"X|	c #95A97E",
"Y|	c #9DAD88",
"Z|	c #748166",
"`|	c #6B7968",
" 1	c #344940",
".1	c #051509",
"+1	c #041507",
"@1	c #03130F",
"#1	c #031213",
"$1	c #041314",
"%1	c #051314",
"&1	c #051413",
"*1	c #071412",
"=1	c #05110E",
"-1	c #142119",
";1	c #6C7A6D",
">1	c #4F6349",
",1	c #020A08",
"'1	c #345029",
")1	c #9DC492",
"!1	c #5E815B",
"~1	c #031800",
"{1	c #1E2F16",
"]1	c #8BAA81",
"^1	c #81AA90",
"/1	c #0D2B22",
"(1	c #000D05",
"_1	c #112418",
":1	c #486959",
"<1	c #294733",
"[1	c #416342",
"}1	c #9EC29A",
"|1	c #4B6E44",
"11	c #173B0F",
"21	c #618458",
"31	c #22431D",
"41	c #385730",
"51	c #A4C79D",
"61	c #4B6F47",
"71	c #1C3D1A",
"81	c #517151",
"91	c #597857",
"01	c #4C6C47",
"a1	c #19390E",
"b1	c #506F44",
"c1	c #81A077",
"d1	c #8DAD89",
"e1	c #516F53",
"f1	c #1B391F",
"g1	c #0B2108",
"h1	c #506A4B",
"i1	c #5D7358",
"j1	c #23371F",
"k1	c #081D03",
"l1	c #51693A",
"m1	c #75966B",
"n1	c #8BB595",
"o1	c #547552",
"p1	c #4F6744",
"q1	c #15240C",
"r1	c #030802",
"s1	c #00000A",
"t1	c #000510",
"u1	c #00020C",
"v1	c #000006",
"w1	c #000005",
"x1	c #000108",
"y1	c #000105",
"z1	c #000203",
"A1	c #000A06",
"B1	c #041208",
"C1	c #405035",
"D1	c #A5C99D",
"E1	c #558152",
"F1	c #213015",
"G1	c #8DAA86",
"H1	c #7EA684",
"I1	c #0F2E1C",
"J1	c #000501",
"K1	c #0B211C",
"L1	c #486D5F",
"M1	c #2E4D39",
"N1	c #406445",
"O1	c #A2C5A1",
"P1	c #4F7149",
"Q1	c #15390D",
"R1	c #8DB184",
"S1	c #6D9065",
"T1	c #6C8B67",
"U1	c #53764E",
"V1	c #133510",
"W1	c #84A283",
"X1	c #8AA78B",
"Y1	c #243A23",
"Z1	c #607C55",
"`1	c #9CB98F",
" 2	c #58784E",
".2	c #1E391C",
"+2	c #0A1F09",
"@2	c #587359",
"#2	c #6D876E",
"$2	c #536A52",
"%2	c #5A7251",
"&2	c #92A982",
"*2	c #95AB82",
"=2	c #537053",
"-2	c #163628",
";2	c #0E1804",
">2	c #141A0B",
",2	c #181A0E",
"'2	c #1A201A",
")2	c #0D1917",
"!2	c #0A1A19",
"~2	c #0A2121",
"{2	c #082120",
"]2	c #071F20",
"^2	c #081F21",
"/2	c #091E21",
"(2	c #0A1C20",
"_2	c #0E1C20",
":2	c #0F1517",
"<2	c #121818",
"[2	c #000401",
"}2	c #3D6032",
"|2	c #A3C496",
"12	c #658461",
"22	c #1A2E14",
"32	c #92B083",
"42	c #7AA482",
"52	c #0E2F19",
"62	c #182314",
"72	c #4D6C64",
"82	c #264A3F",
"92	c #3D5F42",
"02	c #A1C3A3",
"a2	c #4F734C",
"b2	c #12360B",
"c2	c #8AAC7F",
"d2	c #8AAB80",
"e2	c #16350D",
"f2	c #3B5932",
"g2	c #3C5936",
"h2	c #12340D",
"i2	c #81A17E",
"j2	c #8EAA8D",
"k2	c #1D381F",
"l2	c #566C4F",
"m2	c #9DB690",
"n2	c #3F5732",
"o2	c #0C220A",
"p2	c #486444",
"q2	c #749067",
"r2	c #4B6346",
"s2	c #273B2F",
"t2	c #000A05",
"u2	c #1B2E19",
"v2	c #536E42",
"w2	c #97B182",
"x2	c #5A734E",
"y2	c #1E311B",
"z2	c #031100",
"A2	c #1D2911",
"B2	c #262E10",
"C2	c #73774B",
"D2	c #9B9E75",
"E2	c #909778",
"F2	c #81917D",
"G2	c #6C8878",
"H2	c #628C7D",
"I2	c #5A8B7E",
"J2	c #528D7F",
"K2	c #528E83",
"L2	c #568C84",
"M2	c #5B8A84",
"N2	c #608885",
"O2	c #618280",
"P2	c #728A89",
"Q2	c #677775",
"R2	c #0F1714",
"S2	c #3A4D37",
"T2	c #8DA67F",
"U2	c #5F8459",
"V2	c #203016",
"W2	c #93B087",
"X2	c #7EA578",
"Y2	c #0A280C",
"Z2	c #041804",
"`2	c #314934",
" 3	c #4F6C55",
".3	c #2D483B",
"+3	c #446149",
"@3	c #A3C5A7",
"#3	c #4E704E",
"$3	c #77996C",
"%3	c #87A77A",
"&3	c #102F04",
"*3	c #77956F",
"=3	c #8BAB87",
"-3	c #183118",
";3	c #051706",
">3	c #4A6048",
",3	c #4A5B43",
"'3	c #182710",
")3	c #4B5F3F",
"!3	c #90AD8A",
"~3	c #4A6545",
"{3	c #223819",
"]3	c #1C3227",
"^3	c #465D4D",
"/3	c #799677",
"(3	c #48623E",
"_3	c #18310E",
":3	c #273725",
"<3	c #617353",
"[3	c #A4B48C",
"}3	c #778254",
"|3	c #4C512B",
"13	c #303117",
"23	c #323624",
"33	c #27302A",
"43	c #1E2E32",
"53	c #1A353D",
"63	c #11323B",
"73	c #163334",
"83	c #1A3532",
"93	c #1A3534",
"03	c #1B3533",
"a3	c #1D3534",
"b3	c #1A3331",
"c3	c #203734",
"d3	c #112621",
"e3	c #20362F",
"f3	c #262D20",
"g3	c #1A3313",
"h3	c #8FAE82",
"i3	c #7AA27C",
"j3	c #0B290C",
"k3	c #081300",
"l3	c #7B8E6D",
"m3	c #8FB495",
"n3	c #1E4831",
"o3	c #4E614B",
"p3	c #A5C5AB",
"q3	c #4B6B4C",
"r3	c #1E3C18",
"s3	c #638254",
"t3	c #203D11",
"u3	c #536F42",
"v3	c #A5C094",
"w3	c #1E3614",
"x3	c #607E56",
"y3	c #203E1D",
"z3	c #031901",
"A3	c #4D614C",
"B3	c #465542",
"C3	c #061005",
"D3	c #3C4C30",
"E3	c #7F9170",
"F3	c #596D51",
"G3	c #061B04",
"H3	c #273724",
"I3	c #455D40",
"J3	c #6C8668",
"K3	c #546E54",
"L3	c #182C18",
"M3	c #2F4531",
"N3	c #708879",
"O3	c #6D8880",
"P3	c #486052",
"Q3	c #13220D",
"R3	c #010900",
"S3	c #000008",
"T3	c #00000B",
"U3	c #00000C",
"V3	c #000004",
"W3	c #000002",
"X3	c #000003",
"Y3	c #050705",
"Z3	c #030B08",
"`3	c #0A2005",
" 4	c #1C2F1C",
".4	c #91B18A",
"+4	c #81A87C",
"@4	c #0D2E11",
"#4	c #031701",
"$4	c #758A66",
"%4	c #A6C097",
"&4	c #294E2B",
"*4	c #496346",
"=4	c #A8BEA2",
"-4	c #526E55",
";4	c #223D1D",
">4	c #92B085",
",4	c #344F29",
"'4	c #17300D",
")4	c #A7C191",
"!4	c #486139",
"~4	c #283E17",
"{4	c #91A880",
"]4	c #3B5830",
"^4	c #668062",
"/4	c #80907D",
"(4	c #050F04",
"_4	c #444D34",
":4	c #717961",
"<4	c #021000",
"[4	c #2E4026",
"}4	c #A5B99D",
"|4	c #6D8567",
"14	c #12260C",
"24	c #010E00",
"34	c #273F2C",
"44	c #4B6353",
"54	c #6F8476",
"64	c #546759",
"74	c #0D201D",
"84	c #00131C",
"94	c #000D0D",
"04	c #030500",
"a4	c #060504",
"b4	c #070308",
"c4	c #08040A",
"d4	c #030003",
"e4	c #050204",
"f4	c #040206",
"g4	c #050307",
"h4	c #060309",
"i4	c #060308",
"j4	c #08030B",
"k4	c #060107",
"l4	c #080407",
"m4	c #070102",
"n4	c #1F3821",
"o4	c #8DAE8C",
"p4	c #80A185",
"q4	c #0B280E",
"r4	c #6F8962",
"s4	c #95BC95",
"t4	c #254629",
"u4	c #4A5D39",
"v4	c #A7C4A3",
"w4	c #4D7052",
"x4	c #253B22",
"y4	c #9BB894",
"z4	c #7C9970",
"A4	c #133008",
"B4	c #597546",
"C4	c #4C6638",
"D4	c #5C714C",
"E4	c #889D76",
"F4	c #112D05",
"G4	c #5C7D56",
"H4	c #A2BDA0",
"I4	c #3E4F3C",
"J4	c #464E3C",
"K4	c #737A65",
"L4	c #182110",
"M4	c #020C00",
"N4	c #34422E",
"O4	c #6D815C",
"P4	c #5A6C50",
"Q4	c #142715",
"R4	c #1D3421",
"S4	c #59785D",
"T4	c #88A485",
"U4	c #7A9579",
"V4	c #0E1E11",
"W4	c #000702",
"X4	c #070F00",
"Y4	c #0C1601",
"Z4	c #586149",
"`4	c #5F6855",
" 5	c #0E1608",
".5	c #010905",
"+5	c #030D07",
"@5	c #000201",
"#5	c #000102",
"$5	c #000104",
"%5	c #090B04",
"&5	c #1B321D",
"*5	c #52715D",
"=5	c #4B634F",
"-5	c #0A250F",
";5	c #5A7455",
">5	c #587352",
",5	c #244021",
"'5	c #031303",
")5	c #A5B998",
"!5	c #566D50",
"~5	c #273A1C",
"{5	c #96B085",
"]5	c #78976B",
"^5	c #052A00",
"/5	c #678E5B",
"(5	c #8DB483",
"_5	c #001D00",
":5	c #314E2B",
"<5	c #5D7552",
"[5	c #14250E",
"}5	c #0E2409",
"|5	c #88A685",
"15	c #3A5E3C",
"25	c #3E4F38",
"35	c #A3BAA3",
"45	c #34503A",
"55	c #010B08",
"65	c #2A373A",
"75	c #586D69",
"85	c #253621",
"95	c #1E2D16",
"05	c #8BA182",
"a5	c #8BA487",
"b5	c #405C44",
"c5	c #112817",
"d5	c #0D1606",
"e5	c #2B421F",
"f5	c #678762",
"g5	c #648165",
"h5	c #637E67",
"i5	c #566F5D",
"j5	c #405542",
"k5	c #031502",
"l5	c #253A20",
"m5	c #74896F",
"n5	c #788E79",
"o5	c #263829",
"p5	c #060C0A",
"q5	c #0B181B",
"r5	c #0A1416",
"s5	c #0B1816",
"t5	c #0A180D",
"u5	c #0A1907",
"v5	c #152509",
"w5	c #6F805D",
"x5	c #909A7D",
"y5	c #68876E",
"z5	c #162F1C",
"A5	c #132D18",
"B5	c #4C684E",
"C5	c #3B5439",
"D5	c #354D2F",
"E5	c #829B7A",
"F5	c #587153",
"G5	c #253D23",
"H5	c #314429",
"I5	c #6D8459",
"J5	c #38502A",
"K5	c #0D2C03",
"L5	c #5E8252",
"M5	c #96BE8F",
"N5	c #30572A",
"O5	c #2B5025",
"P5	c #9ABB95",
"Q5	c #516B4B",
"R5	c #0B1E09",
"S5	c #395037",
"T5	c #2E482A",
"U5	c #A7C2A3",
"V5	c #637E60",
"W5	c #0A1F0C",
"X5	c #2B3F38",
"Y5	c #536466",
"Z5	c #1E2D2B",
"`5	c #0C1B02",
" 6	c #2A351E",
".6	c #67745B",
"+6	c #44533F",
"@6	c #0D230D",
"#6	c #102408",
"$6	c #7C936C",
"%6	c #90A07F",
"&6	c #5D6F59",
"*6	c #3D564B",
"=6	c #354A45",
"-6	c #304242",
";6	c #071416",
">6	c #000802",
",6	c #141E11",
"'6	c #404C39",
")6	c #424D3B",
"!6	c #212E22",
"~6	c #476875",
"{6	c #618AA1",
"]6	c #5B8390",
"^6	c #5D8386",
"/6	c #63827E",
"(6	c #5E786D",
"_6	c #24392B",
":6	c #374435",
"<6	c #4E5242",
"[6	c #243929",
"}6	c #031802",
"|6	c #617E66",
"16	c #8AA78F",
"26	c #2F4C31",
"36	c #324A2F",
"46	c #A2BD9B",
"56	c #738A6C",
"66	c #183014",
"76	c #869D81",
"86	c #708869",
"96	c #1E3117",
"06	c #637F59",
"a6	c #A5C198",
"b6	c #34512D",
"c6	c #082604",
"d6	c #97B68D",
"e6	c #6E8C67",
"f6	c #051F02",
"g6	c #647F5F",
"h6	c #92AF93",
"i6	c #142716",
"j6	c #030700",
"k6	c #53684C",
"l6	c #607F5C",
"m6	c #041A01",
"n6	c #35422D",
"o6	c #516954",
"p6	c #1E3223",
"q6	c #14240D",
"r6	c #859779",
"s6	c #7E8A6E",
"t6	c #2F3727",
"u6	c #091806",
"v6	c #263E18",
"w6	c #5E7C47",
"x6	c #8BA77C",
"y6	c #3F5242",
"z6	c #142120",
"A6	c #0B060B",
"B6	c #0C050C",
"C6	c #030400",
"D6	c #142D3C",
"E6	c #1A4159",
"F6	c #113843",
"G6	c #153E40",
"H6	c #1D4142",
"I6	c #223A3E",
"J6	c #070F19",
"K6	c #374E33",
"L6	c #A5C0A5",
"M6	c #3F5A42",
"N6	c #344F32",
"O6	c #A0BC9C",
"P6	c #6F896A",
"Q6	c #051604",
"R6	c #172D15",
"S6	c #6E8668",
"T6	c #193217",
"U6	c #021403",
"V6	c #6D8468",
"W6	c #A4BB9C",
"X6	c #45593D",
"Y6	c #43583A",
"Z6	c #607753",
"`6	c #0A1E07",
" 7	c #11290F",
".7	c #5E7D5D",
"+7	c #2F4A31",
"@7	c #5D6953",
"#7	c #77876C",
"$7	c #333C23",
"%7	c #6D775C",
"&7	c #1A3015",
"*7	c #151F10",
"=7	c #819877",
"-7	c #9EB097",
";7	c #343D2C",
">7	c #091003",
",7	c #7C8B65",
"'7	c #97B085",
")7	c #37522D",
"!7	c #1C260E",
"~7	c #4A5435",
"{7	c #4C5236",
"]7	c #41432D",
"^7	c #130E04",
"/7	c #09010D",
"(7	c #0E0714",
"_7	c #050304",
":7	c #080803",
"<7	c #010100",
"[7	c #010500",
"}7	c #0C0000",
"|7	c #010000",
"17	c #10200E",
"27	c #546B4C",
"37	c #455E45",
"47	c #324B31",
"57	c #A3BDA0",
"67	c #112410",
"77	c #5F7958",
"87	c #344C31",
"97	c #041C06",
"07	c #48654E",
"a7	c #78927B",
"b7	c #394A37",
"c7	c #48543B",
"d7	c #677356",
"e7	c #0D1C03",
"f7	c #12270A",
"g7	c #83A27F",
"h7	c #4D6F4C",
"i7	c #4E614C",
"j7	c #A8C2A7",
"k7	c #4D6045",
"l7	c #2F3D24",
"m7	c #94A98B",
"n7	c #384831",
"o7	c #1C2819",
"p7	c #7E947E",
"q7	c #92AD91",
"r7	c #233721",
"s7	c #121702",
"t7	c #676F45",
"u7	c #7D885E",
"v7	c #3E5237",
"w7	c #00150A",
"x7	c #3A5840",
"y7	c #435A3C",
"z7	c #586C45",
"A7	c #7D925C",
"B7	c #82945A",
"C7	c #788552",
"D7	c #1A2009",
"E7	c #181918",
"F7	c #2D2F3D",
"G7	c #020512",
"H7	c #000504",
"I7	c #0D0000",
"J7	c #040200",
"K7	c #000406",
"L7	c #040A06",
"M7	c #454430",
"N7	c #6F663D",
"O7	c #6E632B",
"P7	c #67632E",
"Q7	c #7A8B6F",
"R7	c #798D71",
"S7	c #7A997A",
"T7	c #6A8565",
"U7	c #162B13",
"V7	c #678161",
"W7	c #21391E",
"X7	c #425840",
"Y7	c #617A67",
"Z7	c #385345",
"`7	c #061708",
" 8	c #454F3C",
".8	c #70775F",
"+8	c #181E0F",
"@8	c #111E0C",
"#8	c #8BA281",
"$8	c #8FAE8B",
"%8	c #103010",
"&8	c #081E03",
"*8	c #466B4A",
"=8	c #303A23",
"-8	c #AABBA3",
";8	c #708C73",
">8	c #0C2010",
",8	c #435149",
"'8	c #8BA89E",
")8	c #1F3C2C",
"!8	c #101C03",
"~8	c #656C41",
"{8	c #565C33",
"]8	c #070E00",
"^8	c #385243",
"/8	c #6E8C7B",
"(8	c #86A991",
"_8	c #617C6D",
":8	c #2D3F38",
"<8	c #041200",
"[8	c #1E2128",
"}8	c #343749",
"|8	c #000912",
"18	c #37483D",
"28	c #697E5B",
"38	c #798046",
"48	c #787F4A",
"58	c #68785F",
"68	c #586F6B",
"78	c #5E726E",
"88	c #6D7662",
"98	c #7E7A51",
"08	c #7E7542",
"a8	c #79744A",
"b8	c #91A27F",
"c8	c #3B4E36",
"d8	c #021202",
"e8	c #415F43",
"f8	c #4F6A4E",
"g8	c #738C6D",
"h8	c #51694E",
"i8	c #B1C6AF",
"j8	c #4E6855",
"k8	c #000D02",
"l8	c #3D4D3E",
"m8	c #616B5A",
"n8	c #181E0E",
"o8	c #3C4B2F",
"p8	c #8DA483",
"q8	c #203C1E",
"r8	c #001A00",
"s8	c #50724E",
"t8	c #40603E",
"u8	c #A0B49D",
"v8	c #768A77",
"w8	c #0E2215",
"x8	c #182927",
"y8	c #4F6467",
"z8	c #1C3735",
"A8	c #0C2105",
"B8	c #627147",
"C8	c #5C643E",
"D8	c #070900",
"E8	c #465842",
"F8	c #9EBA9A",
"G8	c #6A8A6D",
"H8	c #284533",
"I8	c #02121A",
"J8	c #000016",
"K8	c #010200",
"L8	c #050203",
"M8	c #080510",
"N8	c #040211",
"O8	c #04070B",
"P8	c #596D4A",
"Q8	c #627947",
"R8	c #5B784B",
"S8	c #4A6C4E",
"T8	c #496B5D",
"U8	c #466159",
"V8	c #13221A",
"W8	c #0A0600",
"X8	c #394A29",
"Y8	c #344E35",
"Z8	c #9AB79A",
"`8	c #334F32",
" 9	c #041702",
".9	c #819D7C",
"+9	c #758F71",
"@9	c #071F04",
"#9	c #738A71",
"$9	c #516952",
"%9	c #001201",
"&9	c #021107",
"*9	c #394E42",
"=9	c #526255",
"-9	c #13210F",
";9	c #25321C",
">9	c #748668",
",9	c #24371C",
"'9	c #527450",
")9	c #8EB78F",
"!9	c #1A3919",
"~9	c #466343",
"{9	c #719178",
"]9	c #0C200F",
"^9	c #1E2C28",
"/9	c #4E6F6B",
"(9	c #233B3E",
"_9	c #071F03",
":9	c #6D8665",
"<9	c #9FAE99",
"[9	c #141F12",
"}9	c #030A03",
"|9	c #4D5C46",
"19	c #A7BF9D",
"29	c #597551",
"39	c #041805",
"49	c #0C0C0B",
"59	c #201D15",
"69	c #2A2113",
"79	c #261B13",
"89	c #130703",
"99	c #090000",
"09	c #040103",
"a9	c #020700",
"b9	c #000506",
"c9	c #000701",
"d9	c #000205",
"e9	c #1E2D18",
"f9	c #060C06",
"g9	c #698367",
"h9	c #658364",
"i9	c #031403",
"j9	c #2E472A",
"k9	c #8BA785",
"l9	c #243B1F",
"m9	c #0C2208",
"n9	c #60795E",
"o9	c #50664F",
"p9	c #31483C",
"q9	c #4F6357",
"r9	c #122314",
"s9	c #24321D",
"t9	c #9BAF92",
"u9	c #778D6F",
"v9	c #0A2207",
"w9	c #698766",
"x9	c #385F39",
"y9	c #43593B",
"z9	c #6D8568",
"A9	c #0F2712",
"B9	c #232A1F",
"C9	c #5A6860",
"D9	c #233E33",
"E9	c #000F0A",
"F9	c #051305",
"G9	c #6D8F5C",
"H9	c #A2BD9A",
"I9	c #36473E",
"J9	c #000706",
"K9	c #2A3D28",
"L9	c #A1B999",
"M9	c #5B7656",
"N9	c #061303",
"O9	c #1B280E",
"P9	c #596137",
"Q9	c #95976D",
"R9	c #999674",
"S9	c #8C846A",
"T9	c #281C0D",
"U9	c #140803",
"V9	c #322E29",
"W9	c #191A19",
"X9	c #000603",
"Y9	c #171102",
"Z9	c #403817",
"`9	c #38351C",
" 0	c #2A3224",
".0	c #24343C",
"+0	c #1F3141",
"@0	c #222F37",
"#0	c #0B170A",
"$0	c #41533E",
"%0	c #A7C3A4",
"&0	c #284527",
"*0	c #061706",
"=0	c #8FAB8B",
"-0	c #6F8A69",
";0	c #3B5337",
">0	c #A2BAA0",
",0	c #2B402A",
"'0	c #4A5F4F",
")0	c #83978B",
"!0	c #0E2114",
"~0	c #213422",
"{0	c #96AD92",
"]0	c #819C7D",
"^0	c #11260F",
"/0	c #061905",
"(0	c #73906E",
"_0	c #526C4E",
":0	c #3D573A",
"<0	c #A7BFA0",
"[0	c #5D6E54",
"}0	c #272F21",
"|0	c #677360",
"10	c #32412E",
"20	c #071404",
"30	c #6B886D",
"40	c #9BB993",
"50	c #34502D",
"60	c #051103",
"70	c #556C5B",
"80	c #556E5F",
"90	c #011303",
"00	c #495438",
"a0	c #A8B78D",
"b0	c #566C3D",
"c0	c #212C12",
"d0	c #222915",
"e0	c #25261A",
"f0	c #0B0A03",
"g0	c #1D211A",
"h0	c #778078",
"i0	c #44554F",
"j0	c #162F2D",
"k0	c #314C50",
"l0	c #294A4C",
"m0	c #2A473C",
"n0	c #556246",
"o0	c #92956E",
"p0	c #949B76",
"q0	c #6F876F",
"r0	c #618782",
"s0	c #5C8388",
"t0	c #758D92",
"  . + @ # $ % & * = - ; > , ' ) ! ~ { ] ^ / ( _ : < [ } } | 1 2 3 4 5 6 7 8 } } } } 9 0 a b c d e f g h i j k l m n o } p q r s ",
"t u v w x y z A B C D E F G H I J K L M N } } } O } P Q R S T U V W X } Y Z `  ...+.@.#.$.%.&.*.=.-.;.>.,.'.).$ !.~.{.].^./.(._.",
":.<.[.}.|.1.2.3.4.5.6.7.8.9.0.a.} 8 b.} c.d.e.f.g.h.i.j.k.l.m.n.} o.p.q.r.s.t.u.v.w.x.y.z.A.B.C.D.E.F.G.H.I.J.K.L.M.N.O.P.Q.R.S.",
"T.U.V.W.X.Y.O Z.`. +.+++@+#+$+%+&+*+=+-+;+>+,+'+)+!+~+{+]+^+/+(+_+:+<+[+}+|+1+2+3+4+3.5+X ^+6+7+8+9+0+a+b+c+d+e+f+g+h+i+j+k+l+m+",
"n+o+p+q+$ r+s+t+u+v+w+x+y+z+A+B+C+D+E+F+G+8 8 Y H+I+J+K+L+M+N+O+P+Q+R+$+S+8 T+U+V+W+X+Y+Z+`+ @.@+@@@#@$@%@X C &@*@=@-@;@>@,@'@)@",
"!@~@{@]@^@/@(@_@8 } :@<@[@}@|@1@} } } X 2@3@4@5@6@7@8@9@0@a@b@c@X } w+^+d@e@f@g@h@i@j@k@l@m@n@o@} } ^+p@q@r@s@t@u@v@w@x@y@z@A@B@",
"C@D@E@F@G@H@I@9 J@K@L@M@N@O@P@} Q@R@S@T@U@V@W@X@Y@Z@`@ #.#} } O +#@###$#%#&#*#=#-#;#w+} >#,#'#)#!#~#{#]#^#/#(#_#:#<#[#q@}#|#1#2#",
"3#4#5#6#7#w+w+8#9#0#a#b#P@8 c#d#e#f#g#h#i#j#k#l#m#O n#o#p#q#r#s#t#u#v#w#x#y#z#} O A#B#C#D#E#F#G#H#I#J#K#L#M#N#O#P#Q#R#S#T#U#V#W#",
"X#Y#Z#`#^+ $.$+$@$#$^+$$%$&$*$=$-$;$>$,$} } '$)$!$~${$]$^$/$($_$:$<$[$}$O O |$1$2$3$4$5$6$7$8$9$0$a$b$O c$d$e$f$g$h$i$j$k$l$m$n$",
"o$p$; $ q$r$s$t$u$} v$w$x$y$z$A$B$$ $$w+C$D$E$F$G$H$I$J$K$L$M$N$O$P$X Q$R$S$T$U$V$W$X$Y$Z$Y `$ %.%+%@%#%$%%%&%*%; =%-%5#;%>%,%'%",
")%$$!%~%{%]%^%Y X /%(%_%:%<%[.9 [%}%|%1%2%3%4%5%6%P@7%8%9%0%a%b%c%d%e%f%g%h%i%j%k%l%m%n%o%p%q%r%s%t%u%v%w%^+x%y%z%A%B%C%D%x+E%F%",
"$$G%H%I%J%} K%L%M%N%O%P%>$9 Q%R%S%T%U%V%W%X 9 X%Y%Z%`% &.&+&@&#&$&%&&&*&=&-&;&>&,&'&)&!&~&{&]&^&/&(&_&:&<&[&}&|&1&2&3&4&5&6&7&8&",
"9&0&a&b&P@c&d&e&f&g&h&8 O i&j&k&l&m&n&G.} o&p&q&r&s&t&u&v&w&x&} P@y&z&A&B&C&D&E&F&G&H&I&J&K&L&M&N&O&P&Q&R&S&T&U&V&W&X&Y&Z&`& *.*",
"+*@*G.G.#*$*%*&***Y w+$ =*-*;*>*,*'*G.)*!*~*{*]*^*/*} (*_*:*<*[*}*|*1*2*3*4*5*6*7*8*9*0*a*b*c*d*e*f*g*h*i*j*k*l*m*n*o*p*q*r*s*t*",
"u*G.v*w*x*y*z*w+8 w+A*B*C*D*E*F*G*^+H*I*J*K*L*M*N*O*P*Q*R*S*T*U*V*W*X*Y*Z*`* =.=+=@=#=$=%=&=*===-=;=>=,='=)=!=~={=]=^=/=(=_=:=<=",
"X [=}=|=1=2=>#3=4=5=6=7=8=9=P@P@0=a=b=c=d=e=f=g=h=i=j=k=l=Q$3#m=n=o=p=q=r=s=t=u=v=w=x=y=z=A=B=C=D=E=F=G=H=I=3.J=K=L=M=N=O=P=Q=R=",
"S=T=U=V=>#^+W=X=Y=Z=`=w+G.8  -.-+-@-#-$-C %-&-*-=---;-C >-,-'-)-!-~-{-]-^-/-(-_-:-<-[-}-|-X 1-2-3-4-5-_*6-7-8-9-0-a-b-c-d-e-f-g-",
"h-i-j-P@k-l-m-n-o-8 p-q-r-s-t-u-v-w-x-y-z-A-B-C-D-E-F-G-H-I-J-K-L-M-N-O-P-Q-R-S-T-U-V-W-X-Y->#/+O O } Z-`- ;.;+;@;#;$;%;&;*;=;-;",
";;>;,;';);!;~;$ x+{;];^;/;(;_;h+:;<;[;};|;1;2;3;4;5;6;7;8;9;0;a;b;c;d;e;f;g;h;i;j;k;l;m;n;o;V&p;q;r;s;t;u;v;w;x;y;z;A;B;C;D;E;F;",
"G;w+H;I;J;K;G.L;M;N;O;P;Q;w+R;S;T;U;V;W;X;Y;Z;`; >.>+>@>#>$>%>&>*>=>->;>>>,>'>)>!>~>{>]>^>/>(>_>:><>[>}>|>1>2>3>4>5>6>7>8>9>0>a>",
"b>c>d>e>f>g>h>i>j>k>l>$ m>n>o>p>q>r>s>t>u>v>w>x>y>z>A>B>C>D>E>F>G>H>I>J>K>L>M>N>O>P>Q>R>S>T>U>V>W>X>Y>Z>`> ,.,+,@,#,$,%,&,*,=,-,",
";,>,,,',^+),!,~,{,>#>#],^,/,(,_,:,<,[,},|,1,2,3,4,5,6,7,8,9,0,a,b,c,d,e,f,g,h,i,Q$j,k,l,m,n,o,p,q,r,s,t,u,v,w,x,y,z,A,B,C,D,E,F,",
"G,H,x+I,J,K,L,M,P@N,O,P,Q,3#R,S,T,U,V,W,X,Y,Z,`, '$$.'+'@'#'$'%'&'*'='-';'>',''')'!'~'{']'^'/'('_':'<'['}'|'3.1'2'3'4'5'6'7'8'9'",
"0'3.a'b'c'd'e'f'g'h'i'j'$$k'l'm'_&n'o'p'q'r's't'u'v'w'x'y'z'h+A'B'C'D'E'F'G'H'I'J'K'L'M'3.} } N'O'P'Q'R'S'T'U'V'W'X'Y'Z'`' ).)+)",
"P@@)#)$)%)} &)*)=)-);)>)O>,)')))!)~){)])^)C /)()_):)<)[)8 })|)1)2)3)4)5)6)7)8)9)0)a)b)c)d)e)f)g)h)i)j)k)l)m)n)o)p)b>q)r)s)t)u)v)",
"w)x)y)&'} z)A)B)C)} D)E)F)G)D-H)I)J)K)Q$L)C+M)N)O)w+} P)Q)R)S)T)K$U)V)W)X)Y)[.Z)`) !.!+!@!#!$!%!&!*!=!-!;!>!,!'!)!!!~!{!]!^!/!(!",
"_!:!<![!}!|!1!2!O 3!4!5!6!Y 7!8!9!X $$0!a!b!c!9 } d!e!f!g!h!i!C j!k!l!m!n!o!p!q!r!s!t!u!v!w!x!y!z!A!B!C!D!E!F!G!H!I!J!K!L!M!N!O!",
"P!>#Q!R!S!T!$ U!V!W!X!Y!Z!`! ~.~; +~@~#~$~%~9 &~*~=~-~;~>~[.$ ,~'~)~9'!~~~{~]~^~/~3.(~_~:~<~[~}~|~1~2~3~9'4~5~6~7~8~9~0~a~b~c~d~",
"^+e~f~g~h~w+i~j~k~l~X m~n~o~p~C q~r~s~t~u~u~v~w~x~y~z~^+h+A~B~C~D~E~F~G~H~I~J~K~L~M~N~O~P~Q~R~9-S~^+T~U~V~W~X~Y~Z~`~ {.{+{@{#{${",
"%{&{*{={-{;{>{,{'{){!{~{{{]{3.^{/{({|,X _{:{<{A~[{O }{|{1{2{3{$$4{5{6{7{8{9{0{a{b{c{d{Z!e{f{g{h{i{j{k{l{m{n{o{p{q{r{3.s{t{u{v{w{",
"x{y{9 3#z{A{B{C{x+D{E{F{>#G{H{I{J{K{L{C#M{N{O{} $ P{Q{R{S{T{U{V{W{X{Y{Z{`{ ].]+]@]#]$]%]&]*]=]-];]>],]'])]!]~]{]]]^]/](]_]:]<][]",
"}]>#|]1]2]3]>#X 4]5]6]$ 7]8]9]0]} a]b]c]d]e]X f]g]h]i]j]Q$k]l]m]n]o]p]q]r]s]t]u]v]w]x]y]z]A]B]C]D]E]F]G]H]I]J]K]L]M]N]P@} } } } ",
"8 O]P]Q]R]$$S]T]U]V]W]X]Y]Z]`] ^.^+^@^#^} $^%^&^*^=^-^;^>^,^'^)^!^~^{^]^^^/^(^_^:^<^[^}^|^1^2^3^4^5^6^7^8^9^0^a^b^c^d^e^f^g^h^i^",
"j^k^l^m^P@n^o^p^q^r^s^t^u^[.v^w^x^y^$$z^A^B^C^D^E^8 F^G^H^I^J^K^L^M^N^O^P^Q^R^S^T^U^V^W^X^Y^Z^`^ /./+/@/#/$/%/&/*/=/-/;/>/,/'/)/",
"!/~/{/w+]/^///; (/_/:/</[/}/|/1/2/>#3/4/5/6/7/Y 8/9/0/a/b/3#c/d/e/f/g/h/i/j/k/l/m/n/o/p/q/r/s/t/{$u/v/w/x/y/z/Q$A/B/C/D/E/F/G/H/",
"I/C J/K/L/M/Q%N/O/P/Q/R/S/T/U/V/[.W/X/Y/Z/^+9'`/ (.(+([.@(#($(%(&(*(=(-(;(>(,('()(!(~({(](^(/(((_(:(<([(}(|(1(2(3(4(5(6(7(8(9(0(",
"w+a(b(c(d(e(f(g(h(i(j(k(l(m(X A,n(o(p(>#q(r(s(t(u(^+v(w(x(y(z(A(B(C(D(E(F(G(H(I(J(K(L(M(N(O(P(Q(R(S(T(U(V(W(X(Y(Z(`( _._+_@_#_$_",
"%_&_*_=_} -_;_>_,_'_)_!_~_3#{_]_^_/_X (___:_<_Q$[_}_|_1_2_3_4_5_6_7_8_9_0_a_b_c_d_e_Q$f_g_h_i_j_k_l_m_n_o_p_} } q_r_} } } s_t_u_",
"v_w_,'x_y_z_A_} B_C_D_E_C F_G_H_I_$$J_K_L_M_N_O_P_Q_R_S_T_U_V_W_X_Y_Z_`_ :.:+:[.@:#:$:%:&:*:=:-:;:>:8 ,:':):!:~:{:]:^:/:(:_:::} ",
"<:[:}:|:1:2:p-3:4:5:6:7:8:9:0:Q$w+a:b:c:C d:e:f:g:h:i:j:k:l:m:n:o:p:q:r:s:_^t:u:v:w:x:y:z:A:B:3.C:D:E:F:G:H:I:J:K:L:M:N:O:P:Q:R:",
"9 S:T:U:V:3#W:X:Y:n.Z:`: <.<C +<@<#<$<%<&<*<=<-<;<><,<'<)<!<~<{<)^]<^<k;/<(<_<:<<<[<}<^+|<1<2<3<4<5<6<7<8<9<0<a<b<c<$$$$d<e<f<g<",
"h<i<j<k<Q(l<m<n<$$o<p<q<r<w+s<t<u<v<w<x<y<z<l%A<B<C<3.D<E<F<G<H<I<J<K<A,L<M<N<O<3.8/P<Q<R<S<T<U<V<W<j'C X<Y<Z<`< [.[+[@[#[$[%[e(",
"&[*[O c-=[-[;[[.>[,['[)[P@![~[{[][^[/[([_[:[<[[[}[|[1[2[3[4[5[6[7[8[9[0[a[b[h+c[d[e[f[g[h[i[j[k[l[m[n[o[p[q[r[s[t[u[v[w[x[y[z[A[",
"B[Y C[D[E[F[P@G[H[I[J[K[L[M[N[O[P[Q[R[S[T[U[V[W[X[Y[Z[`[ }.}+}@}#}$}%}&}h+*}=}-};}>}3#,}'})}!}~}{}]}^}/}(}_}:}} } } } } } Y <}[}",
"}}|}1}2}3}>#4}5}6}J[7}8}9}0}} a}b}c}d}e}f}g}h}i}j}k}l}m}n}o}p}q}r}s}t}u}v}w}x}y}Q$z}A}B}C}D}E}F}q*Y } } G}H}I}J}K}L}M}N}O}P}Q}} ",
"R}S}T}U}} V}W}X}.{Y}Z}`} |.|+|@|#|^+$|%|&|*|=|-|;|>|,|'|)|!|~|{|]|^|/|(|_|:|<|[|}|||1|2|3|4|} 5|6|7|8|9|0|a|b|c|d|e|f|g|h|i|j|k|",
"l|m|h+^+n|o|p|A,q|r|s|t|G.u|v|w|3.x|y|z|A|B|C|D|l}E|F|G|H|I|J|K|L|M|N|O|P|>#Q|R|S|T|U|P@s'V|W|X|Y|Z|`|9@ 1.1+1@1#1$1%1&1*1=1-1;1",
">1,1P@'1)1!1~1{1]1^1/1(1_1:1<1[.[1}1|111213141516171819101a1b1c1d1e1f1x+g1h1R<i1j1$$k1l1m1n1o1p1q1O r1L:s1t1u1v1w1w1v1x1y1z1A1B1",
"N#P@C1D1E1A,F1G1H1I1J1K1L1M1; N1O1P1Q1R1S19'T1U1V1W1X1Y1,'Z1`1 2.2[.+2@2#2$2C#Y 3#%2&2*2=2-2>#P@;2>2,2'2)2!2~2{2]2^2/2(2_2:2<2[2",
"X }2|212C 22324252} 627282X 9202a2b2c2d2e2f2g2h2i2j2k2; l2m2n2w+o2p2q2r2s2t2$$u2v2w2x2y2O z2A2B2C2D2E2F2G2H2I2J2K2L2M2N2O2P2Q2R2",
"S2T2U2h+V2W2X2Y2Z2`2 3.33.+3@3#3|,$3%3&3S,,<,'*3=3-3;3>3,3'3h+)3!3~3{3>#P@]3^3/3(3_3P@3.:3<3[3}3|313233343536373839303a3b3c3d3e3",
"i<f3x+g3h3i3j3k3l3m3n3$$o3p3q39'r3s3t3u3v3!~w3x3y3z3A3B3C3Y D3E3F3G39 H3I3J3K3L33.$$M3A3N3O3P3Q3R3O } q_S3T3U3V3} W3X3W3X3q_Y3Z3",
"`3}  4.4+4@4#4$4%4&4C *4=4-4h+;4>4,4'4)4!4~4{4]4x+^4/4(49 _4:4c*<4X [4}4|414249 344454647484948 w+04a4b4c4d4N'e4f4g4h4i4j4k4l4m4",
"Y n4o4p4q4k1r4s4t43.u4v4w4X x4y4z4A4B4C4X D4E4F4G4H4I49 J4K4L49 M4N4O4P4Q4} R4S4T4U4V4W4w+X4f'Y4Z4`4 5P@.5+5>#@5W3#5$5z1} s_r1%5",
"&5*5=5-5P[;5>5,5'5<=)5!5Q$~5{5]5^5/5(5_5:5<5[5}5|515; 253545w+556575859 >#9505a5b5c5$$d5e5f5g5h5i5j5k5l5m5n5o5p5q5r5s5t5u5v5w5x5",
"y5z5$$A5B5C53.D5E5F5G5$<H5I5J5K5L5M5N5O5P5Q5R5b'S5w+T5U5V5W5w+X5Y5Z5>#`5 6.6+6@6w+#6$6%6&6*6=6-6;6} >6,6'6)6!6~6{6]6^6/6(6_6:6<6",
"[6}6|61626; 3646569'66768696C 06a6b6c6d6e6f6g6h6i6j6k6l6m6} n6o6p6} q6r6s6t6} u6v6w6x6y6z6W3} } q_i4A6B6} } C6D6E6F6G6H6I6J6w1} ",
"} K6L6M6$$N6O6P6Q6R6S6! T6U6V6W6X6P@Y6Z6`6 7.7+7$ @7#7K$>#$7%7&7Y *7=7-7;7O >7,7'7)7I~G.} !7~7{7]7^7N'/7(7_7:7<7[7G.X Y } } }7|7",
"1727379'4757A 3#6777879 9707a7b78 c7d7e7f7g7h7[.i7j7k7$ l7m7n7G.o7p7q7r7>#s7t7u7v79 w7x7y7z7A7B7C7D7E7F7G7H7>#}7I7J7K7L7M7N7O7P7",
"Q7R7x+h+S7T73#U7V7W73#X7Y7Z7`7># 8.8+8@8#8$8%8&85]*8^+=8-8;8>8} ,8'8)83.!8~8{8]8Y ^8/8(8_8:8<8Q=){Y [8}8|818283848586878889808a8",
"b8c8d8e8f8m6T6g8*&X h8i8j8',k8l8m8n8} o8p8q8r8s8t8l%x4u8v8w8Y x8y8z8X A8B8C8D88 E8F8G8H8I8J8S3K8<7L8M8N8O8_*P8Q8R8S8T8U8V8} W8N'",
"X8Y Y8Z8`8 9.9+9w+@9#9$9%9&9*9=9-99 ;9>9,9^+'9)9!9X ~9{9]9w+^9/9(9W4_9:9<9[9}9|9192939X @5495969798999} 09a9Y 8 b9} } } c9X3d98 ",
"e9f9g9h9i9j9k9l9m9n9o93.3.p9q9r9Y s9t9u9; v9w9x9C y9z9A99 B9C9D9E9F9G9H9I9J9K9L9M9A,X N9O9P9Q9R9S9T9U9V9W9X9G.W3|7Y9Z9`9 0.0+0@0",
"#0$0%0&0*0=0-0^+;0>0,0M:'0)0!0$$~0{0]0^0/0(0_03.:0<0[0} }0|010>#20304050X 60708090x+x+00a0b0c0d0e0f0g0h0i0j0k0l0m0n0o0p0q0r0s0t0"};
